app/assets/luts/bleach_bypass.cube
# Bleach Bypass — generated by tools/make_luts.dart.
# Edit the formula there, not this file.
TITLE "vdodtor Bleach Bypass"
LUT_3D_SIZE 17
DOMAIN_MIN 0.0 0.0 0.0
DOMAIN_MAX 1.0 1.0 1.0
0.000000 0.000000 0.000000
0.023234 0.004328 0.004328
0.046641 0.008829 0.008829
0.070237 0.013518 0.013518
0.094034 0.018409 0.018409
0.118049 0.023518 0.023518
0.142296 0.028858 0.028858
0.166790 0.034446 0.034446
0.191545 0.040295 0.040295
0.216575 0.046419 0.046419
0.241893 0.052830 0.052830
0.267510 0.059541 0.059541
0.293437 0.066562 0.066562
0.319685 0.073903 0.073903
0.346259 0.081572 0.081572
0.373168 0.089574 0.089574
0.400416 0.097916 0.097916
0.015274 0.034181 0.015274
0.039149 0.039149 0.020243
0.063247 0.044341 0.025434
0.087582 0.049770 0.030863
0.112169 0.055451 0.036544
0.137023 0.061398 0.042492
0.162156 0.067625 0.048719
0.187582 0.074144 0.055238
0.213311 0.080967 0.062061
0.239354 0.088104 0.069198
0.265719 0.095563 0.076657
0.292415 0.103353 0.084446
0.319447 0.111478 0.092572
0.346818 0.119943 0.101037
0.374532 0.128751 0.109844
0.402588 0.137901 0.118994
0.430986 0.147392 0.128486
0.032902 0.070714 0.032902
0.057584 0.076491 0.038678
0.082538 0.082538 0.044726
0.107777 0.088870 0.051058
0.133311 0.095499 0.057686
0.159154 0.102435 0.064622
0.185313 0.109688 0.071876
0.211798 0.117267 0.079454
0.238615 0.125178 0.087365
0.265770 0.133427 0.095614
0.293266 0.142016 0.104204
0.321105 0.150948 0.113136
0.349285 0.160223 0.122410
0.377806 0.169838 0.132025
0.406663 0.179788 0.141976
0.435851 0.190069 0.152257
0.465360 0.200673 0.162860
0.053436 0.110155 0.053436
0.079082 0.116894 0.060175
0.105038 0.123944 0.067226
0.131315 0.131315 0.074597
0.157921 0.139014 0.082296
0.184860 0.147048 0.090329
0.212139 0.155420 0.098702
0.239760 0.164135 0.107416
0.267723 0.173192 0.116473
0.296028 0.182590 0.125872
0.324672 0.192328 0.135609
0.353650 0.202400 0.145681
0.382955 0.212799 0.156080
0.412580 0.223518 0.166799
0.442513 0.234545 0.177826
0.472743 0.245868 0.189149
0.503255 0.257473 0.200755
0.077361 0.152986 0.077361
0.104088 0.160806 0.085181
0.131150 0.168963 0.093338
0.158553 0.177460 0.101835
0.186299 0.186299 0.110674
0.214386 0.195480 0.119855
0.242815 0.205003 0.129378
0.271581 0.214863 0.139238
0.300680 0.225055 0.149430
0.330102 0.235571 0.159946
0.359841 0.246403 0.170778
0.389883 0.257540 0.181915
0.420217 0.268967 0.193342
0.450828 0.280672 0.205047
0.481700 0.292637 0.217012
0.512814 0.304845 0.229220
0.544151 0.317276 0.241651
0.105013 0.199544 0.105013
0.132883 0.208508 0.113977
0.161095 0.217814 0.123283
0.189647 0.227460 0.132928
0.218535 0.237441 0.142910
0.247752 0.247752 0.153221
0.277291 0.258385 0.163854
0.307142 0.269329 0.174798
0.337292 0.280573 0.186042
0.367729 0.292104 0.197572
0.398436 0.303905 0.209374
0.429398 0.315961 0.221429
0.460596 0.328252 0.233721
0.492009 0.340759 0.246228
0.523617 0.353461 0.258930
0.555398 0.366336 0.271804
0.587328 0.379359 0.284828
0.136524 0.249961 0.136524
0.165532 0.260064 0.146626
0.194868 0.270493 0.157055
0.224521 0.281240 0.167803
0.254482 0.292295 0.178857
0.284739 0.303645 0.190207
0.315276 0.315276 0.201838
0.346078 0.327172 0.213734
0.377128 0.339315 0.225878
0.408406 0.351688 0.238250
0.439893 0.364268 0.250831
0.471567 0.377036 0.263598
0.503405 0.389967 0.276530
0.535383 0.403039 0.289602
0.567477 0.416227 0.302789
0.599661 0.429505 0.316067
0.631910 0.442847 0.329410
0.171792 0.304136 0.171792
0.201862 0.315300 0.182956
0.232223 0.326754 0.194410
0.262858 0.338483 0.206139
0.293753 0.350471 0.218128
0.324888 0.362701 0.230357
0.356245 0.375151 0.242807
0.387802 0.387802 0.255459
0.419539 0.400632 0.268289
0.451430 0.413618 0.281274
0.483453 0.426734 0.294391
0.515583 0.439958 0.307614
0.547794 0.453262 0.320919
0.580059 0.466622 0.334278
0.612354 0.480010 0.347666
0.644651 0.493401 0.361057
0.676923 0.506766 0.374423
0.210475 0.361725 0.210475
0.241459 0.373803 0.222553
0.272678 0.386115 0.234865
0.304110 0.398641 0.247391
0.335735 0.411360 0.260110
0.367531 0.424249 0.272999
0.399473 0.437285 0.286035
0.431538 0.450444 0.299194
0.463700 0.463700 0.312450
0.495934 0.477027 0.325777
0.528213 0.490400 0.339150
0.560511 0.503792 0.352542
0.592802 0.517177 0.365927
0.625059 0.530528 0.379278
0.657255 0.543818 0.392568
0.689365 0.557022 0.405772
0.721364 0.570114 0.418864
0.252000 0.422157 0.252000
0.283690 0.434940 0.264784
0.315542 0.447886 0.277729
0.347532 0.460969 0.290813
0.379635 0.474166 0.304010
0.411826 0.487451 0.317295
0.444080 0.500798 0.330642
0.476369 0.514181 0.344025
0.508668 0.527574 0.357418
0.540949 0.540949 0.370793
0.573187 0.554281 0.384124
0.605355 0.567542 0.397386
0.637427 0.580709 0.410552
0.669379 0.593754 0.423598
0.701185 0.606654 0.436498
0.732823 0.619386 0.449229
0.764270 0.631926 0.461770
0.295606 0.484668 0.295606
0.327744 0.497900 0.308838
0.359961 0.511211 0.322148
0.392230 0.524574 0.335512
0.424526 0.537964 0.348901
0.456822 0.551353 0.362290
0.489090 0.564715 0.375653
0.521306 0.578024 0.388962
0.553442 0.591254 0.402192
0.585473 0.604379 0.415317
0.617375 0.617375 0.428312
0.649123 0.630216 0.441154
0.680693 0.642881 0.453818
0.712065 0.655346 0.466283
0.743216 0.667591 0.478529
0.774128 0.679597 0.490534
0.804782 0.691345 0.502282
0.340385 0.548353 0.340385
0.372683 0.561746 0.353777
0.404972 0.575128 0.367160
0.437224 0.588474 0.380506
0.469414 0.601758 0.393789
0.501515 0.614952 0.406984
0.533502 0.628033 0.420064
0.565350 0.640975 0.433006
0.597036 0.653755 0.445786
0.628537 0.666349 0.458381
0.659831 0.678737 0.470768
0.690897 0.690897 0.482928
0.721717 0.702811 0.494842
0.752273 0.714461 0.506492
0.782549 0.725831 0.517862
0.812531 0.736906 0.528938
0.842207 0.747675 0.539707
0.385350 0.612225 0.385350
0.417511 0.625479 0.398604
0.449573 0.638635 0.411760
0.481512 0.651668 0.424793
0.513304 0.664554 0.437679
0.544925 0.677269 0.450394
0.576353 0.689790 0.462915
0.607566 0.702097 0.475222
0.638545 0.714170 0.487295
0.669271 0.725990 0.499115
0.699727 0.737539 0.510664
0.729898 0.748804 0.521929
0.759769 0.759769 0.532894
0.789330 0.770424 0.543549
0.818570 0.780758 0.553883
0.847481 0.790762 0.563887
0.876057 0.800432 0.573557
0.429503 0.675284 0.429503
0.461235 0.688110 0.442329
0.492789 0.700757 0.454976
0.524141 0.713203 0.467422
0.555271 0.725427 0.479646
0.586160 0.737410 0.491628
0.616789 0.749133 0.503352
0.647143 0.760580 0.514799
0.677206 0.771738 0.525956
0.706966 0.782591 0.536810
0.736411 0.793130 0.547349
0.765532 0.803345 0.557564
0.794322 0.813228 0.567447
0.822774 0.822774 0.576993
0.850886 0.831980 0.586198
0.878655 0.840842 0.595061
0.906082 0.849363 0.603582
0.471899 0.736586 0.471899
0.502943 0.748725 0.484037
0.533740 0.760615 0.495927
0.564271 0.772239 0.507552
0.594520 0.783583 0.518895
0.624475 0.794631 0.529943
0.654121 0.805371 0.540684
0.683449 0.815793 0.551106
0.712450 0.825888 0.561200
0.741118 0.835649 0.570962
0.769446 0.845071 0.580384
0.797433 0.854152 0.589465
0.825078 0.862890 0.598203
0.852380 0.871286 0.606599
0.879343 0.879343 0.614656
0.905972 0.887066 0.622378
0.932272 0.894459 0.629772
0.511715 0.795309 0.511715
0.541859 0.806546 0.522952
0.571702 0.817484 0.533890
0.601234 0.828109 0.544515
0.630444 0.838413 0.554819
0.659324 0.848387 0.564793
0.687869 0.858025 0.574431
0.716073 0.867323 0.583730
0.743936 0.876279 0.592686
0.771455 0.884893 0.601299
0.798634 0.893165 0.609571
0.825475 0.901100 0.617506
0.851983 0.908701 0.625108
0.878164 0.915977 0.632383
0.904028 0.922935 0.639341
0.929584 0.929584 0.645991
0.954843 0.935937 0.652343
0.548304 0.850804 0.548304
0.577395 0.860989 0.558489
0.606154 0.870841 0.568341
0.634575 0.880356 0.577856
0.662655 0.889530 0.587030
0.690392 0.898361 0.595861
0.717787 0.906850 0.604350
0.744843 0.914999 0.612499
0.771562 0.922812 0.620312
0.797950 0.930294 0.627794
0.824015 0.937453 0.634953
0.849766 0.944297 0.641797
0.875212 0.950837 0.648337
0.900365 0.957084 0.654584
0.925238 0.963050 0.660550
0.949843 0.968750 0.666250
0.974196 0.974196 0.671696
0.001451 0.001451 0.020357
0.024742 0.005836 0.024742
0.048212 0.010399 0.029306
0.071874 0.015155 0.034062
0.095744 0.020119 0.039025
0.119836 0.025305 0.044211
0.144165 0.030728 0.049634
0.168746 0.036402 0.055309
0.193593 0.042343 0.061249
0.218719 0.048563 0.067469
0.244137 0.055075 0.073981
0.269859 0.061890 0.080797
0.295894 0.069019 0.087925
0.322252 0.076471 0.095377
0.348939 0.084252 0.103158
0.375963 0.092369 0.111275
0.403326 0.100826 0.119732
0.016938 0.035844 0.035844
0.040887 0.040887 0.040887
0.065063 0.046157 0.046157
0.089482 0.051670 0.051670
0.114159 0.057440 0.057440
0.139106 0.063481 0.063481
0.164337 0.069806 0.069806
0.189864 0.076427 0.076427
0.215699 0.083355 0.083355
0.241850 0.090600 0.090600
0.268327 0.098171 0.098171
0.295137 0.106074 0.106074
0.322283 0.114315 0.114315
0.349771 0.122896 0.122896
0.377601 0.131820 0.131820
0.405773 0.141086 0.141086
0.434286 0.150692 0.150692
0.034834 0.072646 0.053740
0.059607 0.078513 0.059607
0.084656 0.084656 0.065750
0.109994 0.091088 0.072181
0.135632 0.097819 0.078913
0.161581 0.104862 0.085956
0.187850 0.112225 0.093319
0.214447 0.119916 0.101010
0.241379 0.127941 0.109035
0.268649 0.136305 0.117399
0.296261 0.145011 0.126105
0.324216 0.154060 0.135154
0.352513 0.163450 0.144544
0.381148 0.173179 0.154273
0.410118 0.183243 0.164337
0.439416 0.193635 0.174728
0.469033 0.204345 0.185439
0.055690 0.112409 0.074597
0.081441 0.119253 0.081441
0.107505 0.126411 0.088599
0.133893 0.133893 0.096080
0.160611 0.141705 0.103892
0.187666 0.149853 0.112041
0.215060 0.158341 0.120529
0.242797 0.167172 0.129360
0.270876 0.176345 0.138533
0.299297 0.185859 0.148047
0.328055 0.195711 0.157899
0.357145 0.205895 0.168083
0.386560 0.216404 0.178591
0.416291 0.227228 0.189416
0.446326 0.238357 0.200545
0.476653 0.249778 0.211966
0.507257 0.261476 0.223664
0.079980 0.155605 0.098886
0.106820 0.163538 0.106820
0.133998 0.171810 0.115091
0.161517 0.180423 0.123704
0.189378 0.189378 0.132660
0.217582 0.198676 0.141957
0.246126 0.208314 0.151595
0.275006 0.218287 0.161568
0.304215 0.228590 0.171871
0.333746 0.239215 0.182496
0.363589 0.250152 0.193433
0.393732 0.261389 0.204670
0.424162 0.272912 0.216193
0.454863 0.284707 0.227988
0.485819 0.296757 0.240038
0.517011 0.309042 0.252324
0.548420 0.321545 0.264826
0.108019 0.202550 0.126925
0.136005 0.211630 0.136005
0.164333 0.221052 0.145427
0.193000 0.230812 0.155187
0.222000 0.240906 0.165281
0.251328 0.251328 0.175703
0.280974 0.262067 0.186442
0.310927 0.273115 0.197490
0.341176 0.284458 0.208833
0.371707 0.296082 0.220457
0.402503 0.307972 0.232347
0.433547 0.320109 0.244484
0.464820 0.332476 0.256851
0.496302 0.345052 0.269427
0.527972 0.357815 0.282190
0.559806 0.370743 0.295118
0.591781 0.383812 0.308187
0.139918 0.253355 0.158824
0.169038 0.263569 0.169038
0.198482 0.274107 0.179576
0.228242 0.284961 0.190429
0.258305 0.296117 0.201586
0.288658 0.307564 0.213033
0.319287 0.319287 0.224756
0.350175 0.331269 0.236738
0.381305 0.343492 0.248961
0.412657 0.355938 0.261407
0.444209 0.368584 0.274053
0.475941 0.381410 0.286879
0.507830 0.394392 0.299861
0.539850 0.407506 0.312975
0.571977 0.420727 0.326196
0.604186 0.434030 0.339499
0.636451 0.447388 0.352857
0.175550 0.307894 0.194456
0.205720 0.319158 0.205720
0.236176 0.330707 0.217270
0.266901 0.342526 0.229089
0.297880 0.354598 0.241161
0.329092 0.366905 0.253467
0.360520 0.379426 0.265989
0.392141 0.392141 0.278703
0.423932 0.405026 0.291588
0.455871 0.418059 0.304621
0.487933 0.431215 0.317777
0.520093 0.444468 0.331031
0.552326 0.457795 0.344357
0.584604 0.471167 0.357729
0.616902 0.484559 0.371121
0.649194 0.497944 0.384506
0.681452 0.511295 0.397858
0.214549 0.365799 0.233455
0.245615 0.377959 0.245615
0.276908 0.390346 0.258002
0.308409 0.402940 0.270596
0.340094 0.415719 0.283376
0.371942 0.428661 0.296317
0.403929 0.441742 0.309398
0.436030 0.454936 0.322592
0.468219 0.468219 0.335875
0.500471 0.481565 0.349221
0.532760 0.494948 0.362604
0.565059 0.508340 0.375996
0.597341 0.521716 0.389372
0.629580 0.535049 0.402705
0.661750 0.548313 0.415969
0.693825 0.561482 0.429138
0.725780 0.574530 0.442187
0.256322 0.426478 0.275228
0.288070 0.439320 0.288070
0.319971 0.452315 0.301065
0.352002 0.465440 0.314190
0.384138 0.478669 0.327419
0.416353 0.491978 0.340728
0.448622 0.505341 0.354091
0.480917 0.518730 0.367480
0.513213 0.532119 0.380869
0.545483 0.545483 0.394233
0.577700 0.558794 0.407544
0.609838 0.572026 0.420776
0.641872 0.585154 0.433904
0.673777 0.598152 0.446902
0.705529 0.610998 0.459748
0.737104 0.623667 0.472417
0.768481 0.636137 0.484887
0.300089 0.489151 0.318995
0.332257 0.502413 0.332257
0.364495 0.515745 0.345588
0.396776 0.529120 0.358963
0.429075 0.542512 0.372356
0.461364 0.555895 0.385739
0.493617 0.569242 0.399086
0.525809 0.582528 0.412371
0.557912 0.595725 0.425568
0.589902 0.608809 0.438652
0.621754 0.621754 0.451598
0.653444 0.634538 0.464382
0.684950 0.647137 0.476981
0.716249 0.659530 0.489374
0.747321 0.671696 0.501540
0.778147 0.683616 0.513460
0.808710 0.695273 0.525116
0.344932 0.552901 0.363839
0.377231 0.566293 0.377231
0.409510 0.579666 0.390604
0.441744 0.592994 0.403931
0.473906 0.606250 0.417187
0.505971 0.619409 0.430346
0.537914 0.632445 0.443383
0.569710 0.645335 0.456272
0.601335 0.658054 0.468991
0.632768 0.670580 0.481518
0.663987 0.682893 0.493830
0.694971 0.694971 0.505909
0.725704 0.706798 0.517735
0.756167 0.718354 0.529292
0.786344 0.729626 0.540563
0.816224 0.740599 0.551536
0.845792 0.751261 0.562198
0.389861 0.616736 0.408767
0.421991 0.629959 0.421991
0.454014 0.643077 0.435108
0.485906 0.656062 0.448093
0.517642 0.668892 0.460924
0.549200 0.681544 0.473575
0.580558 0.693995 0.486026
0.611693 0.706225 0.498256
0.642588 0.718213 0.510245
0.673224 0.729943 0.521974
0.703585 0.741398 0.533429
0.733656 0.752562 0.544593
0.763423 0.763423 0.555454
0.792876 0.773970 0.566001
0.822005 0.784193 0.576224
0.850803 0.794084 0.586115
0.879264 0.803639 0.595670
0.433877 0.679659 0.452784
0.465552 0.692427 0.465552
0.497039 0.705008 0.478133
0.528318 0.717380 0.490505
0.559368 0.729524 0.502649
0.590171 0.741421 0.514546
0.620708 0.753052 0.526177
0.650965 0.764403 0.537528
0.680927 0.775458 0.548583
0.710581 0.786206 0.559331
0.739917 0.796636 0.569761
0.768926 0.806739 0.579864
0.797602 0.816508 0.589633
0.825939 0.825939 0.599064
0.853934 0.835028 0.608153
0.881587 0.843774 0.616899
0.908898 0.852179 0.625304
0.476048 0.740735 0.494954
0.507010 0.752791 0.507010
0.537718 0.764593 0.518812
0.568155 0.776124 0.530343
0.598306 0.787369 0.541587
0.628157 0.798313 0.552532
0.657697 0.808947 0.563165
0.686915 0.819258 0.573477
0.715803 0.829241 0.583459
0.744356 0.838887 0.593106
0.772569 0.848194 0.602412
0.800439 0.857158 0.611377
0.827967 0.865780 0.619999
0.855154 0.874060 0.628279
0.882003 0.882003 0.636222
0.908519 0.889613 0.643832
0.934709 0.896897 0.651115
0.515564 0.799158 0.534470
0.545607 0.810295 0.545607
0.575346 0.821128 0.556440
0.604770 0.831645 0.566957
0.633869 0.841837 0.577150
0.662635 0.851698 0.587010
0.691065 0.861221 0.596534
0.719153 0.870403 0.605716
0.746899 0.879243 0.614555
0.774303 0.887740 0.623053
0.801366 0.895897 0.631210
0.828093 0.903718 0.639031
0.854490 0.911208 0.646521
0.880563 0.918375 0.653688
0.906321 0.925227 0.660539
0.931774 0.931774 0.667087
0.956935 0.938028 0.673341
0.551800 0.854300 0.570706
0.580778 0.864372 0.580778
0.609423 0.874110 0.590517
0.637729 0.883510 0.599916
0.665692 0.892567 0.608974
0.693313 0.901282 0.617688
0.720593 0.909655 0.626062
0.747533 0.917690 0.634096
0.774139 0.925389 0.641795
0.800417 0.932761 0.649167
0.826374 0.939812 0.656218
0.852020 0.946552 0.662958
0.877366 0.952991 0.669397
0.902422 0.959141 0.675547
0.927203 0.965015 0.681421
0.951720 0.970627 0.687033
0.975990 0.975990 0.692396
0.002921 0.002921 0.040734
0.026271 0.007365 0.045178
0.049805 0.011992 0.049805
0.073536 0.016817 0.054630
0.097479 0.021854 0.059667
0.121650 0.027119 0.064931
0.146063 0.032626 0.070438
0.170733 0.038389 0.076202
0.195673 0.044423 0.082236
0.220897 0.050741 0.088554
0.246417 0.057355 0.095167
0.272244 0.064276 0.102088
0.298388 0.071513 0.109326
0.324857 0.079076 0.116888
0.351658 0.086971 0.124783
0.378796 0.095203 0.133015
0.406276 0.103776 0.141588
0.018626 0.037532 0.056438
0.042650 0.042650 0.061556
0.066907 0.048001 0.066907
0.091412 0.053600 0.072506
0.116179 0.059460 0.078367
0.141221 0.065596 0.084502
0.166552 0.072020 0.090927
0.192182 0.078745 0.097651
0.218123 0.085780 0.104686
0.244385 0.093135 0.112041
0.270974 0.100818 0.119724
0.297897 0.108835 0.127741
0.325159 0.117190 0.136097
0.352763 0.125888 0.144794
0.380709 0.134928 0.153834
0.408998 0.144310 0.163216
0.437625 0.154031 0.172937
0.036796 0.074609 0.074609
0.061662 0.080568 0.080568
0.086807 0.086807 0.086807
0.112246 0.093339 0.093339
0.137988 0.100176 0.100176
0.164045 0.107326 0.107326
0.190425 0.114800 0.114800
0.217135 0.122604 0.122604
0.244181 0.130744 0.130744
0.271567 0.139224 0.139224
0.299296 0.148046 0.148046
0.327367 0.157211 0.157211
0.355779 0.166716 0.166716
0.384529 0.176560 0.176560
0.413611 0.186736 0.186736
0.443018 0.197237 0.197237
0.472741 0.208054 0.208054
0.057980 0.114699 0.095792
0.083836 0.121648 0.102742
0.110009 0.128915 0.110009
0.136508 0.136508 0.117602
0.163340 0.144434 0.125528
0.190510 0.152698 0.133791
0.218021 0.161302 0.142396
0.245874 0.170249 0.151343
0.274069 0.179538 0.160632
0.302605 0.189168 0.170261
0.331477 0.199133 0.180227
0.360678 0.209428 0.190522
0.390201 0.220045 0.201139
0.420037 0.230974 0.212068
0.450173 0.242204 0.223298
0.480596 0.253721 0.234814
0.511290 0.265509 0.246603
0.082636 0.158261 0.120449
0.109591 0.166309 0.128497
0.136884 0.174697 0.136884
0.164520 0.183426 0.145613
0.192498 0.192498 0.154685
0.220817 0.201911 0.164098
0.249476 0.211663 0.173851
0.278468 0.221749 0.183937
0.307788 0.232163 0.194350
0.337426 0.242895 0.205082
0.367372 0.253935 0.216122
0.397614 0.265271 0.227458
0.428138 0.276888 0.239076
0.458928 0.288771 0.250959
0.489966 0.300903 0.263091
0.521234 0.313265 0.275452
0.552711 0.325836 0.288023
0.111064 0.205595 0.148876
0.139166 0.214791 0.158073
0.167610 0.224329 0.167610
0.196391 0.234203 0.177484
0.225503 0.244409 0.187690
0.254940 0.254940 0.198221
0.284691 0.265785 0.209066
0.314747 0.276934 0.220216
0.345093 0.288374 0.231656
0.375716 0.300091 0.243372
0.406598 0.312067 0.255348
0.437722 0.324284 0.267566
0.469068 0.336725 0.280006
0.500617 0.349367 0.292648
0.532345 0.362188 0.305470
0.564229 0.375167 0.318448
0.596246 0.388278 0.331559
0.143349 0.256787 0.181162
0.172581 0.267112 0.191487
0.202133 0.277758 0.202133
0.231997 0.288716 0.213091
0.262160 0.299973 0.224348
0.292609 0.311515 0.235890
0.323328 0.323328 0.247703
0.354300 0.335394 0.259769
0.385508 0.347695 0.272070
0.416930 0.360211 0.284586
0.448546 0.372921 0.297296
0.480334 0.385803 0.310178
0.512270 0.398832 0.323207
0.544329 0.411985 0.336360
0.576487 0.425237 0.349612
0.608718 0.438562 0.362937
0.640996 0.451933 0.376308
0.179343 0.311686 0.217155
0.209611 0.323049 0.228518
0.240160 0.334691 0.240160
0.270974 0.346599 0.252067
0.302034 0.358752 0.264221
0.333322 0.371134 0.276603
0.364817 0.383723 0.289192
0.396498 0.396498 0.301967
0.428343 0.409437 0.314905
0.460326 0.422514 0.327983
0.492425 0.435706 0.341175
0.524612 0.448987 0.354456
0.556863 0.462332 0.367801
0.589151 0.475714 0.381183
0.621450 0.489106 0.394575
0.653733 0.502483 0.407952
0.685974 0.515817 0.421286
0.218652 0.369902 0.256464
0.249797 0.382141 0.268704
0.281163 0.394601 0.281163
0.312729 0.407260 0.293823
0.344472 0.420097 0.306660
0.376370 0.433089 0.319651
0.408398 0.446211 0.332773
0.440532 0.459438 0.346001
0.472746 0.472746 0.359308
0.505013 0.486107 0.372670
0.537309 0.499496 0.386059
0.569605 0.512886 0.399448
0.601875 0.526250 0.412813
0.634094 0.539563 0.426125
0.666234 0.552797 0.439359
0.698271 0.565928 0.452490
0.730180 0.578930 0.465492
0.260664 0.430821 0.298477
0.292467 0.443717 0.311373
0.324415 0.456759 0.324415
0.356484 0.469922 0.337578
0.388650 0.483182 0.350838
0.420887 0.496512 0.364168
0.453167 0.509886 0.377542
0.485466 0.523278 0.390935
0.517756 0.536662 0.404318
0.550010 0.550010 0.417667
0.582204 0.563297 0.430954
0.614309 0.576497 0.444153
0.646303 0.589584 0.457240
0.678158 0.602533 0.470189
0.709853 0.615321 0.482978
0.741363 0.627925 0.495582
0.772667 0.640323 0.507980
0.304583 0.493646 0.342396
0.336778 0.506934 0.355684
0.369033 0.520283 0.369033
0.401323 0.533667 0.382417
0.433622 0.547059 0.395809
0.465902 0.560433 0.409183
0.498137 0.573762 0.422512
0.530302 0.587021 0.435771
0.562370 0.600182 0.448932
0.594315 0.613222 0.461972
0.626115 0.626115 0.474865
0.657745 0.638839 0.487589
0.689183 0.651370 0.500120
0.720407 0.663688 0.512438
0.751398 0.675773 0.524523
0.782136 0.687605 0.536355
0.812606 0.699168 0.547918
0.349481 0.557450 0.387293
0.381776 0.570838 0.400682
0.414043 0.584199 0.414043
0.446255 0.597505 0.427349
0.478387 0.610731 0.440575
0.510413 0.623851 0.453695
0.542309 0.636840 0.466684
0.574049 0.649674 0.479518
0.605612 0.662331 0.492174
0.636974 0.674787 0.504631
0.668116 0.687022 0.516866
0.699017 0.699017 0.528861
0.729659 0.710753 0.540597
0.760027 0.722215 0.552058
0.790105 0.733386 0.563230
0.819880 0.744255 0.574099
0.849341 0.754809 0.584653
0.394362 0.621237 0.432175
0.426459 0.634427 0.445365
0.458440 0.647502 0.458440
0.490282 0.660438 0.471376
0.521960 0.673210 0.484148
0.553452 0.685796 0.496734
0.584737 0.698174 0.509112
0.615793 0.710324 0.521261
0.646602 0.722227 0.533164
0.677146 0.733865 0.544802
0.707410 0.745222 0.556160
0.737379 0.756285 0.567223
0.767041 0.767041 0.577978
0.796385 0.777478 0.588416
0.825402 0.787589 0.598527
0.854086 0.797367 0.608304
0.882431 0.806806 0.617743
0.438233 0.684014 0.476046
0.469846 0.696721 0.488752
0.501265 0.709234 0.501265
0.532469 0.721531 0.513562
0.563437 0.733593 0.525624
0.594151 0.745401 0.537433
0.624595 0.756939 0.548970
0.654753 0.768191 0.560222
0.684612 0.779143 0.571174
0.714159 0.789784 0.581815
0.743385 0.800104 0.592135
0.772282 0.810094 0.602125
0.800843 0.819749 0.611780
0.829064 0.829064 0.621095
0.856943 0.838037 0.630068
0.884479 0.846667 0.638698
0.911675 0.854956 0.646987
0.480169 0.744857 0.517982
0.511047 0.756829 0.529954
0.541665 0.768540 0.541665
0.572007 0.779976 0.553101
0.602057 0.791120 0.564245
0.631804 0.801960 0.575085
0.661235 0.812485 0.585610
0.690342 0.822686 0.595811
0.719117 0.832554 0.605679
0.747555 0.842086 0.615211
0.775651 0.851276 0.624401
0.803406 0.860124 0.633249
0.830818 0.868630 0.641755
0.857889 0.876796 0.649921
0.884625 0.884625 0.657750
0.911029 0.892123 0.665248
0.937110 0.899297 0.672422
0.519380 0.802973 0.557192
0.549321 0.814008 0.568227
0.578954 0.824735 0.578954
0.608268 0.835143 0.589362
0.637255 0.845224 0.599442
0.665908 0.854970 0.609189
0.694221 0.864378 0.618596
0.722194 0.873444 0.627662
0.749823 0.882167 0.636386
0.777111 0.890548 0.644767
0.804060 0.898591 0.652810
0.830674 0.906299 0.660517
0.856959 0.913678 0.667897
0.882924 0.920737 0.674956
0.908578 0.927484 0.681703
0.933930 0.933930 0.688149
0.958994 0.940088 0.694306
0.555257 0.857757 0.593070
0.584123 0.867717 0.603030
0.612653 0.877341 0.612653
0.640843 0.886624 0.621937
0.668690 0.895565 0.630878
0.696195 0.904164 0.639476
0.723359 0.912422 0.647734
0.750185 0.920342 0.655654
0.776679 0.927929 0.663242
0.802847 0.935191 0.670503
0.828698 0.942135 0.677448
0.854240 0.948771 0.684084
0.879486 0.955111 0.690424
0.904447 0.961166 0.696479
0.929137 0.966950 0.702262
0.953569 0.972475 0.707788
0.977758 0.977758 0.713070
0.004411 0.004411 0.061129
0.027822 0.008915 0.065634
0.051420 0.013608 0.070327
0.075222 0.018503 0.075222
0.099241 0.023616 0.080335
0.123492 0.028961 0.085680
0.147991 0.034554 0.091272
0.172751 0.040407 0.097126
0.197787 0.046537 0.103255
0.223110 0.052954 0.109672
0.248733 0.059670 0.116389
0.274666 0.066698 0.123416
0.300920 0.074045 0.130763
0.327501 0.081719 0.138438
0.354416 0.089728 0.146447
