app/assets/luts/bleach_bypass.cube
# Bleach Bypass — generated by tools/make_luts.dart.
# Edit the formula there, not this file.
TITLE "vdodtor Bleach Bypass"
LUT_3D_SIZE 5
DOMAIN_MIN 0.0 0.0 0.0
DOMAIN_MAX 1.0 1.0 1.0
0.000000 0.000000 0.000000
0.094034 0.018409 0.018409
0.191545 0.040295 0.040295
0.293437 0.066562 0.066562
0.400416 0.097916 0.097916
0.077361 0.152986 0.077361
0.186299 0.186299 0.110674
0.300680 0.225055 0.149430
0.420217 0.268967 0.193342
0.544151 0.317276 0.241651
0.210475 0.361725 0.210475
0.335735 0.411360 0.260110
0.463700 0.463700 0.312450
0.592802 0.517177 0.365927
0.721364 0.570114 0.418864
0.385350 0.612225 0.385350
0.513304 0.664554 0.437679
0.638545 0.714170 0.487295
0.759769 0.759769 0.532894
0.876057 0.800432 0.573557
0.548304 0.850804 0.548304
0.662655 0.889530 0.587030
0.771562 0.922812 0.620312
0.875212 0.950837 0.648337
0.974196 0.974196 0.671696
0.005920 0.005920 0.081545
0.101029 0.025404 0.101029
0.199933 0.048683 0.124308
0.303489 0.076614 0.152239
0.412294 0.109794 0.185419
0.088066 0.163691 0.163691
0.198854 0.198854 0.198854
0.315043 0.239418 0.239418
0.436181 0.284931 0.284931
0.561358 0.334483 0.334483
0.226940 0.378190 0.302565
0.353281 0.428906 0.353281
0.481817 0.481817 0.406192
0.610924 0.535299 0.459674
0.738926 0.587676 0.512051
0.403332 0.630207 0.478957
0.530530 0.681780 0.530530
0.654536 0.730161 0.578911
0.774165 0.774165 0.622915
0.888647 0.813022 0.661772
0.562059 0.864559 0.637684
0.674568 0.901443 0.674568
0.781646 0.932896 0.706021
0.883629 0.959254 0.732379
0.981214 0.981214 0.754339
0.012170 0.012170 0.163420
0.108463 0.032838 0.184088
0.208860 0.057610 0.208860
0.314149 0.087274 0.238524
0.424804 0.122304 0.273554
0.099394 0.175019 0.250644
0.212037 0.212037 0.287662
0.329981 0.254356 0.329981
0.452614 0.301364 0.376989
0.578883 0.352008 0.427633
0.243824 0.395074 0.395074
0.371082 0.446707 0.446707
0.500000 0.500000 0.500000
0.628918 0.553293 0.553293
0.756176 0.604926 0.604926
0.421117 0.647992 0.572367
0.547386 0.698636 0.623011
0.670019 0.745644 0.670019
0.787963 0.787963 0.712338
0.900606 0.824981 0.749356
0.575196 0.877696 0.726446
0.685851 0.912726 0.761476
0.791140 0.942390 0.791140
0.891537 0.967162 0.815912
0.987830 0.987830 0.836580
0.018786 0.018786 0.245661
0.116371 0.040746 0.267621
0.218354 0.067104 0.293979
0.325432 0.098557 0.325432
0.437941 0.135441 0.362316
0.111353 0.186978 0.338228
0.225835 0.225835 0.377085
0.345464 0.269839 0.421089
0.469470 0.318220 0.469470
0.596668 0.369793 0.521043
0.261074 0.412324 0.487949
0.389076 0.464701 0.540326
0.518183 0.518183 0.593808
0.646719 0.571094 0.646719
0.773060 0.621810 0.697435
0.438642 0.665517 0.665517
0.563819 0.715069 0.715069
0.684957 0.760582 0.760582
0.801146 0.801146 0.801146
0.911934 0.836309 0.836309
0.587706 0.890206 0.814581
0.696511 0.923386 0.847761
0.800067 0.951317 0.875692
0.898971 0.974596 0.898971
0.994080 0.994080 0.918455
0.025804 0.025804 0.328304
0.124788 0.049163 0.351663
0.228438 0.077188 0.379688
0.337345 0.110470 0.412970
0.451696 0.149196 0.451696
0.123943 0.199568 0.426443
0.240231 0.240231 0.467106
0.361455 0.285830 0.512705
0.486696 0.335446 0.562321
0.614650 0.387775 0.614650
0.278636 0.429886 0.581136
0.407198 0.482823 0.634073
0.536300 0.536300 0.687550
0.664265 0.588640 0.739890
0.789525 0.638275 0.789525
0.455849 0.682724 0.758349
0.579783 0.731033 0.806658
0.699320 0.774945 0.850570
0.813701 0.813701 0.889326
0.922639 0.847014 0.922639
0.599584 0.902084 0.902084
0.706563 0.933438 0.933438
0.808455 0.959705 0.959705
0.905966 0.981591 0.981591
1.000000 1.000000 1.000000
