app/assets/luts/bleach_bypass.cube
# Bleach Bypass — generated by tools/make_luts.dart.
# Edit the formula there, not this file.
TITLE "vdodtor Bleach Bypass"
LUT_3D_SIZE 9
DOMAIN_MIN 0.0 0.0 0.0
DOMAIN_MAX 1.0 1.0 1.0
0.000000 0.000000 0.000000
0.046641 0.008829 0.008829
0.094034 0.018409 0.018409
0.142296 0.028858 0.028858
0.191545 0.040295 0.040295
0.241893 0.052830 0.052830
0.293437 0.066562 0.066562
0.346259 0.081572 0.081572
0.400416 0.097916 0.097916
0.032902 0.070714 0.032902
0.082538 0.082538 0.044726
0.133311 0.095499 0.057686
0.185313 0.109688 0.071876
0.238615 0.125178 0.087365
0.293266 0.142016 0.104204
0.349285 0.160223 0.122410
0.406663 0.179788 0.141976
0.465360 0.200673 0.162860
0.077361 0.152986 0.077361
0.131150 0.168963 0.093338
0.186299 0.186299 0.110674
0.242815 0.205003 0.129378
0.300680 0.225055 0.149430
0.359841 0.246403 0.170778
0.420217 0.268967 0.193342
0.481700 0.292637 0.217012
0.544151 0.317276 0.241651
0.136524 0.249961 0.136524
0.194868 0.270493 0.157055
0.254482 0.292295 0.178857
0.315276 0.315276 0.201838
0.377128 0.339315 0.225878
0.439893 0.364268 0.250831
0.503405 0.389967 0.276530
0.567477 0.416227 0.302789
0.631910 0.442847 0.329410
0.210475 0.361725 0.210475
0.272678 0.386115 0.234865
0.335735 0.411360 0.260110
0.399473 0.437285 0.286035
0.463700 0.463700 0.312450
0.528213 0.490400 0.339150
0.592802 0.517177 0.365927
0.657255 0.543818 0.392568
0.721364 0.570114 0.418864
0.295606 0.484668 0.295606
0.359961 0.511211 0.322148
0.424526 0.537964 0.348901
0.489090 0.564715 0.375653
0.553442 0.591254 0.402192
0.617375 0.617375 0.428312
0.680693 0.642881 0.453818
0.743216 0.667591 0.478529
0.804782 0.691345 0.502282
0.385350 0.612225 0.385350
0.449573 0.638635 0.411760
0.513304 0.664554 0.437679
0.576353 0.689790 0.462915
0.638545 0.714170 0.487295
0.699727 0.737539 0.510664
0.759769 0.759769 0.532894
0.818570 0.780758 0.553883
0.876057 0.800432 0.573557
0.471899 0.736586 0.471899
0.533740 0.760615 0.495927
0.594520 0.783583 0.518895
0.654121 0.805371 0.540684
0.712450 0.825888 0.561200
0.769446 0.845071 0.580384
0.825078 0.862890 0.598203
0.879343 0.879343 0.614656
0.932272 0.894459 0.629772
0.548304 0.850804 0.548304
0.606154 0.870841 0.568341
0.662655 0.889530 0.587030
0.717787 0.906850 0.604350
0.771562 0.922812 0.620312
0.824015 0.937453 0.634953
0.875212 0.950837 0.648337
0.925238 0.963050 0.660550
0.974196 0.974196 0.671696
0.002921 0.002921 0.040734
0.049805 0.011992 0.049805
0.097479 0.021854 0.059667
0.146063 0.032626 0.070438
0.195673 0.044423 0.082236
0.246417 0.057355 0.095167
0.298388 0.071513 0.109326
0.351658 0.086971 0.124783
0.406276 0.103776 0.141588
0.036796 0.074609 0.074609
0.086807 0.086807 0.086807
0.137988 0.100176 0.100176
0.190425 0.114800 0.114800
0.244181 0.130744 0.130744
0.299296 0.148046 0.148046
0.355779 0.166716 0.166716
0.413611 0.186736 0.186736
0.472741 0.208054 0.208054
0.082636 0.158261 0.120449
0.136884 0.174697 0.136884
0.192498 0.192498 0.154685
0.249476 0.211663 0.173851
0.307788 0.232163 0.194350
0.367372 0.253935 0.216122
0.428138 0.276888 0.239076
0.489966 0.300903 0.263091
0.552711 0.325836 0.288023
0.143349 0.256787 0.181162
0.202133 0.277758 0.202133
0.262160 0.299973 0.224348
0.323328 0.323328 0.247703
0.385508 0.347695 0.272070
0.448546 0.372921 0.297296
0.512270 0.398832 0.323207
0.576487 0.425237 0.349612
0.640996 0.451933 0.376308
0.218652 0.369902 0.256464
0.281163 0.394601 0.281163
0.344472 0.420097 0.306660
0.408398 0.446211 0.332773
0.472746 0.472746 0.359308
0.537309 0.499496 0.386059
0.601875 0.526250 0.412813
0.666234 0.552797 0.439359
0.730180 0.578930 0.465492
0.304583 0.493646 0.342396
0.369033 0.520283 0.369033
0.433622 0.547059 0.395809
0.498137 0.573762 0.422512
0.562370 0.600182 0.448932
0.626115 0.626115 0.474865
0.689183 0.651370 0.500120
0.751398 0.675773 0.524523
0.812606 0.699168 0.547918
0.394362 0.621237 0.432175
0.458440 0.647502 0.458440
0.521960 0.673210 0.484148
0.584737 0.698174 0.509112
0.646602 0.722227 0.533164
0.707410 0.745222 0.556160
0.767041 0.767041 0.577978
0.825402 0.787589 0.598527
0.882431 0.806806 0.617743
0.480169 0.744857 0.517982
0.541665 0.768540 0.541665
0.602057 0.791120 0.564245
0.661235 0.812485 0.585610
0.719117 0.832554 0.605679
0.775651 0.851276 0.624401
0.830818 0.868630 0.641755
0.884625 0.884625 0.657750
0.937110 0.899297 0.672422
0.555257 0.857757 0.593070
0.612653 0.877341 0.612653
0.668690 0.895565 0.630878
0.723359 0.912422 0.647734
0.776679 0.927929 0.663242
0.828698 0.942135 0.677448
0.879486 0.955111 0.690424
0.929137 0.966950 0.702262
0.977758 0.977758 0.713070
0.005920 0.005920 0.081545
0.053059 0.015247 0.090872
0.101029 0.025404 0.101029
0.149949 0.036512 0.112137
0.199933 0.048683 0.124308
0.251084 0.062021 0.137646
0.303489 0.076614 0.152239
0.357212 0.092525 0.168150
0.412294 0.109794 0.185419
0.040814 0.078626 0.116439
0.091211 0.091211 0.129024
0.142810 0.104998 0.142810
0.195689 0.120064 0.157876
0.249904 0.136466 0.174279
0.305483 0.154233 0.192046
0.362428 0.173366 0.211178
0.420708 0.193833 0.231646
0.480263 0.215575 0.253388
0.088066 0.163691 0.163691
0.142776 0.180588 0.180588
0.198854 0.198854 0.198854
0.256290 0.218478 0.218478
0.315043 0.239418 0.239418
0.375040 0.261603 0.261603
0.436181 0.284931 0.284931
0.498338 0.309276 0.309276
0.561358 0.334483 0.334483
0.150327 0.263765 0.225952
0.209543 0.285168 0.247355
0.269970 0.307782 0.269970
0.331497 0.331497 0.293684
0.393987 0.356174 0.318362
0.457278 0.381653 0.343841
0.521191 0.407754 0.369941
0.585531 0.434281 0.396468
0.650091 0.461028 0.423216
0.226940 0.378190 0.302565
0.289741 0.403179 0.327554
0.353281 0.428906 0.353281
0.417373 0.455185 0.379560
0.481817 0.481817 0.406192
0.546405 0.508592 0.432967
0.610924 0.535299 0.459674
0.675166 0.561728 0.486103
0.738926 0.587676 0.512051
0.313601 0.502663 0.389226
0.378122 0.529372 0.415934
0.442709 0.556147 0.442709
0.507152 0.582777 0.469339
0.571241 0.609053 0.495616
0.634777 0.634777 0.521339
0.697574 0.659761 0.546324
0.759463 0.683838 0.570400
0.820298 0.706861 0.593423
0.403332 0.630207 0.478957
0.467243 0.656305 0.505055
0.530530 0.681780 0.530530
0.593015 0.706452 0.555202
0.654536 0.730161 0.578911
0.714957 0.752769 0.601519
0.774165 0.774165 0.622915
0.832080 0.794267 0.643017
0.888647 0.813022 0.661772
0.488328 0.753016 0.563953
0.549463 0.776338 0.587276
0.609454 0.798516 0.609454
0.668199 0.819449 0.630387
0.725628 0.839065 0.650003
0.781698 0.857323 0.668261
0.836401 0.874213 0.685151
0.889753 0.889753 0.700691
0.941803 0.903990 0.714928
0.562059 0.864559 0.637684
0.618996 0.883683 0.656808
0.674568 0.901443 0.674568
0.728775 0.917837 0.690962
0.781646 0.932896 0.706021
0.833238 0.946675 0.719800
0.883629 0.959254 0.732379
0.932917 0.970730 0.743855
0.981214 0.981214 0.754339
0.009002 0.009002 0.122439
0.056410 0.018597 0.132035
0.104689 0.029064 0.142502
0.153958 0.040520 0.153958
0.204327 0.053077 0.166515
0.255895 0.066833 0.180270
0.308742 0.081867 0.195305
0.362924 0.098236 0.211674
0.418470 0.115970 0.229407
0.044959 0.082771 0.158396
0.095754 0.095754 0.171379
0.147780 0.109967 0.185592
0.201107 0.125482 0.201107
0.255784 0.142346 0.217971
0.311829 0.160579 0.236204
0.369232 0.180169 0.255794
0.427953 0.201078 0.276703
0.487921 0.223233 0.298858
0.093651 0.169276 0.207089
0.148825 0.186638 0.224450
0.205368 0.205368 0.243180
0.263257 0.225444 0.263257
0.322442 0.246817 0.284629
0.382840 0.269403 0.307215
0.444342 0.293092 0.330905
0.506810 0.317748 0.355560
0.570084 0.343209 0.381022
0.157454 0.270892 0.270892
0.217092 0.292717 0.292717
0.277906 0.315719 0.315719
0.339777 0.339777 0.339777
0.402558 0.364746 0.364746
0.466082 0.390457 0.390457
0.530162 0.416725 0.416725
0.594600 0.443350 0.443350
0.659187 0.470125 0.470125
0.235333 0.386583 0.348770
0.298405 0.411842 0.374030
0.362153 0.437778 0.399966
0.426388 0.464200 0.426388
0.490904 0.490904 0.453092
0.555493 0.517680 0.479868
0.619941 0.544316 0.506504
0.684042 0.570604 0.532792
0.747593 0.596343 0.558531
0.322650 0.511713 0.436088
0.387218 0.538468 0.462843
0.451780 0.565217 0.489592
0.516125 0.591750 0.516125
0.580048 0.617861 0.542236
0.643353 0.643353 0.567728
0.705860 0.668047 0.592422
0.767406 0.691781 0.616156
0.827855 0.714418 0.638793
0.412253 0.639128 0.525691
0.475973 0.665036 0.551598
0.539008 0.690258 0.576820
0.601182 0.714619 0.601182
0.662344 0.737969 0.624531
0.722363 0.760176 0.646738
0.781140 0.781140 0.667703
0.838602 0.800789 0.687352
0.894706 0.819081 0.705643
0.496370 0.761057 0.609807
0.557129 0.784004 0.632754
0.616707 0.805769 0.654519
0.675011 0.826261 0.675011
0.731982 0.845419 0.694169
0.787587 0.863212 0.711962
0.841828 0.879640 0.728390
0.894731 0.894731 0.743481
0.946353 0.908541 0.757291
0.568705 0.871205 0.682143
0.625181 0.889868 0.700806
0.680288 0.907163 0.718100
0.734037 0.923099 0.734037
0.786466 0.937716 0.748653
0.837640 0.951077 0.762015
0.887645 0.963270 0.774207
0.936583 0.974396 0.785333
0.984570 0.984570 0.795508
0.012170 0.012170 0.163420
0.059861 0.022048 0.173298
0.108463 0.032838 0.184088
0.158093 0.044656 0.195906
0.208860 0.057610 0.208860
0.260854 0.071792 0.223042
0.314149 0.087274 0.238524
0.368792 0.104105 0.255355
0.424804 0.122304 0.273554
0.049235 0.087048 0.200485
0.100439 0.100439 0.213876
0.152900 0.115087 0.228525
0.206681 0.131056 0.244494
0.261822 0.148384 0.261822
0.318331 0.167081 0.280518
0.376188 0.187125 0.300563
0.435342 0.208467 0.321904
0.495712 0.231024 0.344462
0.099394 0.175019 0.250644
0.155033 0.192846 0.268471
0.212037 0.212037 0.287662
0.270373 0.232561 0.308186
0.329981 0.254356 0.329981
0.390768 0.277330 0.352955
0.452614 0.301364 0.376989
0.515375 0.326313 0.401938
0.578883 0.352008 0.427633
0.164728 0.278165 0.315978
0.224777 0.300402 0.338214
0.285965 0.323777 0.361590
0.348162 0.348162 0.385975
0.411215 0.373403 0.411215
0.474950 0.399325 0.437137
0.539175 0.425737 0.463550
0.603687 0.452437 0.490249
0.668276 0.479214 0.517026
0.243824 0.395074 0.395074
0.307146 0.420584 0.420584
0.371082 0.446707 0.446707
0.435435 0.473248 0.473248
0.500000 0.500000 0.500000
0.564565 0.526752 0.526752
0.628918 0.553293 0.553293
0.692854 0.579416 0.579416
0.756176 0.604926 0.604926
0.331724 0.520786 0.482974
0.396313 0.547563 0.509751
0.460825 0.574263 0.536450
0.525050 0.600675 0.562863
0.588785 0.626597 0.588785
0.651838 0.651838 0.614025
0.714035 0.676223 0.638410
0.775223 0.699598 0.661786
0.835272 0.721835 0.684022
0.421117 0.647992 0.572367
0.484625 0.673687 0.598062
0.547386 0.698636 0.623011
0.609232 0.722670 0.647045
0.670019 0.745644 0.670019
0.729627 0.767439 0.691814
0.787963 0.787963 0.712338
0.844967 0.807154 0.731529
0.900606 0.824981 0.749356
0.504288 0.768976 0.655538
0.564658 0.791533 0.678096
0.623812 0.812875 0.699437
0.681669 0.832919 0.719482
0.738178 0.851616 0.738178
0.793319 0.868944 0.755506
0.847100 0.884913 0.771475
0.899561 0.899561 0.786124
0.950765 0.912952 0.799515
0.575196 0.877696 0.726446
0.631208 0.895895 0.744645
0.685851 0.912726 0.761476
0.739146 0.928208 0.776958
0.791140 0.942390 0.791140
0.841907 0.955344 0.804094
0.891537 0.967162 0.815912
0.940139 0.977952 0.826702
0.987830 0.987830 0.836580
0.015430 0.015430 0.204492
0.063417 0.025604 0.214667
0.112355 0.036730 0.225793
0.162360 0.048923 0.237985
0.213534 0.062284 0.251347
0.265963 0.076901 0.265963
0.319712 0.092837 0.281900
0.374819 0.110132 0.299194
0.431295 0.128795 0.317857
0.053647 0.091459 0.242709
0.105269 0.105269 0.256519
0.158172 0.120360 0.271610
0.212413 0.136788 0.288038
0.268018 0.154581 0.305831
0.324989 0.173739 0.324989
0.383293 0.194231 0.345481
0.442871 0.215996 0.367246
0.503630 0.238943 0.390193
0.105294 0.180919 0.294357
0.161398 0.199211 0.312648
0.218860 0.218860 0.332297
0.277637 0.239824 0.353262
0.337656 0.262031 0.375469
0.398818 0.285381 0.398818
0.460992 0.309742 0.423180
0.524027 0.334964 0.448402
0.587747 0.360872 0.474309
0.172145 0.285582 0.361207
0.232594 0.308219 0.383844
0.294140 0.331953 0.407578
0.356647 0.356647 0.432272
0.419952 0.382139 0.457764
0.483875 0.408250 0.483875
0.548220 0.434783 0.510408
0.612782 0.461532 0.537157
0.677350 0.488287 0.563912
0.252407 0.403657 0.441469
0.315958 0.429396 0.467208
0.380059 0.455684 0.493496
0.444507 0.482320 0.520132
0.509096 0.509096 0.546908
0.573612 0.535800 0.573612
0.637847 0.562222 0.600034
0.701595 0.588158 0.625970
0.764667 0.613417 0.651230
0.340813 0.529875 0.529875
0.405400 0.556650 0.556650
0.469838 0.583275 0.583275
0.533918 0.609543 0.609543
0.597442 0.635254 0.635254
0.660223 0.660223 0.660223
0.722094 0.684281 0.684281
0.782908 0.707283 0.707283
0.842546 0.729108 0.729108
0.429916 0.656791 0.618978
0.493190 0.682252 0.644440
0.555658 0.706908 0.669095
0.617160 0.730597 0.692785
0.677558 0.753183 0.715371
0.736743 0.774556 0.736743
0.794632 0.794632 0.756820
0.851175 0.813362 0.775550
0.906349 0.830724 0.792911
0.512079 0.776767 0.701142
0.572047 0.798922 0.723297
0.630768 0.819831 0.744206
0.688171 0.839421 0.763796
0.744216 0.857654 0.782029
0.798893 0.874518 0.798893
0.852220 0.890033 0.814408
0.904246 0.904246 0.828621
0.955041 0.917229 0.841604
0.581530 0.884030 0.770593
0.637076 0.901764 0.788326
0.691258 0.918133 0.804695
0.744105 0.933167 0.819730
0.795673 0.946923 0.833485
0.846042 0.959480 0.846042
0.895311 0.970936 0.857498
0.943590 0.981403 0.867965
0.990998 0.990998 0.877561
0.018786 0.018786 0.245661
0.067083 0.029270 0.256145
0.116371 0.040746 0.267621
0.166762 0.053325 0.280200
0.218354 0.067104 0.293979
0.271225 0.082163 0.309038
0.325432 0.098557 0.325432
0.381004 0.116317 0.343192
0.437941 0.135441 0.362316
0.058197 0.096010 0.285072
0.110247 0.110247 0.299309
0.163599 0.125787 0.314849
0.218302 0.142677 0.331739
0.274372 0.160935 0.349997
0.331801 0.180551 0.369613
0.390546 0.201484 0.390546
0.450537 0.223662 0.412724
0.511672 0.246984 0.436047
0.111353 0.186978 0.338228
0.167920 0.205733 0.356983
0.225835 0.225835 0.377085
0.285043 0.247231 0.398481
0.345464 0.269839 0.421089
0.406985 0.293548 0.444798
0.469470 0.318220 0.469470
0.532757 0.343695 0.494945
0.596668 0.369793 0.521043
0.179702 0.293139 0.406577
0.240537 0.316162 0.429600
0.302426 0.340239 0.453676
0.365223 0.365223 0.478661
0.428759 0.390947 0.504384
0.492848 0.417223 0.530661
0.557291 0.443853 0.557291
0.621878 0.470628 0.584066
0.686399 0.497337 0.610774
0.261074 0.412324 0.487949
0.324834 0.438272 0.513897
0.389076 0.464701 0.540326
0.453595 0.491408 0.567033
0.518183 0.518183 0.593808
0.582627 0.544815 0.620440
0.646719 0.571094 0.646719
0.710259 0.596821 0.672446
0.773060 0.621810 0.697435
0.349909 0.538972 0.576784
0.414469 0.565719 0.603532
0.478809 0.592246 0.630059
0.542722 0.618347 0.656159
0.606013 0.643826 0.681638
0.668503 0.668503 0.706316
0.730030 0.692218 0.730030
0.790457 0.714832 0.752645
0.849673 0.736235 0.774048
0.438642 0.665517 0.665517
0.501662 0.690724 0.690724
0.563819 0.715069 0.715069
0.624960 0.738397 0.738397
0.684957 0.760582 0.760582
0.743710 0.781522 0.781522
0.801146 0.801146 0.801146
0.857224 0.819412 0.819412
0.911934 0.836309 0.836309
0.519737 0.784425 0.746612
0.579292 0.806167 0.768354
0.637572 0.826634 0.788822
0.694517 0.845767 0.807954
0.750096 0.863534 0.825721
0.804311 0.879936 0.842124
0.857190 0.895002 0.857190
0.908789 0.908789 0.870976
0.959186 0.921374 0.883561
0.587706 0.890206 0.814581
0.642788 0.907475 0.831850
0.696511 0.923386 0.847761
0.748916 0.937979 0.862354
0.800067 0.951317 0.875692
0.850051 0.963488 0.887863
0.898971 0.974596 0.898971
0.946941 0.984753 0.909128
0.994080 0.994080 0.918455
0.022242 0.022242 0.286930
0.070863 0.033050 0.297738
0.120514 0.044889 0.309576
0.171302 0.057865 0.322552
0.223321 0.072071 0.336758
0.276641 0.087578 0.352266
0.331310 0.104435 0.369122
0.387347 0.122659 0.387347
0.444743 0.142243 0.406930
0.062890 0.100703 0.327578
0.115375 0.115375 0.342250
0.169182 0.131370 0.358245
0.224349 0.148724 0.375599
0.280883 0.167446 0.394321
0.338765 0.187515 0.414390
0.397943 0.208880 0.435755
0.458335 0.231460 0.458335
0.519831 0.255143 0.482018
0.117569 0.193194 0.382257
0.174598 0.212411 0.401473
0.232959 0.232959 0.422022
0.292590 0.254778 0.443840
0.353398 0.277773 0.466836
0.415263 0.301826 0.490888
0.478040 0.326790 0.515852
0.541560 0.352498 0.541560
0.605638 0.378763 0.567825
0.187394 0.300832 0.452082
0.248602 0.324227 0.475477
0.310817 0.348630 0.499880
0.373885 0.373885 0.525135
0.437630 0.399818 0.551068
0.501863 0.426238 0.577488
0.566378 0.452941 0.604191
0.630967 0.479717 0.630967
0.695417 0.506354 0.657604
0.269820 0.421070 0.534508
0.333766 0.447203 0.560641
0.398125 0.473750 0.587187
0.462691 0.500504 0.613941
0.527254 0.527254 0.640692
0.591602 0.553789 0.667227
0.655528 0.579903 0.693340
0.718837 0.605399 0.718837
0.781348 0.630098 0.743536
0.359004 0.548067 0.623692
0.423513 0.574763 0.650388
0.487730 0.601168 0.676793
0.551454 0.627079 0.702704
0.614492 0.652305 0.727930
0.676672 0.676672 0.752297
0.737840 0.700027 0.775652
0.797867 0.722242 0.797867
0.856651 0.743213 0.818838
0.447289 0.674164 0.711977
0.510034 0.699097 0.736909
0.571862 0.723112 0.760924
0.632628 0.746065 0.783878
0.692212 0.767837 0.805650
0.750524 0.788337 0.826149
0.807502 0.807502 0.845315
0.863116 0.825303 0.863116
0.917364 0.841739 0.879551
0.527259 0.791946 0.791946
0.586389 0.813264 0.813264
0.644221 0.833284 0.833284
0.700704 0.851954 0.851954
0.755819 0.869256 0.869256
0.809575 0.885200 0.885200
0.862012 0.899824 0.899824
0.913193 0.913193 0.913193
0.963204 0.925391 0.925391
0.593724 0.896224 0.858412
0.648342 0.913029 0.875217
0.701612 0.928487 0.890674
0.753583 0.942645 0.904833
0.804327 0.955577 0.917764
0.853937 0.967374 0.929562
0.902521 0.978146 0.940333
0.950195 0.988008 0.950195
0.997079 0.997079 0.959266
0.025804 0.025804 0.328304
0.074762 0.036950 0.339450
0.124788 0.049163 0.351663
0.175985 0.062547 0.365047
0.228438 0.077188 0.379688
0.282213 0.093150 0.395650
0.337345 0.110470 0.412970
0.393846 0.129159 0.431659
0.451696 0.149196 0.451696
0.067728 0.105541 0.370228
0.120657 0.120657 0.385344
0.174922 0.137110 0.401797
0.230554 0.154929 0.419616
0.287550 0.174112 0.438800
0.345879 0.194629 0.459316
0.405480 0.216417 0.481105
0.466260 0.239385 0.504073
0.528101 0.263414 0.528101
0.123943 0.199568 0.426443
0.181430 0.219242 0.446117
0.240231 0.240231 0.467106
0.300273 0.262461 0.489336
0.361455 0.285830 0.512705
0.423647 0.310210 0.537085
0.486696 0.335446 0.562321
0.550427 0.361365 0.588240
0.614650 0.387775 0.614650
0.195218 0.308655 0.497718
0.256784 0.332409 0.521471
0.319307 0.357119 0.546182
0.382625 0.382625 0.571688
0.446558 0.408746 0.597808
0.510910 0.435285 0.624347
0.575474 0.462036 0.651099
0.640039 0.488789 0.677852
0.704394 0.515332 0.704394
0.278636 0.429886 0.581136
0.342745 0.456182 0.607432
0.407198 0.482823 0.634073
0.471787 0.509600 0.660850
0.536300 0.536300 0.687550
0.600527 0.562715 0.713965
0.664265 0.588640 0.739890
0.727322 0.613885 0.765135
0.789525 0.638275 0.789525
0.368090 0.557153 0.670590
0.432523 0.583773 0.697211
0.496595 0.610033 0.723470
0.560107 0.635732 0.749169
0.622872 0.660685 0.774122
0.684724 0.684724 0.798162
0.745518 0.707705 0.821143
0.805132 0.729507 0.842945
0.863476 0.750039 0.863476
0.455849 0.682724 0.758349
0.518300 0.707363 0.782988
0.579783 0.731033 0.806658
0.640159 0.753597 0.829222
0.699320 0.774945 0.850570
0.757185 0.794997 0.870622
0.813701 0.813701 0.889326
0.868850 0.831037 0.906662
0.922639 0.847014 0.922639
0.534640 0.799327 0.837140
0.593337 0.820212 0.858024
0.650715 0.839777 0.877590
0.706734 0.857984 0.895796
0.761385 0.874822 0.912635
0.814687 0.890312 0.928124
0.866689 0.904501 0.942314
0.917462 0.917462 0.955274
0.967098 0.929286 0.967098
0.599584 0.902084 0.902084
0.653741 0.918428 0.918428
0.706563 0.933438 0.933438
0.758107 0.947170 0.947170
0.808455 0.959705 0.959705
0.857704 0.971142 0.971142
0.905966 0.981591 0.981591
0.953359 0.991171 0.991171
1.000000 1.000000 1.000000
