app/assets/luts/faded.cube
# Faded — generated by tools/make_luts.dart.
# Edit the formula there, not this file.
TITLE "vdodtor Faded"
LUT_3D_SIZE 9
DOMAIN_MIN 0.0 0.0 0.0
DOMAIN_MAX 1.0 1.0 1.0
0.077020 0.091305 0.107270
0.171021 0.094979 0.110177
0.265027 0.098666 0.113105
0.359039 0.102366 0.116051
0.453056 0.106079 0.119017
0.547078 0.109805 0.122003
0.641106 0.113544 0.125008
0.735139 0.117296 0.128032
0.829178 0.121061 0.131076
0.091957 0.193284 0.117129
0.185976 0.197001 0.120102
0.280001 0.200732 0.123095
0.374030 0.204476 0.126107
0.468065 0.208233 0.129138
0.562106 0.212002 0.132189
0.656152 0.215785 0.135259
0.750203 0.219580 0.138349
0.844260 0.223389 0.141458
0.106955 0.295409 0.127208
0.200992 0.299171 0.130247
0.295035 0.302945 0.133305
0.389083 0.306732 0.136382
0.483136 0.310532 0.139479
0.577195 0.314346 0.142595
0.671259 0.318172 0.145730
0.765328 0.322011 0.148885
0.859403 0.325863 0.152060
0.122014 0.397681 0.137507
0.216069 0.401486 0.140611
0.310130 0.405304 0.143734
0.404196 0.409135 0.146877
0.498268 0.412979 0.150039
0.592344 0.416836 0.153220
0.686427 0.420705 0.156421
0.780514 0.424588 0.159641
0.874607 0.428483 0.162881
0.137134 0.500100 0.148026
0.231208 0.503948 0.151195
0.325286 0.507810 0.154383
0.419371 0.511684 0.157591
0.513460 0.515572 0.160819
0.607555 0.519472 0.164066
0.701656 0.523385 0.167332
0.795761 0.527311 0.170617
0.889872 0.531250 0.173922
0.152315 0.602665 0.158764
0.246407 0.606557 0.161999
0.340504 0.610462 0.165252
0.434606 0.614380 0.168526
0.528714 0.618311 0.171818
0.622827 0.622255 0.175131
0.716945 0.626212 0.178462
0.811069 0.630181 0.181813
0.905199 0.634164 0.185183
0.167557 0.705377 0.169722
0.261667 0.709312 0.173022
0.355782 0.713261 0.176341
0.449903 0.717222 0.179680
0.544029 0.721197 0.183038
0.638160 0.725184 0.186415
0.732296 0.729184 0.189812
0.826438 0.733198 0.193229
0.920586 0.737224 0.196664
0.182861 0.808235 0.180900
0.276988 0.812214 0.184265
0.371122 0.816206 0.187650
0.465260 0.820211 0.191054
0.559404 0.824229 0.194477
0.653554 0.828260 0.197920
0.747708 0.832304 0.201382
0.841869 0.836361 0.204864
0.936034 0.840430 0.208365
0.198225 0.911239 0.192298
0.292371 0.915262 0.195728
0.386522 0.919298 0.199178
0.480679 0.923346 0.202647
0.574841 0.927408 0.206136
0.669009 0.931482 0.209644
0.763182 0.935570 0.213172
0.857360 0.939670 0.216719
0.951544 0.943784 0.220285
0.078526 0.092549 0.198756
0.172529 0.096228 0.201671
0.266537 0.099920 0.204604
0.360550 0.103624 0.207558
0.454569 0.107342 0.210531
0.548593 0.111072 0.213523
0.642623 0.114816 0.216534
0.736658 0.118572 0.219565
0.830699 0.122342 0.222616
0.093469 0.194543 0.208638
0.187490 0.198266 0.211618
0.281516 0.202001 0.214617
0.375548 0.205749 0.217635
0.469585 0.209510 0.220674
0.563627 0.213284 0.223731
0.657675 0.217071 0.226808
0.751728 0.220871 0.229904
0.845787 0.224684 0.233020
0.108473 0.296684 0.218739
0.202512 0.300450 0.221784
0.296557 0.304229 0.224849
0.390607 0.308020 0.227933
0.484662 0.311825 0.231036
0.578722 0.315643 0.234159
0.672788 0.319473 0.237301
0.766859 0.323317 0.240463
0.860936 0.327173 0.243644
0.123539 0.398971 0.229061
0.217596 0.402780 0.232171
0.311658 0.406603 0.235301
0.405726 0.410438 0.238450
0.499799 0.414286 0.241619
0.593878 0.418147 0.244807
0.687962 0.422021 0.248015
0.782052 0.425908 0.251242
0.876147 0.429808 0.254488
0.138665 0.501405 0.239602
0.232740 0.505257 0.242777
0.326821 0.509123 0.245973
0.420907 0.513002 0.249187
0.514998 0.516894 0.252421
0.609095 0.520799 0.255675
0.703197 0.524716 0.258948
0.797305 0.528647 0.262240
0.891418 0.532590 0.265552
0.153852 0.603985 0.250362
0.247946 0.607881 0.253603
0.342044 0.611790 0.256864
0.436149 0.615713 0.260144
0.530258 0.619648 0.263443
0.624373 0.623596 0.266762
0.718493 0.627558 0.270100
0.812619 0.631532 0.273458
0.906750 0.635519 0.276835
0.169101 0.706711 0.261343
0.263212 0.710651 0.264649
0.357329 0.714604 0.267975
0.451451 0.718570 0.271320
0.545579 0.722549 0.274685
0.639712 0.726541 0.278069
0.733851 0.730545 0.281473
0.827995 0.734563 0.284896
0.922144 0.738594 0.288338
0.184410 0.809584 0.272543
0.278540 0.813568 0.275915
0.372675 0.817564 0.279306
0.466815 0.821574 0.282717
0.560961 0.825596 0.286147
0.655112 0.829631 0.289596
0.749269 0.833680 0.293065
0.843431 0.837741 0.296553
0.937598 0.841815 0.300061
0.199780 0.912604 0.283963
0.293928 0.916631 0.287400
0.388081 0.920671 0.290857
0.482240 0.924724 0.294333
0.576404 0.928790 0.297828
0.670573 0.932869 0.301343
0.764748 0.936961 0.304877
0.858928 0.941065 0.308431
0.953114 0.945183 0.312004
0.080033 0.093796 0.290245
0.174037 0.097479 0.293166
0.268047 0.101175 0.296106
0.362062 0.104884 0.299066
0.456083 0.108606 0.302046
0.550109 0.112341 0.305045
0.644141 0.116089 0.308063
0.738178 0.119850 0.311101
0.832220 0.123624 0.314158
0.094982 0.195805 0.300149
0.189005 0.199531 0.303135
0.283033 0.203271 0.306141
0.377066 0.207024 0.309167
0.471105 0.210789 0.312211
0.565149 0.214568 0.315275
0.659199 0.218359 0.318359
0.753254 0.222164 0.321462
0.847314 0.225981 0.324584
0.109992 0.297960 0.310273
0.204033 0.301730 0.313325
0.298079 0.305514 0.316396
0.392131 0.309310 0.319486
0.486188 0.313119 0.322596
0.580250 0.316941 0.325726
0.674318 0.320776 0.328875
0.768391 0.324624 0.332043
0.862470 0.328485 0.335231
0.125064 0.400262 0.320616
0.219123 0.404076 0.323734
0.313187 0.407903 0.326870
0.407257 0.411742 0.330026
0.501332 0.415595 0.333201
0.595413 0.419461 0.336396
0.689498 0.423339 0.339610
0.783590 0.427231 0.342844
0.877686 0.431135 0.346097
0.140196 0.502711 0.331180
0.234273 0.506568 0.334362
0.328356 0.510438 0.337564
0.422444 0.514321 0.340785
0.516537 0.518218 0.344026
0.610636 0.522127 0.347286
0.704740 0.526049 0.350566
0.798849 0.529984 0.353865
0.892964 0.533932 0.357183
0.155390 0.605306 0.341963
0.249485 0.609206 0.345211
0.343586 0.613120 0.348478
0.437692 0.617047 0.351764
0.531803 0.620987 0.355071
0.625920 0.624940 0.358396
0.720042 0.628905 0.361741
0.814170 0.632884 0.365105
0.908303 0.636875 0.368489
0.170644 0.708047 0.352966
0.264758 0.711991 0.356279
0.358876 0.715949 0.359611
0.453001 0.719919 0.362963
0.547130 0.723903 0.366335
0.641265 0.727899 0.369725
0.735406 0.731908 0.373136
0.829551 0.735930 0.376565
0.923702 0.739965 0.380014
0.185960 0.810935 0.364189
0.280091 0.814923 0.367567
0.374228 0.818924 0.370965
0.468371 0.822938 0.374382
0.562518 0.826965 0.377819
0.656671 0.831004 0.381275
0.750830 0.835057 0.384750
0.844994 0.839123 0.388245
0.939163 0.843202 0.391760
0.201337 0.913969 0.375631
0.295486 0.918001 0.379075
0.389641 0.922045 0.382538
0.483802 0.926103 0.386020
0.577968 0.930173 0.389522
0.672139 0.934257 0.393044
0.766316 0.938353 0.396585
0.860498 0.942462 0.400145
0.954685 0.946584 0.403725
0.081540 0.095044 0.381736
0.175546 0.098731 0.384664
0.269558 0.102432 0.387611
0.363575 0.106145 0.390577
0.457598 0.109872 0.393563
0.551626 0.113611 0.396569
0.645659 0.117363 0.399594
0.739698 0.121129 0.402638
0.833742 0.124907 0.405702
0.096495 0.197068 0.391662
0.190520 0.200799 0.394655
0.284550 0.204543 0.397668
0.378585 0.208300 0.400700
0.472626 0.212070 0.403751
0.566672 0.215853 0.406822
0.660723 0.219649 0.409912
0.754780 0.223457 0.413022
0.848842 0.227279 0.416151
0.111512 0.299238 0.401808
0.205555 0.303013 0.404867
0.299603 0.306800 0.407945
0.393656 0.310601 0.411042
0.487715 0.314414 0.414159
0.581779 0.318241 0.417295
0.675849 0.322080 0.420450
0.769924 0.325933 0.423625
0.864004 0.329798 0.426820
0.126590 0.401555 0.412174
0.220650 0.405373 0.415298
0.314717 0.409204 0.418441
0.408788 0.413048 0.421604
0.502865 0.416905 0.424786
0.596948 0.420775 0.427988
0.691035 0.424658 0.431208
0.785128 0.428554 0.434449
0.879227 0.432463 0.437708
0.141728 0.504018 0.422760
0.235807 0.507880 0.425949
0.329892 0.511755 0.429158
0.423981 0.515642 0.432386
0.518076 0.519543 0.435633
0.612177 0.523457 0.438900
0.706283 0.527383 0.442186
0.800394 0.531323 0.445492
0.894511 0.535275 0.448817
0.156928 0.606628 0.433566
0.251025 0.610533 0.436820
0.345128 0.614452 0.440094
0.439235 0.618383 0.443387
0.533349 0.622327 0.446700
0.627467 0.626284 0.450032
0.721591 0.630254 0.453384
0.815721 0.634237 0.456755
0.909856 0.638233 0.460145
0.172189 0.709384 0.444591
0.266304 0.713333 0.447911
0.360425 0.717295 0.451250
0.454551 0.721270 0.454609
0.548682 0.725258 0.457987
0.642819 0.729258 0.461384
0.736961 0.733272 0.464801
0.831109 0.737299 0.468237
0.925262 0.741338 0.471693
0.187511 0.812287 0.455836
0.281644 0.816280 0.459221
0.375783 0.820285 0.462626
0.469927 0.824303 0.466050
0.564076 0.828335 0.469493
0.658231 0.832379 0.472956
0.752392 0.836436 0.476438
0.846557 0.840506 0.479939
0.940729 0.844589 0.483460
0.202893 0.915337 0.467301
0.297045 0.919373 0.470751
0.391202 0.923422 0.474221
0.485364 0.927484 0.477710
0.579532 0.931558 0.481219
0.673705 0.935646 0.484747
0.767883 0.939747 0.488295
0.862067 0.943861 0.491861
0.956257 0.947987 0.495448
0.083048 0.096293 0.473229
0.177056 0.099985 0.476163
0.271069 0.103690 0.479117
0.365088 0.107408 0.482091
0.459113 0.111139 0.485083
0.553143 0.114883 0.488095
0.647178 0.118640 0.491127
0.741218 0.122409 0.494178
0.835264 0.126192 0.497248
0.098009 0.198332 0.483178
0.192036 0.202067 0.486178
0.286067 0.205816 0.489197
0.380105 0.209577 0.492235
0.474147 0.213352 0.495293
0.568195 0.217139 0.498371
0.662248 0.220940 0.501468
0.756307 0.224753 0.504584
0.850371 0.228579 0.507720
0.113032 0.300517 0.493346
0.207077 0.304296 0.496412
0.301127 0.308088 0.499496
0.395182 0.311893 0.502600
0.489243 0.315711 0.505723
0.583309 0.319542 0.508866
0.677380 0.323386 0.512028
0.771457 0.327243 0.515210
0.865539 0.331113 0.518411
0.128116 0.402849 0.503735
0.222179 0.406672 0.506865
0.316247 0.410507 0.510015
0.410320 0.414356 0.513184
0.504399 0.418217 0.516373
0.598483 0.422092 0.519581
0.692573 0.425979 0.522809
0.786668 0.429880 0.526056
0.880768 0.433793 0.529322
0.143261 0.505327 0.514343
0.237342 0.509193 0.517539
0.331428 0.513073 0.520754
0.425519 0.516965 0.523989
0.519616 0.520870 0.527243
0.613719 0.524788 0.530516
0.707827 0.528719 0.533809
0.801940 0.532663 0.537121
0.896058 0.536620 0.540453
0.158467 0.607952 0.525171
0.252566 0.611862 0.528432
0.346670 0.615785 0.531712
0.440780 0.619720 0.535012
0.534895 0.623669 0.538332
0.629015 0.627630 0.541670
0.723141 0.631605 0.545029
0.817273 0.635592 0.548406
0.911409 0.639593 0.551803
0.173734 0.710723 0.536219
0.267851 0.714677 0.539545
0.361973 0.718643 0.542891
0.456101 0.722622 0.546256
0.550234 0.726614 0.549641
0.644373 0.730619 0.553045
0.738517 0.734638 0.556468
0.832667 0.738669 0.559911
0.926821 0.742712 0.563373
0.189062 0.813641 0.547486
0.283197 0.817638 0.550878
0.377338 0.821648 0.554289
0.471484 0.825671 0.557719
0.565635 0.829706 0.561169
0.659792 0.833755 0.564639
0.753954 0.837817 0.568128
0.848122 0.841891 0.571636
0.942295 0.845979 0.575163
0.204451 0.916705 0.558973
0.298604 0.920746 0.562430
0.392763 0.924799 0.565907
0.486927 0.928866 0.569403
0.581097 0.932945 0.572918
0.675272 0.937037 0.576453
0.769452 0.941142 0.580007
0.863638 0.945260 0.583580
0.957829 0.949391 0.587173
0.084556 0.097544 0.564725
0.178566 0.101241 0.567666
0.272581 0.104950 0.570626
0.366602 0.108672 0.573606
0.460629 0.112408 0.576605
0.554660 0.116156 0.579624
0.648697 0.119917 0.582662
0.742740 0.123691 0.585720
0.836787 0.127478 0.588797
0.099524 0.199598 0.574696
0.193552 0.203338 0.577702
0.287586 0.207091 0.580728
0.381625 0.210857 0.583773
0.475669 0.214636 0.586838
0.569719 0.218427 0.589922
0.663774 0.222232 0.593026
0.757835 0.226050 0.596149
0.851901 0.229880 0.599291
0.114553 0.301798 0.584887
0.208599 0.305582 0.587959
0.302651 0.309378 0.591050
0.396708 0.313188 0.594160
0.490771 0.317010 0.597290
0.584839 0.320845 0.600440
0.678912 0.324694 0.603609
0.772991 0.328555 0.606797
0.867075 0.332429 0.610004
0.129643 0.404145 0.595298
0.223708 0.407972 0.598435
0.317777 0.411812 0.601591
0.411853 0.415665 0.604767
0.505933 0.419531 0.607962
0.600019 0.423410 0.611177
0.694111 0.427302 0.614411
0.788208 0.431206 0.617665
0.882310 0.435124 0.620938
0.144794 0.506638 0.605928
0.238877 0.510509 0.609130
0.332965 0.514392 0.612352
0.427058 0.518289 0.615594
0.521157 0.522198 0.618854
0.615261 0.526121 0.622134
0.709371 0.530056 0.625434
0.803486 0.534004 0.628753
0.897606 0.537966 0.632091
0.160006 0.609278 0.616778
0.254107 0.613192 0.620046
0.348213 0.617119 0.623333
0.442325 0.621059 0.626640
0.536442 0.625012 0.629966
0.630564 0.628978 0.633311
0.724692 0.632957 0.636676
0.818825 0.636949 0.640060
0.912964 0.640954 0.643464
0.175279 0.712064 0.627848
0.269398 0.716022 0.631181
0.363523 0.719992 0.634534
0.457652 0.723976 0.637906
0.551788 0.727973 0.641297
0.645928 0.731982 0.644708
0.740074 0.736005 0.648138
0.834225 0.740040 0.651588
0.928382 0.744088 0.655056
0.190614 0.814997 0.639138
0.284751 0.818998 0.642537
0.378893 0.823012 0.645954
0.473041 0.827039 0.649392
0.567194 0.831079 0.652848
0.661353 0.835133 0.656324
0.755517 0.839199 0.659820
0.849686 0.843278 0.663335
0.943861 0.847370 0.666869
0.206009 0.918076 0.650648
0.300164 0.922121 0.654111
0.394325 0.926178 0.657595
0.488491 0.930249 0.661097
0.582662 0.934333 0.664619
0.676839 0.938430 0.668160
0.771021 0.942539 0.671721
0.865209 0.946662 0.675301
0.959402 0.950797 0.678901
0.086065 0.098797 0.656222
0.180077 0.102497 0.659170
0.274094 0.106211 0.662137
0.368117 0.109938 0.665124
0.462145 0.113678 0.668130
0.556178 0.117431 0.671155
0.650217 0.121196 0.674200
0.744262 0.124975 0.677264
0.838311 0.128766 0.680348
0.101039 0.200865 0.666216
0.195069 0.204610 0.669229
0.289105 0.208367 0.672262
0.383146 0.212137 0.675313
0.477192 0.215921 0.678385
0.571243 0.219717 0.681476
0.665300 0.223526 0.684586
0.759363 0.227348 0.687715
0.853431 0.231183 0.690864
0.116074 0.303080 0.676429
0.210123 0.306868 0.679508
0.304176 0.310669 0.682606
0.398235 0.314483 0.685723
0.492300 0.318310 0.688859
0.586369 0.322150 0.692016
0.680444 0.326002 0.695191
0.774525 0.329868 0.698386
0.868611 0.333747 0.701600
0.131171 0.405442 0.686863
0.225237 0.409273 0.690006
0.319309 0.413118 0.693169
0.413386 0.416975 0.696352
0.507468 0.420846 0.699554
0.601556 0.424729 0.702775
0.695650 0.428625 0.706016
0.789748 0.432535 0.709276
0.883852 0.436457 0.712556
0.146328 0.507950 0.697515
0.240412 0.511825 0.700724
0.334502 0.515713 0.703953
0.428598 0.519614 0.707201
0.522698 0.523528 0.710468
0.616804 0.527455 0.713755
0.710916 0.531395 0.717061
0.805033 0.535348 0.720387
0.899155 0.539313 0.723731
0.161546 0.610605 0.708388
0.255649 0.614523 0.711662
0.349757 0.618455 0.714956
0.443870 0.622399 0.718269
0.537989 0.626357 0.721602
0.632113 0.630327 0.724954
0.726243 0.634311 0.728326
0.820378 0.638307 0.731716
0.914518 0.642316 0.735127
0.176826 0.713406 0.719480
0.270947 0.717368 0.722820
0.365073 0.721343 0.726179
0.459204 0.725331 0.729558
0.553341 0.729332 0.732956
0.647484 0.733346 0.736373
0.741631 0.737373 0.739810
0.835784 0.741413 0.743266
0.929943 0.745466 0.746742
0.192166 0.816353 0.730793
0.286305 0.820359 0.734198
0.380449 0.824378 0.737622
0.474599 0.828409 0.741066
0.568754 0.832454 0.744529
0.662915 0.836512 0.748012
0.757081 0.840582 0.751514
0.851252 0.844666 0.755036
0.945429 0.848762 0.758577
0.207568 0.919448 0.742325
0.301725 0.923497 0.745795
0.395887 0.927559 0.749285
0.490055 0.931634 0.752794
0.584228 0.935722 0.756322
0.678407 0.939823 0.759870
0.772591 0.943938 0.763438
0.866780 0.948064 0.767025
0.960975 0.952204 0.770631
0.087575 0.100051 0.747722
0.181588 0.103756 0.750677
0.275608 0.107474 0.753651
0.369632 0.111205 0.756644
0.463662 0.114950 0.759657
0.557697 0.118707 0.762689
0.651738 0.122477 0.765740
0.745784 0.126260 0.768811
0.839836 0.130056 0.771901
0.102555 0.202134 0.757738
0.196587 0.205883 0.760758
0.290624 0.209645 0.763797
0.384667 0.213420 0.766856
0.478715 0.217207 0.769934
0.572768 0.221008 0.773031
0.666827 0.224822 0.776148
0.760892 0.228648 0.779284
0.854961 0.232488 0.782440
0.117596 0.304364 0.767974
0.211647 0.308157 0.771059
0.305702 0.311962 0.774164
0.399763 0.315780 0.777288
0.493829 0.319612 0.780431
0.587901 0.323456 0.783594
0.681978 0.327313 0.786776
0.776060 0.331183 0.789977
0.870148 0.335066 0.793198
0.132699 0.406741 0.778430
0.226767 0.410577 0.781580
0.320841 0.414426 0.784750
0.414920 0.418287 0.787939
0.509004 0.422162 0.791148
0.603094 0.426050 0.794376
0.697189 0.429951 0.797623
0.791290 0.433864 0.800890
0.885396 0.437791 0.804176
0.147863 0.509264 0.789105
0.241949 0.513143 0.792321
0.336041 0.517036 0.795556
0.430138 0.520941 0.798810
0.524240 0.524859 0.802084
0.618348 0.528791 0.805378
0.712461 0.532735 0.808690
0.806580 0.536692 0.812023
0.900704 0.540662 0.815374
0.163087 0.611933 0.800000
0.257192 0.615856 0.803281
0.351301 0.619792 0.806581
0.445417 0.623741 0.809901
0.539537 0.627703 0.813241
0.633663 0.631678 0.816599
0.727795 0.635666 0.819977
0.821932 0.639667 0.823375
0.916074 0.643680 0.826792
0.178373 0.714749 0.811115
0.272495 0.718716 0.814461
0.366623 0.722695 0.817827
0.460757 0.726688 0.821212
0.554896 0.730693 0.824617
0.649040 0.734712 0.828041
0.743189 0.738743 0.831484
0.837344 0.742788 0.834947
0.931505 0.746845 0.838429
0.193719 0.817712 0.822449
0.287860 0.821722 0.825861
0.382006 0.825745 0.829292
0.476158 0.829781 0.832743
0.570315 0.833830 0.836213
0.664477 0.837892 0.839702
0.758645 0.841967 0.843211
0.852818 0.846055 0.846739
0.946997 0.850156 0.850286
0.209127 0.920821 0.834004
0.303286 0.924875 0.837481
0.397450 0.928941 0.840977
0.491620 0.933021 0.844493
0.585795 0.937113 0.848028
0.679976 0.941219 0.851583
0.774161 0.945337 0.855157
0.868353 0.949469 0.858750
0.962549 0.953613 0.862363
0.089085 0.101306 0.839225
0.183101 0.105016 0.842186
0.277122 0.108739 0.845166
0.371148 0.112474 0.848166
0.465180 0.116223 0.851186
0.559217 0.119984 0.854224
0.653259 0.123759 0.857282
0.747307 0.127546 0.860360
0.841361 0.131347 0.863457
0.104072 0.203404 0.849263
0.198105 0.207158 0.852290
0.292144 0.210924 0.855335
0.386189 0.214703 0.858401
0.480239 0.218495 0.861485
0.574294 0.222301 0.864589
0.668355 0.226119 0.867713
0.762421 0.229950 0.870856
0.856493 0.233794 0.874018
0.119119 0.305649 0.859521
0.213171 0.309446 0.862613
0.307228 0.313256 0.865724
0.401291 0.317079 0.868855
0.495359 0.320915 0.872005
0.589433 0.324763 0.875174
0.683511 0.328625 0.878363
0.777596 0.332499 0.881571
0.871685 0.336387 0.884799
0.134228 0.408041 0.869999
0.228298 0.411881 0.873156
0.322373 0.415735 0.876333
0.416454 0.419601 0.879529
0.510540 0.423480 0.882744
0.604632 0.427372 0.885979
0.698729 0.431278 0.889233
0.792831 0.435196 0.892506
0.886939 0.439127 0.895799
0.149398 0.510579 0.880697
0.243486 0.514463 0.883919
0.337579 0.518360 0.887161
0.431678 0.522270 0.890422
0.525783 0.526192 0.893703
0.619893 0.530128 0.897003
0.714008 0.534077 0.900322
0.808128 0.538038 0.903661
0.902254 0.542013 0.907019
0.164628 0.613263 0.891614
0.258735 0.617191 0.894902
0.352846 0.621131 0.898209
0.446964 0.625085 0.901536
0.541086 0.629051 0.904881
0.635214 0.633030 0.908247
0.729347 0.637023 0.911632
0.823486 0.641028 0.915036
0.917630 0.645046 0.918459
0.179920 0.716094 0.902751
0.274045 0.720065 0.906104
0.368175 0.724049 0.909477
0.462310 0.728046 0.912869
0.556451 0.732056 0.916280
0.650597 0.736079 0.919711
0.744748 0.740115 0.923161
0.838905 0.744164 0.926630
0.933067 0.748225 0.930119
0.195273 0.819072 0.914108
0.289416 0.823086 0.917527
0.383564 0.827114 0.920964
0.477717 0.831154 0.924422
0.571876 0.835208 0.927898
0.666040 0.839274 0.931394
0.760210 0.843354 0.934910
0.854385 0.847446 0.938444
0.948565 0.851551 0.941999
0.210687 0.922196 0.925685
0.304848 0.926254 0.929169
0.399014 0.930325 0.932672
0.493186 0.934409 0.936194
0.587363 0.938506 0.939736
0.681545 0.942616 0.943297
0.775733 0.946739 0.946878
0.869926 0.950875 0.950478
0.964124 0.955024 0.954098
