app/assets/luts/faded.cube
# Faded — generated by tools/make_luts.dart.
# Edit the formula there, not this file.
TITLE "vdodtor Faded"
LUT_3D_SIZE 5
DOMAIN_MIN 0.0 0.0 0.0
DOMAIN_MAX 1.0 1.0 1.0
0.077020 0.091305 0.107270
0.265027 0.098666 0.113105
0.453056 0.106079 0.119017
0.641106 0.113544 0.125008
0.829178 0.121061 0.131076
0.106955 0.295409 0.127208
0.295035 0.302945 0.133305
0.483136 0.310532 0.139479
0.671259 0.318172 0.145730
0.859403 0.325863 0.152060
0.137134 0.500100 0.148026
0.325286 0.507810 0.154383
0.513460 0.515572 0.160819
0.701656 0.523385 0.167332
0.889872 0.531250 0.173922
0.167557 0.705377 0.169722
0.355782 0.713261 0.176341
0.544029 0.721197 0.183038
0.732296 0.729184 0.189812
0.920586 0.737224 0.196664
0.198225 0.911239 0.192298
0.386522 0.919298 0.199178
0.574841 0.927408 0.206136
0.763182 0.935570 0.213172
0.951544 0.943784 0.220285
0.080033 0.093796 0.290245
0.268047 0.101175 0.296106
0.456083 0.108606 0.302046
0.644141 0.116089 0.308063
0.832220 0.123624 0.314158
0.109992 0.297960 0.310273
0.298079 0.305514 0.316396
0.486188 0.313119 0.322596
0.674318 0.320776 0.328875
0.862470 0.328485 0.335231
0.140196 0.502711 0.331180
0.328356 0.510438 0.337564
0.516537 0.518218 0.344026
0.704740 0.526049 0.350566
0.892964 0.533932 0.357183
0.170644 0.708047 0.352966
0.358876 0.715949 0.359611
0.547130 0.723903 0.366335
0.735406 0.731908 0.373136
0.923702 0.739965 0.380014
0.201337 0.913969 0.375631
0.389641 0.922045 0.382538
0.577968 0.930173 0.389522
0.766316 0.938353 0.396585
0.954685 0.946584 0.403725
0.083048 0.096293 0.473229
0.271069 0.103690 0.479117
0.459113 0.111139 0.485083
0.647178 0.118640 0.491127
0.835264 0.126192 0.497248
0.113032 0.300517 0.493346
0.301127 0.308088 0.499496
0.489243 0.315711 0.505723
0.677380 0.323386 0.512028
0.865539 0.331113 0.518411
0.143261 0.505327 0.514343
0.331428 0.513073 0.520754
0.519616 0.520870 0.527243
0.707827 0.528719 0.533809
0.896058 0.536620 0.540453
0.173734 0.710723 0.536219
0.361973 0.718643 0.542891
0.550234 0.726614 0.549641
0.738517 0.734638 0.556468
0.926821 0.742712 0.563373
0.204451 0.916705 0.558973
0.392763 0.924799 0.565907
0.581097 0.932945 0.572918
0.769452 0.941142 0.580007
0.957829 0.949391 0.587173
0.086065 0.098797 0.656222
0.274094 0.106211 0.662137
0.462145 0.113678 0.668130
0.650217 0.121196 0.674200
0.838311 0.128766 0.680348
0.116074 0.303080 0.676429
0.304176 0.310669 0.682606
0.492300 0.318310 0.688859
0.680444 0.326002 0.695191
0.868611 0.333747 0.701600
0.146328 0.507950 0.697515
0.334502 0.515713 0.703953
0.522698 0.523528 0.710468
0.710916 0.531395 0.717061
0.899155 0.539313 0.723731
0.176826 0.713406 0.719480
0.365073 0.721343 0.726179
0.553341 0.729332 0.732956
0.741631 0.737373 0.739810
0.929943 0.745466 0.746742
0.207568 0.919448 0.742325
0.395887 0.927559 0.749285
0.584228 0.935722 0.756322
0.772591 0.943938 0.763438
0.960975 0.952204 0.770631
0.089085 0.101306 0.839225
0.277122 0.108739 0.845166
0.465180 0.116223 0.851186
0.653259 0.123759 0.857282
0.841361 0.131347 0.863457
0.119119 0.305649 0.859521
0.307228 0.313256 0.865724
0.495359 0.320915 0.872005
0.683511 0.328625 0.878363
0.871685 0.336387 0.884799
0.149398 0.510579 0.880697
0.337579 0.518360 0.887161
0.525783 0.526192 0.893703
0.714008 0.534077 0.900322
0.902254 0.542013 0.907019
0.179920 0.716094 0.902751
0.368175 0.724049 0.909477
0.556451 0.732056 0.916280
0.744748 0.740115 0.923161
0.933067 0.748225 0.930119
0.210687 0.922196 0.925685
0.399014 0.930325 0.932672
0.587363 0.938506 0.939736
0.775733 0.946739 0.946878
0.964124 0.955024 0.954098
