app/assets/luts/faded.cube
# Faded — generated by tools/make_luts.dart.
# Edit the formula there, not this file.
TITLE "vdodtor Faded"
LUT_3D_SIZE 17
DOMAIN_MIN 0.0 0.0 0.0
DOMAIN_MAX 1.0 1.0 1.0
0.077020 0.091305 0.107270
0.124020 0.093140 0.108721
0.171021 0.094979 0.110177
0.218024 0.096821 0.111639
0.265027 0.098666 0.113105
0.312033 0.100515 0.114576
0.359039 0.102366 0.116051
0.406047 0.104221 0.117532
0.453056 0.106079 0.119017
0.500067 0.107941 0.120508
0.547078 0.109805 0.122003
0.594092 0.111673 0.123503
0.641106 0.113544 0.125008
0.688122 0.115419 0.126518
0.735139 0.117296 0.128032
0.782158 0.119177 0.129552
0.829178 0.121061 0.131076
0.084481 0.142276 0.112172
0.131485 0.144122 0.113640
0.178491 0.145972 0.115112
0.225498 0.147825 0.116590
0.272506 0.149681 0.118072
0.319516 0.151540 0.119559
0.366527 0.153403 0.121052
0.413539 0.155269 0.122549
0.460553 0.157138 0.124050
0.507568 0.159010 0.125557
0.554585 0.160886 0.127069
0.601602 0.162764 0.128585
0.648621 0.164646 0.130106
0.695642 0.166532 0.131632
0.742664 0.168420 0.133163
0.789687 0.170312 0.134699
0.836711 0.172207 0.136240
0.091957 0.193284 0.117129
0.138966 0.195141 0.118613
0.185976 0.197001 0.120102
0.232988 0.198865 0.121596
0.280001 0.200732 0.123095
0.327015 0.202603 0.124598
0.374030 0.204476 0.126107
0.421047 0.206353 0.127620
0.468065 0.208233 0.129138
0.515085 0.210116 0.130661
0.562106 0.212002 0.132189
0.609128 0.213892 0.133722
0.656152 0.215785 0.135259
0.703177 0.217681 0.136802
0.750203 0.219580 0.138349
0.797231 0.221483 0.139901
0.844260 0.223389 0.141458
0.099449 0.244328 0.122141
0.146462 0.246196 0.123642
0.193477 0.248068 0.125147
0.240493 0.249942 0.126657
0.287510 0.251820 0.128172
0.334529 0.253701 0.129692
0.381549 0.255586 0.131217
0.428570 0.257473 0.132746
0.475593 0.259364 0.134281
0.522617 0.261258 0.135820
0.569643 0.263156 0.137364
0.616670 0.265056 0.138913
0.663698 0.266960 0.140467
0.710727 0.268867 0.142026
0.757758 0.270777 0.143590
0.804790 0.272691 0.145158
0.851824 0.274608 0.146731
0.106955 0.295409 0.127208
0.153973 0.297288 0.128725
0.200992 0.299171 0.130247
0.248013 0.301056 0.131773
0.295035 0.302945 0.133305
0.342058 0.304837 0.134841
0.389083 0.306732 0.136382
0.436109 0.308631 0.137928
0.483136 0.310532 0.139479
0.530165 0.312437 0.141034
0.577195 0.314346 0.142595
0.624226 0.316257 0.144160
0.671259 0.318172 0.145730
0.718293 0.320090 0.147305
0.765328 0.322011 0.148885
0.812365 0.323935 0.150470
0.859403 0.325863 0.152060
0.114477 0.346527 0.132330
0.161499 0.348417 0.133863
0.208523 0.350310 0.135401
0.255548 0.352207 0.136944
0.302575 0.354106 0.138492
0.349603 0.356009 0.140044
0.396632 0.357915 0.141602
0.443662 0.359825 0.143164
0.490694 0.361737 0.144731
0.537727 0.363653 0.146303
0.584762 0.365572 0.147880
0.631798 0.367495 0.149462
0.678835 0.369420 0.151048
0.725874 0.371349 0.152640
0.772914 0.373281 0.154236
0.819955 0.375216 0.155837
0.866998 0.377155 0.157443
0.122014 0.397681 0.137507
0.169041 0.399582 0.139056
0.216069 0.401486 0.140611
0.263099 0.403394 0.142170
0.310130 0.405304 0.143734
0.357162 0.407218 0.145303
0.404196 0.409135 0.146877
0.451231 0.411055 0.148455
0.498268 0.412979 0.150039
0.545305 0.414906 0.151627
0.592344 0.416836 0.153220
0.639385 0.418769 0.154818
0.686427 0.420705 0.156421
0.733470 0.422645 0.158029
0.780514 0.424588 0.159641
0.827560 0.426534 0.161259
0.874607 0.428483 0.162881
0.129567 0.448872 0.142739
0.176598 0.450784 0.144305
0.223631 0.452699 0.145875
0.270665 0.454617 0.147451
0.317701 0.456539 0.149031
0.364737 0.458463 0.150616
0.411776 0.460391 0.152207
0.458815 0.462322 0.153801
0.505856 0.464257 0.155401
0.552899 0.466195 0.157006
0.599942 0.468135 0.158615
0.646987 0.470079 0.160230
0.694033 0.472027 0.161849
0.741081 0.473977 0.163473
0.788130 0.475931 0.165102
0.835180 0.477888 0.166736
0.882232 0.479849 0.168374
0.137134 0.500100 0.148026
0.184170 0.502023 0.149608
0.231208 0.503948 0.151195
0.278246 0.505878 0.152787
0.325286 0.507810 0.154383
0.372328 0.509745 0.155985
0.419371 0.511684 0.157591
0.466415 0.513626 0.159203
0.513460 0.515572 0.160819
0.560507 0.517520 0.162440
0.607555 0.519472 0.164066
0.654605 0.521427 0.165696
0.701656 0.523385 0.167332
0.748708 0.525347 0.168972
0.795761 0.527311 0.170617
0.842816 0.529279 0.172268
0.889872 0.531250 0.173922
0.144717 0.551364 0.153367
0.191758 0.553298 0.154966
0.238800 0.555234 0.156569
0.285843 0.557174 0.158177
0.332887 0.559118 0.159790
0.379933 0.561064 0.161408
0.426981 0.563014 0.163031
0.474029 0.564967 0.164659
0.521079 0.566923 0.166291
0.568131 0.568882 0.167928
0.615183 0.570845 0.169571
0.662237 0.572811 0.171218
0.709293 0.574780 0.172869
0.756350 0.576752 0.174526
0.803408 0.578728 0.176188
0.850467 0.580707 0.177854
0.897528 0.582689 0.179526
0.152315 0.602665 0.158764
0.199360 0.604609 0.160379
0.246407 0.606557 0.161999
0.293455 0.608508 0.163623
0.340504 0.610462 0.165252
0.387554 0.612419 0.166887
0.434606 0.614380 0.168526
0.481659 0.616344 0.170170
0.528714 0.618311 0.171818
0.575770 0.620281 0.173472
0.622827 0.622255 0.175131
0.669886 0.624232 0.176794
0.716945 0.626212 0.178462
0.764007 0.628195 0.180135
0.811069 0.630181 0.181813
0.858133 0.632171 0.183496
0.905199 0.634164 0.185183
0.159929 0.654003 0.164216
0.206978 0.655958 0.165847
0.254029 0.657916 0.167483
0.301082 0.659878 0.169124
0.348135 0.661843 0.170769
0.395190 0.663811 0.172420
0.442247 0.665783 0.174075
0.489304 0.667758 0.175736
0.536364 0.669736 0.177401
0.583424 0.671717 0.179071
0.630486 0.673701 0.180745
0.677549 0.675689 0.182425
0.724613 0.677680 0.184110
0.771679 0.679674 0.185799
0.818746 0.681671 0.187493
0.865815 0.683672 0.189192
0.912885 0.685676 0.190896
0.167557 0.705377 0.169722
0.214612 0.707343 0.171370
0.261667 0.709312 0.173022
0.308724 0.711285 0.174679
0.355782 0.713261 0.176341
0.402842 0.715240 0.178008
0.449903 0.717222 0.179680
0.496965 0.719208 0.181356
0.544029 0.721197 0.183038
0.591093 0.723189 0.184724
0.638160 0.725184 0.186415
0.685227 0.727183 0.188111
0.732296 0.729184 0.189812
0.779367 0.731189 0.191518
0.826438 0.733198 0.193229
0.873512 0.735209 0.194944
0.920586 0.737224 0.196664
0.175201 0.756787 0.175284
0.222260 0.758765 0.176947
0.269320 0.760745 0.178616
0.316381 0.762728 0.180290
0.363444 0.764715 0.181968
0.410508 0.766705 0.183651
0.457574 0.768698 0.185339
0.504641 0.770695 0.187032
0.551709 0.772695 0.188730
0.598778 0.774698 0.190433
0.645849 0.776704 0.192140
0.692921 0.778713 0.193852
0.739995 0.780726 0.195570
0.787070 0.782742 0.197292
0.834146 0.784761 0.199019
0.881224 0.786783 0.200750
0.928302 0.788809 0.202487
0.182861 0.808235 0.180900
0.229924 0.810223 0.182580
0.276988 0.812214 0.184265
0.324054 0.814208 0.185955
0.371122 0.816206 0.187650
0.418190 0.818207 0.189349
0.465260 0.820211 0.191054
0.512332 0.822218 0.192763
0.559404 0.824229 0.194477
0.606478 0.826243 0.196196
0.653554 0.828260 0.197920
0.700630 0.830280 0.199649
0.747708 0.832304 0.201382
0.794788 0.834331 0.203120
0.841869 0.836361 0.204864
0.888951 0.838394 0.206612
0.936034 0.840430 0.208365
0.190535 0.859719 0.186571
0.237603 0.861718 0.188268
0.284672 0.863720 0.189969
0.331742 0.865725 0.191675
0.378814 0.867734 0.193386
0.425887 0.869745 0.195102
0.472962 0.871760 0.196823
0.520038 0.873779 0.198549
0.567115 0.875800 0.200279
0.614194 0.877825 0.202014
0.661273 0.879853 0.203755
0.708355 0.881884 0.205500
0.755437 0.883919 0.207249
0.802521 0.885956 0.209004
0.849607 0.887997 0.210764
0.896693 0.890041 0.212528
0.943781 0.892089 0.214297
0.198225 0.911239 0.192298
0.245297 0.913249 0.194011
0.292371 0.915262 0.195728
0.339446 0.917278 0.197451
0.386522 0.919298 0.199178
0.433600 0.921320 0.200910
0.480679 0.923346 0.202647
0.527759 0.925376 0.204389
0.574841 0.927408 0.206136
0.621924 0.929444 0.207888
0.669009 0.931482 0.209644
0.716094 0.933525 0.211406
0.763182 0.935570 0.213172
0.810270 0.937618 0.214943
0.857360 0.939670 0.216719
0.904451 0.941725 0.218499
0.951544 0.943784 0.220285
0.077773 0.091927 0.153013
0.124773 0.093763 0.154466
0.171775 0.095603 0.155924
0.218778 0.097446 0.157387
0.265782 0.099293 0.158854
0.312788 0.101142 0.160327
0.359795 0.102995 0.161804
0.406803 0.104851 0.163287
0.453813 0.106710 0.164774
0.500824 0.108573 0.166266
0.547836 0.110439 0.167763
0.594850 0.112308 0.169264
0.641865 0.114180 0.170771
0.688881 0.116055 0.172282
0.735899 0.117934 0.173798
0.782918 0.119816 0.175320
0.829938 0.121701 0.176846
0.085236 0.142902 0.157920
0.132240 0.144749 0.159390
0.179246 0.146600 0.160864
0.226254 0.148454 0.162343
0.273263 0.150311 0.163827
0.320273 0.152172 0.165316
0.367284 0.154035 0.166810
0.414297 0.155902 0.168309
0.461311 0.157773 0.169812
0.508327 0.159646 0.171320
0.555344 0.161523 0.172834
0.602362 0.163403 0.174352
0.649381 0.165286 0.175875
0.696402 0.167172 0.177402
0.743425 0.169062 0.178935
0.790448 0.170954 0.180472
0.837473 0.172851 0.182015
0.092713 0.193913 0.162883
0.139722 0.195772 0.164369
0.186733 0.197633 0.165860
0.233745 0.199498 0.167355
0.280758 0.201366 0.168855
0.327773 0.203238 0.170361
0.374789 0.205112 0.171871
0.421806 0.206990 0.173386
0.468825 0.208871 0.174906
0.515845 0.210756 0.176430
0.562867 0.212643 0.177960
0.609889 0.214534 0.179494
0.656913 0.216428 0.181033
0.703939 0.218325 0.182577
0.750966 0.220226 0.184126
0.797994 0.222129 0.185680
0.845023 0.224036 0.187239
0.100206 0.244962 0.167901
0.147220 0.246831 0.169403
0.194235 0.248703 0.170910
0.241252 0.250579 0.172422
0.288269 0.252458 0.173939
0.335289 0.254340 0.175460
0.382309 0.256226 0.176986
0.429331 0.258115 0.178518
0.476354 0.260007 0.180054
0.523379 0.261902 0.181595
0.570405 0.263800 0.183141
0.617432 0.265702 0.184691
0.664461 0.267607 0.186247
0.711491 0.269515 0.187807
0.758522 0.271426 0.189373
0.805555 0.273341 0.190943
0.852589 0.275259 0.192518
0.107714 0.296046 0.172973
0.154733 0.297927 0.174492
0.201752 0.299810 0.176015
0.248773 0.301697 0.177543
0.295796 0.303587 0.179076
0.342819 0.305480 0.180614
0.389845 0.307376 0.182157
0.436871 0.309276 0.183705
0.483899 0.311179 0.185257
0.530928 0.313085 0.186814
0.577958 0.314994 0.188377
0.624990 0.316906 0.189944
0.672023 0.318822 0.191516
0.719058 0.320741 0.193092
0.766094 0.322664 0.194674
0.813131 0.324589 0.196260
0.860170 0.326518 0.197852
0.115238 0.347168 0.178101
0.162261 0.349059 0.179636
0.209285 0.350953 0.181175
0.256310 0.352851 0.182720
0.303337 0.354752 0.184269
0.350366 0.356656 0.185824
0.397395 0.358563 0.187383
0.444426 0.360473 0.188947
0.491458 0.362387 0.190515
0.538492 0.364304 0.192089
0.585527 0.366224 0.193668
0.632564 0.368148 0.195251
0.679601 0.370074 0.196839
0.726640 0.372004 0.198432
0.773681 0.373937 0.200030
0.820722 0.375874 0.201633
0.867766 0.377813 0.203241
0.122776 0.398326 0.183283
0.169804 0.400228 0.184835
0.216833 0.402133 0.186391
0.263863 0.404042 0.187951
0.310894 0.405953 0.189517
0.357927 0.407868 0.191088
0.404961 0.409786 0.192663
0.451997 0.411708 0.194243
0.499033 0.413632 0.195829
0.546072 0.415560 0.197419
0.593111 0.417491 0.199013
0.640152 0.419426 0.200613
0.687194 0.421363 0.202218
0.734238 0.423304 0.203827
0.781283 0.425248 0.205441
0.828329 0.427195 0.207060
0.875377 0.429146 0.208684
0.130330 0.449521 0.188521
0.177362 0.451434 0.190088
0.224396 0.453350 0.191661
0.271430 0.455269 0.193238
0.318466 0.457192 0.194820
0.365504 0.459117 0.196407
0.412542 0.461046 0.197999
0.459582 0.462979 0.199595
0.506624 0.464914 0.201197
0.553666 0.466853 0.202803
0.600710 0.468795 0.204414
0.647756 0.470740 0.206030
0.694803 0.472688 0.207651
0.741851 0.474640 0.209277
0.788900 0.476595 0.210907
0.835951 0.478553 0.212543
0.883003 0.480515 0.214183
0.137899 0.500752 0.193813
0.184936 0.502676 0.195397
0.231974 0.504603 0.196986
0.279013 0.506533 0.198579
0.326054 0.508466 0.200178
0.373095 0.510403 0.201781
0.420139 0.512343 0.203389
0.467183 0.514286 0.205002
0.514229 0.516233 0.206620
0.561276 0.518182 0.208242
0.608325 0.520135 0.209870
0.655375 0.522091 0.211502
0.702426 0.524050 0.213139
0.749479 0.526013 0.214781
0.796533 0.527979 0.216428
0.843588 0.529948 0.218080
0.890645 0.531920 0.219737
0.145484 0.552020 0.199161
0.192525 0.553955 0.200761
0.239567 0.555893 0.202366
0.286611 0.557834 0.203976
0.333656 0.559778 0.205590
0.380703 0.561726 0.207210
0.427750 0.563676 0.208834
0.474799 0.565630 0.210464
0.521850 0.567588 0.212098
0.568902 0.569548 0.213737
0.615955 0.571512 0.215380
0.663009 0.573479 0.217029
0.710065 0.575449 0.218683
0.757122 0.577423 0.220341
0.804181 0.579399 0.222004
0.851241 0.581379 0.223672
0.898302 0.583362 0.225345
0.153084 0.603325 0.204563
0.200129 0.605270 0.206179
0.247176 0.607219 0.207801
0.294224 0.609171 0.209427
0.341274 0.611126 0.211058
0.388325 0.613085 0.212694
0.435377 0.615046 0.214335
0.482431 0.617011 0.215980
0.529486 0.618979 0.217631
0.576542 0.620951 0.219286
0.623600 0.622925 0.220946
0.670659 0.624903 0.222611
0.717719 0.626884 0.224281
0.764781 0.628869 0.225956
0.811844 0.630856 0.227635
0.858909 0.632847 0.229320
0.905974 0.634841 0.231009
0.160699 0.654666 0.210020
0.207749 0.656622 0.211653
0.254800 0.658582 0.213291
0.301853 0.660545 0.214933
0.348907 0.662511 0.216580
0.395963 0.664480 0.218233
0.443019 0.666453 0.219890
0.490078 0.668429 0.221552
0.537137 0.670408 0.223218
0.584198 0.672390 0.224890
0.631260 0.674375 0.226567
0.678324 0.676364 0.228248
0.725389 0.678356 0.229934
0.772455 0.680351 0.231625
0.819523 0.682350 0.233321
0.866592 0.684352 0.235022
0.913662 0.686357 0.236727
0.168329 0.706044 0.215532
0.215383 0.708011 0.217181
0.262439 0.709982 0.218835
0.309497 0.711955 0.220494
0.356555 0.713932 0.222158
0.403616 0.715913 0.223826
0.450677 0.717896 0.225500
0.497740 0.719883 0.227178
0.544804 0.721873 0.228861
0.591869 0.723866 0.230549
0.638936 0.725862 0.232242
0.686004 0.727862 0.233940
0.733073 0.729865 0.235642
0.780144 0.731871 0.237350
0.827216 0.733880 0.239062
0.874290 0.735893 0.240779
0.921365 0.737909 0.242501
0.175974 0.757458 0.221099
0.223034 0.759436 0.222765
0.270094 0.761418 0.224435
0.317156 0.763402 0.226110
0.364219 0.765390 0.227790
0.411284 0.767381 0.229475
0.458350 0.769376 0.231165
0.505417 0.771373 0.232860
0.552485 0.773374 0.234559
0.599555 0.775378 0.236263
0.646627 0.777386 0.237972
0.693699 0.779396 0.239686
0.740773 0.781410 0.241405
0.787849 0.783427 0.243129
0.834925 0.785447 0.244858
0.882004 0.787471 0.246591
0.929083 0.789497 0.248329
0.183635 0.808909 0.226721
0.230699 0.810898 0.228403
0.277764 0.812891 0.230090
0.324830 0.814886 0.231781
0.371898 0.816885 0.233478
0.418967 0.818887 0.235179
0.466038 0.820892 0.236885
0.513109 0.822901 0.238596
0.560183 0.824912 0.240312
0.607257 0.826927 0.242032
0.654333 0.828946 0.243758
0.701410 0.830967 0.245488
0.748489 0.832992 0.247223
0.795569 0.835020 0.248963
0.842650 0.837051 0.250708
0.889732 0.839085 0.252458
0.936816 0.841123 0.254213
0.191311 0.860397 0.232398
0.238379 0.862397 0.234096
0.285449 0.864400 0.235799
0.332520 0.866407 0.237507
0.379592 0.868416 0.239220
0.426666 0.870429 0.240937
0.473741 0.872445 0.242660
0.520817 0.874465 0.244387
0.567895 0.876487 0.246119
0.614974 0.878513 0.247856
0.662054 0.880542 0.249598
0.709136 0.882574 0.251345
0.756219 0.884610 0.253096
0.803303 0.886649 0.254853
0.850389 0.888691 0.256614
0.897476 0.890736 0.258380
0.944565 0.892785 0.260151
0.199002 0.911921 0.238130
0.246075 0.913932 0.239845
0.293149 0.915946 0.241564
0.340225 0.917964 0.243288
0.387302 0.919984 0.245017
0.434380 0.922008 0.246751
0.481459 0.924035 0.248490
0.528540 0.926065 0.250233
0.575622 0.928099 0.251982
0.622706 0.930135 0.253735
0.669791 0.932175 0.255493
0.716877 0.934219 0.257256
0.763965 0.936265 0.259024
0.811054 0.938315 0.260797
0.858144 0.940368 0.262574
0.905236 0.942424 0.264357
0.952329 0.944483 0.266144
0.078526 0.092549 0.198756
0.125527 0.094387 0.200211
0.172529 0.096228 0.201671
0.219532 0.098072 0.203135
0.266537 0.099920 0.204604
0.313543 0.101770 0.206079
0.360550 0.103624 0.207558
0.407559 0.105482 0.209042
0.454569 0.107342 0.210531
0.501581 0.109206 0.212024
0.548593 0.111072 0.213523
0.595608 0.112943 0.215026
0.642623 0.114816 0.216534
0.689640 0.116693 0.218047
0.736658 0.118572 0.219565
0.783678 0.120455 0.221088
0.830699 0.122342 0.222616
0.085990 0.143528 0.203669
0.132995 0.145377 0.205141
0.180002 0.147229 0.206617
0.227010 0.149084 0.208097
0.274019 0.150942 0.209583
0.321030 0.152804 0.211074
0.368042 0.154668 0.212569
0.415055 0.156536 0.214069
0.462069 0.158408 0.215575
0.509085 0.160282 0.217085
0.556103 0.162160 0.218599
0.603121 0.164041 0.220119
0.650141 0.165925 0.221644
0.697163 0.167813 0.223173
0.744186 0.169703 0.224707
0.791210 0.171597 0.226246
0.838235 0.173495 0.227790
0.093469 0.194543 0.208638
0.140479 0.196403 0.210125
0.187490 0.198266 0.211618
0.234503 0.200132 0.213115
0.281516 0.202001 0.214617
0.328531 0.203873 0.216124
0.375548 0.205749 0.217635
0.422566 0.207628 0.219152
0.469585 0.209510 0.220674
0.516605 0.211396 0.222200
0.563627 0.213284 0.223731
0.610651 0.215176 0.225267
0.657675 0.217071 0.226808
0.704701 0.218970 0.228354
0.751728 0.220871 0.229904
0.798757 0.222776 0.231460
0.845787 0.224684 0.233020
0.100964 0.245595 0.213661
0.147978 0.247466 0.215165
0.194994 0.249339 0.216674
0.242011 0.251216 0.218187
0.289029 0.253096 0.219705
0.336049 0.254980 0.221229
0.383070 0.256866 0.222757
0.430092 0.258756 0.224290
0.477116 0.260649 0.225827
0.524141 0.262546 0.227370
0.571167 0.264445 0.228918
0.618195 0.266348 0.230470
0.665224 0.268254 0.232027
0.712254 0.270163 0.233589
0.759286 0.272076 0.235156
0.806319 0.273991 0.236728
0.853354 0.275910 0.238305
0.108473 0.296684 0.218739
0.155492 0.298565 0.220259
0.202512 0.300450 0.221784
0.249534 0.302338 0.223314
0.296557 0.304229 0.224849
0.343581 0.306123 0.226389
0.390607 0.308020 0.227933
0.437633 0.309921 0.229482
0.484662 0.311825 0.231036
0.531691 0.313732 0.232595
0.578722 0.315643 0.234159
0.625754 0.317556 0.235728
0.672788 0.319473 0.237301
0.719823 0.321393 0.238880
0.766859 0.323317 0.240463
0.813897 0.325243 0.242051
0.860936 0.327173 0.243644
0.115998 0.347809 0.223872
0.163022 0.349701 0.225409
0.210046 0.351597 0.226950
0.257073 0.353495 0.228496
0.304100 0.355397 0.230047
0.351129 0.357302 0.231603
0.398159 0.359211 0.233164
0.445190 0.361122 0.234730
0.492223 0.363037 0.236300
0.539257 0.364955 0.237875
0.586293 0.366877 0.239456
0.633329 0.368801 0.241041
0.680368 0.370729 0.242631
0.727407 0.372660 0.244225
0.774448 0.374594 0.245825
0.821490 0.376532 0.247429
0.868534 0.378472 0.249039
0.123539 0.398971 0.229061
0.170567 0.400874 0.230613
0.217596 0.402780 0.232171
0.264626 0.404690 0.233734
0.311658 0.406603 0.235301
0.358692 0.408519 0.236873
0.405726 0.410438 0.238450
0.452762 0.412360 0.240032
0.499799 0.414286 0.241619
0.546838 0.416215 0.243211
0.593878 0.418147 0.244807
0.640919 0.420083 0.246408
0.687962 0.422021 0.248015
0.735006 0.423963 0.249626
0.782052 0.425908 0.251242
0.829098 0.427857 0.252862
0.876147 0.429808 0.254488
0.131094 0.450169 0.234304
0.178127 0.452083 0.235873
0.225160 0.454001 0.237447
0.272195 0.455921 0.239026
0.319232 0.457845 0.240609
0.366270 0.459772 0.242198
0.413309 0.461702 0.243791
0.460349 0.463635 0.245389
0.507391 0.465572 0.246993
0.554434 0.467512 0.248601
0.601479 0.469455 0.250213
0.648525 0.471401 0.251831
0.695572 0.473351 0.253454
0.742621 0.475303 0.255081
0.789671 0.477259 0.256713
0.836722 0.479219 0.258350
0.883775 0.481181 0.259992
0.138665 0.501405 0.239602
0.185702 0.503329 0.241187
0.232740 0.505257 0.242777
0.279780 0.507189 0.244373
0.326821 0.509123 0.245973
0.373863 0.511061 0.247577
0.420907 0.513002 0.249187
0.467952 0.514946 0.250802
0.514998 0.516894 0.252421
0.562046 0.518845 0.254046
0.609095 0.520799 0.255675
0.656146 0.522756 0.257309
0.703197 0.524716 0.258948
0.750250 0.526680 0.260591
0.797305 0.528647 0.262240
0.844361 0.530617 0.263893
0.891418 0.532590 0.265552
0.146251 0.552676 0.244954
0.193292 0.554612 0.246556
0.240335 0.556551 0.248163
0.287379 0.558493 0.249774
0.334425 0.560439 0.251391
0.381472 0.562387 0.253012
0.428520 0.564339 0.254638
0.475570 0.566294 0.256269
0.522621 0.568253 0.257905
0.569673 0.570214 0.259545
0.616726 0.572179 0.261191
0.663781 0.574147 0.262841
0.710838 0.576119 0.264496
0.757895 0.578093 0.266157
0.804954 0.580071 0.267821
0.852015 0.582052 0.269491
0.899077 0.584036 0.271166
0.153852 0.603985 0.250362
0.200898 0.605931 0.251980
0.247946 0.607881 0.253603
0.294994 0.609834 0.255231
0.342044 0.611790 0.256864
0.389096 0.613750 0.258502
0.436149 0.615713 0.260144
0.483203 0.617679 0.261791
0.530258 0.619648 0.263443
0.577315 0.621621 0.265100
0.624373 0.623596 0.266762
0.671433 0.625575 0.268429
0.718493 0.627558 0.270100
0.765556 0.629543 0.271777
0.812619 0.631532 0.273458
0.859684 0.633524 0.275144
0.906750 0.635519 0.276835
0.161469 0.655330 0.255825
0.208519 0.657287 0.257460
0.255571 0.659248 0.259099
0.302624 0.661212 0.260743
0.349679 0.663179 0.262392
0.396735 0.665149 0.264046
0.443792 0.667123 0.265705
0.490851 0.669100 0.267368
0.537911 0.671080 0.269037
0.584972 0.673064 0.270710
0.632035 0.675050 0.272388
0.679099 0.677040 0.274071
0.726164 0.679033 0.275759
0.773231 0.681030 0.277452
0.820299 0.683029 0.279149
0.867369 0.685032 0.280852
0.914440 0.687038 0.282559
0.169101 0.706711 0.261343
0.216156 0.708679 0.262994
0.263212 0.710651 0.264649
0.310270 0.712626 0.266310
0.357329 0.714604 0.267975
0.404389 0.716585 0.269645
0.451451 0.718570 0.271320
0.498515 0.720558 0.273000
0.545579 0.722549 0.274685
0.592645 0.724543 0.276375
0.639712 0.726541 0.278069
0.686781 0.728541 0.279769
0.733851 0.730545 0.281473
0.780922 0.732553 0.283182
0.827995 0.734563 0.284896
0.875069 0.736577 0.286615
0.922144 0.738594 0.288338
0.176748 0.758129 0.266916
0.223807 0.760109 0.268583
0.270868 0.762091 0.270255
0.317931 0.764077 0.271931
0.364994 0.766066 0.273613
0.412059 0.768058 0.275300
0.459126 0.770054 0.276991
0.506193 0.772052 0.278687
0.553262 0.774054 0.280388
0.600333 0.776059 0.282094
0.647405 0.778068 0.283805
0.694478 0.780079 0.285521
0.741552 0.782094 0.287241
0.788628 0.784112 0.288967
0.835705 0.786134 0.290697
0.882784 0.788158 0.292432
0.929864 0.790186 0.294172
0.184410 0.809584 0.272543
0.231474 0.811574 0.274227
0.278540 0.813568 0.275915
0.325606 0.815564 0.277608
0.372675 0.817564 0.279306
0.419744 0.819567 0.281009
0.466815 0.821574 0.282717
0.513887 0.823583 0.284429
0.560961 0.825596 0.286147
0.608036 0.827612 0.287869
0.655112 0.829631 0.289596
0.702190 0.831654 0.291328
0.749269 0.833680 0.293065
0.796349 0.835709 0.294807
0.843431 0.837741 0.296553
0.890514 0.839777 0.298305
0.937598 0.841815 0.300061
0.192087 0.861076 0.278226
0.239156 0.863077 0.279926
0.286226 0.865081 0.281630
0.333298 0.867088 0.283340
0.380370 0.869099 0.285054
0.427444 0.871113 0.286773
0.474520 0.873131 0.288497
0.521597 0.875151 0.290226
0.568675 0.877175 0.291960
0.615754 0.879202 0.293699
0.662835 0.881232 0.295442
0.709917 0.883265 0.297190
0.757001 0.885302 0.298944
0.804086 0.887342 0.300702
0.851172 0.889385 0.302465
0.898260 0.891431 0.304232
0.945349 0.893481 0.306005
0.199780 0.912604 0.283963
0.246854 0.914616 0.285679
0.293928 0.916631 0.287400
0.341004 0.918649 0.289126
0.388081 0.920671 0.290857
0.435160 0.922696 0.292592
0.482240 0.924724 0.294333
0.529321 0.926755 0.296078
0.576404 0.928790 0.297828
0.623488 0.930828 0.299583
0.670573 0.932869 0.301343
0.717660 0.934913 0.303108
0.764748 0.936961 0.304877
0.811838 0.939011 0.306651
0.858928 0.941065 0.308431
0.906021 0.943123 0.310215
0.953114 0.945183 0.312004
0.079279 0.093172 0.244500
0.126281 0.095011 0.245957
0.173283 0.096853 0.247418
0.220287 0.098699 0.248884
0.267292 0.100547 0.250355
0.314298 0.102399 0.251831
0.361306 0.104254 0.253312
0.408316 0.106112 0.254797
0.455326 0.107974 0.256288
0.502338 0.109839 0.257783
0.549351 0.111707 0.259283
0.596366 0.113578 0.260788
0.643382 0.115452 0.262298
0.690399 0.117330 0.263813
0.737418 0.119211 0.265333
