app/assets/luts/noir.cube
# Noir — generated by tools/make_luts.dart.
# Edit the formula there, not this file.
TITLE "vdodtor Noir"
LUT_3D_SIZE 9
DOMAIN_MIN 0.0 0.0 0.0
DOMAIN_MAX 1.0 1.0 1.0
0.000000 0.000000 0.020000
0.013103 0.013103 0.032583
0.028413 0.028413 0.047293
0.045806 0.045806 0.064016
0.065158 0.065158 0.082637
0.086345 0.086345 0.103040
0.109243 0.109243 0.125112
0.133729 0.133729 0.148737
0.159678 0.159678 0.173801
0.052631 0.052631 0.070582
0.072666 0.072666 0.089865
0.094490 0.094490 0.110889
0.117980 0.117980 0.133540
0.143013 0.143013 0.157702
0.169464 0.169464 0.183260
0.197210 0.197210 0.210099
0.226126 0.226126 0.238103
0.256089 0.256089 0.267157
0.126922 0.126922 0.142167
0.152485 0.152485 0.166851
0.179422 0.179422 0.192889
0.207608 0.207608 0.220166
0.236919 0.236919 0.248565
0.267233 0.267233 0.277972
0.298424 0.298424 0.308268
0.330369 0.330369 0.339337
0.362944 0.362944 0.371061
0.218155 0.218155 0.230381
0.247846 0.247846 0.259161
0.278493 0.278493 0.288905
0.309973 0.309973 0.319496
0.342162 0.342162 0.350817
0.374936 0.374936 0.382750
0.408170 0.408170 0.415176
0.441742 0.441742 0.447975
0.475528 0.475528 0.481029
0.321616 0.321616 0.330820
0.354032 0.354032 0.362378
0.386988 0.386988 0.394504
0.420360 0.420360 0.427080
0.454024 0.454024 0.459986
0.487857 0.487857 0.493102
0.521733 0.521733 0.526308
0.555531 0.555531 0.559482
0.589124 0.589124 0.592501
0.432589 0.432589 0.439028
0.466328 0.466328 0.472025
0.500191 0.500191 0.505187
0.534053 0.534053 0.538396
0.567791 0.567791 0.571527
0.601280 0.601280 0.604460
0.634397 0.634397 0.637070
0.667018 0.667018 0.669235
0.699018 0.699018 0.700830
0.546357 0.546357 0.550473
0.580018 0.580018 0.583546
0.613386 0.613386 0.616376
0.646337 0.646337 0.648838
0.678746 0.678746 0.680810
0.710490 0.710490 0.712166
0.741445 0.741445 0.742782
0.771487 0.771487 0.772532
0.800493 0.800493 0.801289
0.658205 0.658205 0.660542
0.690386 0.690386 0.692304
0.721858 0.721858 0.723405
0.752495 0.752495 0.753720
0.782174 0.782174 0.783123
0.810771 0.810771 0.811487
0.838163 0.838163 0.838686
0.864225 0.864225 0.864593
0.888833 0.888833 0.889080
0.763417 0.763417 0.764537
0.792717 0.792717 0.793576
0.820889 0.820889 0.821531
0.847811 0.847811 0.848275
0.873358 0.873358 0.873679
0.897407 0.897407 0.897618
0.919833 0.919833 0.919962
0.940513 0.940513 0.940584
0.959323 0.959323 0.959356
0.004195 0.004195 0.024027
0.018062 0.018062 0.037346
0.034093 0.034093 0.052752
0.052165 0.052165 0.070133
0.072154 0.072154 0.089372
0.093936 0.093936 0.110355
0.117387 0.117387 0.132967
0.142383 0.142383 0.157093
0.168801 0.168801 0.182619
0.059227 0.059227 0.076928
0.079883 0.079883 0.096815
0.102287 0.102287 0.118405
0.126315 0.126315 0.141581
0.151843 0.151843 0.166230
0.178748 0.178748 0.192237
0.206905 0.206905 0.219485
0.236190 0.236190 0.247858
0.266480 0.266480 0.277241
0.135442 0.135442 0.150391
0.161485 0.161485 0.175547
0.188860 0.188860 0.202019
0.217442 0.217442 0.229690
0.247108 0.247108 0.258445
0.277733 0.277733 0.288167
0.309194 0.309194 0.318738
0.341367 0.341367 0.350043
0.374128 0.374128 0.381962
0.228124 0.228124 0.240039
0.258153 0.258153 0.269160
0.289097 0.289097 0.299204
0.320831 0.320831 0.330057
0.353233 0.353233 0.361599
0.386177 0.386177 0.393712
0.419540 0.419540 0.426279
0.453198 0.453198 0.459178
0.487028 0.487028 0.492291
0.332557 0.332557 0.341466
0.365170 0.365170 0.373230
0.398281 0.398281 0.405522
0.431766 0.431766 0.438224
0.465501 0.465501 0.471215
0.499363 0.499363 0.504375
0.533226 0.533226 0.537584
0.566968 0.566968 0.570719
0.600465 0.600465 0.603657
0.444025 0.444025 0.450208
0.477821 0.477821 0.483274
0.511697 0.511697 0.516466
0.545531 0.545531 0.549662
0.579198 0.579198 0.582740
0.612575 0.612575 0.615577
0.645537 0.645537 0.648050
0.677961 0.677961 0.680035
0.709723 0.709723 0.711408
0.557814 0.557814 0.561724
0.591389 0.591389 0.594729
0.624629 0.624629 0.627448
0.657410 0.657410 0.659757
0.689607 0.689607 0.691534
0.721097 0.721097 0.722653
0.751756 0.751756 0.752989
0.781460 0.781460 0.782416
0.810086 0.810086 0.810807
0.669206 0.669206 0.671394
0.701160 0.701160 0.702946
0.732362 0.732362 0.733795
0.762688 0.762688 0.763814
0.792013 0.792013 0.792878
0.820215 0.820215 0.820861
0.847169 0.847169 0.847636
0.872751 0.872751 0.873075
0.896838 0.896838 0.897051
0.773486 0.773486 0.774512
0.802417 0.802417 0.803198
0.830179 0.830179 0.830756
0.856648 0.856648 0.857059
0.881700 0.881700 0.881980
0.905211 0.905211 0.905391
0.927058 0.927058 0.927165
0.947117 0.947117 0.947173
0.965263 0.965263 0.965287
0.008654 0.008654 0.028309
0.023269 0.023269 0.042349
0.040008 0.040008 0.058439
0.058744 0.058744 0.076464
0.079356 0.079356 0.096308
0.101719 0.101719 0.117857
0.125709 0.125709 0.140996
0.151202 0.151202 0.165611
0.178074 0.178074 0.191585
0.066038 0.066038 0.083484
0.087302 0.087302 0.103962
0.110271 0.110271 0.126103
0.134822 0.134822 0.149793
0.160832 0.160832 0.174916
0.188176 0.188176 0.201357
0.216730 0.216730 0.229000
0.246370 0.246370 0.257729
0.276974 0.276974 0.287429
0.144129 0.144129 0.158779
0.170639 0.170639 0.184396
0.198437 0.198437 0.211288
0.227402 0.227402 0.239340
0.257407 0.257407 0.268436
0.288330 0.288330 0.298459
0.320047 0.320047 0.329293
0.352433 0.352433 0.360820
0.385365 0.385365 0.392921
0.238211 0.238211 0.249818
0.268565 0.268565 0.279265
0.299791 0.299791 0.309597
0.331766 0.331766 0.340697
0.364366 0.364366 0.372446
0.397466 0.397466 0.404727
0.430944 0.430944 0.437420
0.464674 0.464674 0.470406
0.498534 0.498534 0.503563
0.343569 0.343569 0.352187
0.376365 0.376365 0.384143
0.409617 0.409617 0.416588
0.443201 0.443201 0.449401
0.476993 0.476993 0.482463
0.510869 0.510869 0.515654
0.544705 0.544705 0.548851
0.578378 0.578378 0.581933
0.611763 0.611763 0.614777
0.455486 0.455486 0.461416
0.489323 0.489323 0.494538
0.523198 0.523198 0.527745
0.556989 0.556989 0.560915
0.590572 0.590572 0.593924
0.623821 0.623821 0.626652
0.656615 0.656615 0.658973
0.688828 0.688828 0.690764
0.720337 0.720337 0.721901
0.569246 0.569246 0.572957
0.602722 0.602722 0.605878
0.635820 0.635820 0.638472
0.668416 0.668416 0.670615
0.700387 0.700387 0.702182
0.731609 0.731609 0.733049
0.761957 0.761957 0.763091
0.791309 0.791309 0.792180
0.819539 0.819539 0.820191
0.680134 0.680134 0.682181
0.711847 0.711847 0.713508
0.742765 0.742765 0.744088
0.772765 0.772765 0.773798
0.801723 0.801723 0.802509
0.829515 0.829515 0.830096
0.856017 0.856017 0.856431
0.881105 0.881105 0.881388
0.904655 0.904655 0.904837
0.783435 0.783435 0.784373
0.811982 0.811982 0.812689
0.839319 0.839319 0.839835
0.865320 0.865320 0.865683
0.889863 0.889863 0.890106
0.912823 0.912823 0.912975
0.934077 0.934077 0.934164
0.953500 0.953500 0.953543
0.970969 0.970969 0.970986
0.013371 0.013371 0.032840
0.028722 0.028722 0.047589
0.046153 0.046153 0.064349
0.065540 0.065540 0.083005
0.086761 0.086761 0.103441
0.109690 0.109690 0.125543
0.134204 0.134204 0.149196
0.160179 0.160179 0.174285
0.187492 0.187492 0.200695
0.073060 0.073060 0.090245
0.094917 0.094917 0.111300
0.118437 0.118437 0.133981
0.143498 0.143498 0.158170
0.169974 0.169974 0.183753
0.197743 0.197743 0.210615
0.226680 0.226680 0.238641
0.256662 0.256662 0.267713
0.287564 0.287564 0.297715
0.152980 0.152980 0.167329
0.179941 0.179941 0.193391
0.208149 0.208149 0.220690
0.237481 0.237481 0.249110
0.267812 0.267812 0.278534
0.299018 0.299018 0.308846
0.330976 0.330976 0.339928
0.363562 0.363562 0.371663
0.396652 0.396652 0.403932
0.248414 0.248414 0.259712
0.279078 0.279078 0.289473
0.310573 0.310573 0.320079
0.342773 0.342773 0.351412
0.375557 0.375557 0.383356
0.408799 0.408799 0.415790
0.442376 0.442376 0.448595
0.476165 0.476165 0.481653
0.510040 0.510040 0.514841
0.354648 0.354648 0.362977
0.387613 0.387613 0.395113
0.420991 0.420991 0.427696
0.454660 0.454660 0.460608
0.488494 0.488494 0.493727
0.522370 0.522370 0.526933
0.556165 0.556165 0.560105
0.589754 0.589754 0.593120
0.623013 0.623013 0.625856
0.466965 0.466965 0.472647
0.500829 0.500829 0.505812
0.534690 0.534690 0.539020
0.568424 0.568424 0.572149
0.601907 0.601907 0.605077
0.635016 0.635016 0.637680
0.667626 0.667626 0.669835
0.699613 0.699613 0.701418
0.730855 0.730855 0.732304
0.580649 0.580649 0.584166
0.614011 0.614011 0.616990
0.646952 0.646952 0.649445
0.679350 0.679350 0.681406
0.711080 0.711080 0.712750
0.742019 0.742019 0.743350
0.772043 0.772043 0.773082
0.801028 0.801028 0.801820
0.828850 0.828850 0.829436
0.690986 0.690986 0.692895
0.722442 0.722442 0.723983
0.753062 0.753062 0.754282
0.782722 0.782722 0.783666
0.811298 0.811298 0.812010
0.838666 0.838666 0.839186
0.864701 0.864701 0.865068
0.889281 0.889281 0.889527
0.912282 0.912282 0.912436
0.793258 0.793258 0.794113
0.821408 0.821408 0.822046
0.848305 0.848305 0.848765
0.873825 0.873825 0.874144
0.897844 0.897844 0.898053
0.920239 0.920239 0.920366
0.940885 0.940885 0.940955
0.959658 0.959658 0.959691
0.976435 0.976435 0.976446
0.018344 0.018344 0.037617
0.034414 0.034414 0.053062
0.052524 0.052524 0.070478
0.072547 0.072547 0.089751
0.094362 0.094362 0.110766
0.117843 0.117843 0.133407
0.142868 0.142868 0.157561
0.169311 0.169311 0.183112
0.197050 0.197050 0.209944
0.080289 0.080289 0.097206
0.102724 0.102724 0.118826
0.126782 0.126782 0.142032
0.152337 0.152337 0.166708
0.179266 0.179266 0.192738
0.207446 0.207446 0.220008
0.236751 0.236751 0.248402
0.267059 0.267059 0.277803
0.298246 0.298246 0.308095
0.161988 0.161988 0.176034
0.189387 0.189387 0.202529
0.217991 0.217991 0.230222
0.247676 0.247676 0.258995
0.278318 0.278318 0.288734
0.309793 0.309793 0.319321
0.341978 0.341978 0.350638
0.374749 0.374749 0.382568
0.407982 0.407982 0.414991
0.258727 0.258727 0.269717
0.289687 0.289687 0.299778
0.321435 0.321435 0.330644
0.353848 0.353848 0.362198
0.386801 0.386801 0.394321
0.420171 0.420171 0.426895
0.453834 0.453834 0.459800
0.487665 0.487665 0.492915
0.521542 0.521542 0.526121
0.365789 0.365789 0.373833
0.398908 0.398908 0.406134
0.432399 0.432399 0.438842
0.466138 0.466138 0.471838
0.500000 0.500000 0.505000
0.533862 0.533862 0.538208
0.567601 0.567601 0.571340
0.601092 0.601092 0.604275
0.634211 0.634211 0.636887
0.478458 0.478458 0.483898
0.512335 0.512335 0.517091
0.546166 0.546166 0.550286
0.579829 0.579829 0.583360
0.613199 0.613199 0.616191
0.646152 0.646152 0.648656
0.678565 0.678565 0.680631
0.710313 0.710313 0.711991
0.741273 0.741273 0.742612
0.592018 0.592018 0.595347
0.625251 0.625251 0.628060
0.658022 0.658022 0.660361
0.690207 0.690207 0.692126
0.721682 0.721682 0.723231
0.752324 0.752324 0.753551
0.782009 0.782009 0.782960
0.810613 0.810613 0.811330
0.838012 0.838012 0.838536
0.701754 0.701754 0.703533
0.732941 0.732941 0.734367
0.763249 0.763249 0.764370
0.792554 0.792554 0.793415
0.820734 0.820734 0.821377
0.847663 0.847663 0.848127
0.873218 0.873218 0.873540
0.897276 0.897276 0.897487
0.919711 0.919711 0.919840
0.802950 0.802950 0.803727
0.830689 0.830689 0.831262
0.857132 0.857132 0.857541
0.882157 0.882157 0.882434
0.905638 0.905638 0.905816
0.927453 0.927453 0.927558
0.947476 0.947476 0.947532
0.965586 0.965586 0.965609
0.981656 0.981656 0.981663
0.023565 0.023565 0.042634
0.040342 0.040342 0.058761
0.059115 0.059115 0.076821
0.079761 0.079761 0.096698
0.102156 0.102156 0.118278
0.126175 0.126175 0.141446
0.151695 0.151695 0.166087
0.178592 0.178592 0.192086
0.206742 0.206742 0.219327
0.087718 0.087718 0.104363
0.110719 0.110719 0.126535
0.135299 0.135299 0.150253
0.161334 0.161334 0.175402
0.188702 0.188702 0.201866
0.217278 0.217278 0.229531
0.246938 0.246938 0.258280
0.277558 0.277558 0.287996
0.309014 0.309014 0.318564
0.171150 0.171150 0.184890
0.198972 0.198972 0.211805
0.227957 0.227957 0.239878
0.257981 0.257981 0.268993
0.288920 0.288920 0.299032
0.320650 0.320650 0.329880
0.353048 0.353048 0.361419
0.385989 0.385989 0.393530
0.419351 0.419351 0.426094
0.269145 0.269145 0.279828
0.300387 0.300387 0.310176
0.332374 0.332374 0.341289
0.364984 0.364984 0.373049
0.398093 0.398093 0.405339
0.431576 0.431576 0.438038
0.465310 0.465310 0.471028
0.499171 0.499171 0.504188
0.533035 0.533035 0.537396
0.376987 0.376987 0.384750
0.410246 0.410246 0.417202
0.443835 0.443835 0.450022
0.477630 0.477630 0.483087
0.511506 0.511506 0.516279
0.545340 0.545340 0.549475
0.579009 0.579009 0.582553
0.612387 0.612387 0.615392
0.645352 0.645352 0.647868
0.489960 0.489960 0.495163
0.523835 0.523835 0.528370
0.557624 0.557624 0.561537
0.591201 0.591201 0.594543
0.624443 0.624443 0.627264
0.657227 0.657227 0.659576
0.689427 0.689427 0.691357
0.720922 0.720922 0.722480
0.751586 0.751586 0.752820
0.603348 0.603348 0.606495
0.636438 0.636438 0.639082
0.669024 0.669024 0.671215
0.700982 0.700982 0.702770
0.732188 0.732188 0.733623
0.762519 0.762519 0.763647
0.791851 0.791851 0.792717
0.820059 0.820059 0.820707
0.847020 0.847020 0.847488
0.712436 0.712436 0.714090
0.743338 0.743338 0.744656
0.773320 0.773320 0.774348
0.802257 0.802257 0.803039
0.830026 0.830026 0.830603
0.856502 0.856502 0.856914
0.881563 0.881563 0.881843
0.905083 0.905083 0.905263
0.926940 0.926940 0.927047
0.812508 0.812508 0.813211
0.839821 0.839821 0.840334
0.865796 0.865796 0.866156
0.890310 0.890310 0.890551
0.913239 0.913239 0.913390
0.934460 0.934460 0.934546
0.953847 0.953847 0.953890
0.971278 0.971278 0.971295
0.986629 0.986629 0.986632
0.029031 0.029031 0.047887
0.046500 0.046500 0.064683
0.065923 0.065923 0.083373
0.087177 0.087177 0.103842
0.110137 0.110137 0.125974
0.134680 0.134680 0.149655
0.160681 0.160681 0.174770
0.188018 0.188018 0.201204
0.216565 0.216565 0.228841
0.095345 0.095345 0.111713
0.118895 0.118895 0.134422
0.143983 0.143983 0.158639
0.170485 0.170485 0.184247
0.198277 0.198277 0.211132
0.227235 0.227235 0.239178
0.257235 0.257235 0.268269
0.288153 0.288153 0.298288
0.319866 0.319866 0.329117
0.180461 0.180461 0.193893
0.208691 0.208691 0.221215
0.238043 0.238043 0.249654
0.268391 0.268391 0.279096
0.299613 0.299613 0.309424
0.331584 0.331584 0.340520
0.364180 0.364180 0.372266
0.397278 0.397278 0.404544
0.430754 0.430754 0.437235
0.279663 0.279663 0.290041
0.311172 0.311172 0.320662
0.343385 0.343385 0.352008
0.376179 0.376179 0.383962
0.409428 0.409428 0.416404
0.443011 0.443011 0.449215
0.476802 0.476802 0.482276
0.510677 0.510677 0.515466
0.544514 0.544514 0.548664
0.388237 0.388237 0.395722
0.421622 0.421622 0.428313
0.455295 0.455295 0.461229
0.489131 0.489131 0.494351
0.523007 0.523007 0.527558
0.556799 0.556799 0.560728
0.590383 0.590383 0.593739
0.623635 0.623635 0.626468
0.656431 0.656431 0.658792
0.501466 0.501466 0.506437
0.535326 0.535326 0.539644
0.569056 0.569056 0.572771
0.602534 0.602534 0.605693
0.635634 0.635634 0.638289
0.668234 0.668234 0.670435
0.700209 0.700209 0.702006
0.731435 0.731435 0.732877
0.761789 0.761789 0.762924
0.614635 0.614635 0.617605
0.647567 0.647567 0.650051
0.679953 0.679953 0.682002
0.711670 0.711670 0.713333
0.742593 0.742593 0.743918
0.772598 0.772598 0.773633
0.801562 0.801562 0.802350
0.829361 0.829361 0.829944
0.855871 0.855871 0.856286
0.723026 0.723026 0.724561
0.753630 0.753630 0.754844
0.783270 0.783270 0.784210
0.811824 0.811824 0.812533
0.839168 0.839168 0.839686
0.865178 0.865178 0.865541
0.889729 0.889729 0.889972
0.912698 0.912698 0.912851
0.933962 0.933962 0.934049
0.821926 0.821926 0.822560
0.848798 0.848798 0.849256
0.874291 0.874291 0.874607
0.898281 0.898281 0.898488
0.920644 0.920644 0.920770
0.941256 0.941256 0.941325
0.959992 0.959992 0.960024
0.976731 0.976731 0.976742
0.991346 0.991346 0.991348
0.034737 0.034737 0.053371
0.052883 0.052883 0.070824
0.072942 0.072942 0.090131
0.094789 0.094789 0.111177
0.118300 0.118300 0.133848
0.143352 0.143352 0.158029
0.169821 0.169821 0.183605
0.197583 0.197583 0.210460
0.226514 0.226514 0.238479
0.103162 0.103162 0.119249
0.127249 0.127249 0.142483
0.152831 0.152831 0.167185
0.179785 0.179785 0.193240
0.207987 0.207987 0.220533
0.237312 0.237312 0.248946
0.267638 0.267638 0.278365
0.298840 0.298840 0.308672
0.330794 0.330794 0.339751
0.189914 0.189914 0.203039
0.218540 0.218540 0.230753
0.248244 0.248244 0.259546
0.278903 0.278903 0.289302
0.310393 0.310393 0.319904
0.342590 0.342590 0.351234
0.375371 0.375371 0.383174
0.408611 0.408611 0.415605
0.442186 0.442186 0.448409
0.290277 0.290277 0.300351
0.322039 0.322039 0.331232
0.354463 0.354463 0.362798
0.387425 0.387425 0.394930
0.420802 0.420802 0.427511
0.454469 0.454469 0.460421
0.488303 0.488303 0.493539
0.522179 0.522179 0.526745
0.555975 0.555975 0.559918
0.399535 0.399535 0.406746
0.433032 0.433032 0.439461
0.466774 0.466774 0.472460
0.500637 0.500637 0.505625
0.534499 0.534499 0.538833
0.568234 0.568234 0.571962
0.601719 0.601719 0.604891
0.634830 0.634830 0.637497
0.667443 0.667443 0.669655
0.512972 0.512972 0.517716
0.546802 0.546802 0.550909
0.580460 0.580460 0.583980
0.613823 0.613823 0.616806
0.646767 0.646767 0.649263
0.679169 0.679169 0.681227
0.710903 0.710903 0.712575
0.741847 0.741847 0.743180
0.771876 0.771876 0.772917
0.625872 0.625872 0.628672
0.658633 0.658633 0.660964
0.690806 0.690806 0.692718
0.722267 0.722267 0.723810
0.752892 0.752892 0.754113
0.782558 0.782558 0.783503
0.811140 0.811140 0.811853
0.838515 0.838515 0.839036
0.864558 0.864558 0.864925
0.733520 0.733520 0.734940
0.763810 0.763810 0.764926
0.793095 0.793095 0.793952
0.821252 0.821252 0.821891
0.848157 0.848157 0.848618
0.873685 0.873685 0.874004
0.897713 0.897713 0.897922
0.920117 0.920117 0.920245
0.940773 0.940773 0.940843
0.831199 0.831199 0.831769
0.857617 0.857617 0.858022
0.882613 0.882613 0.882889
0.906064 0.906064 0.906241
0.927846 0.927846 0.927950
0.947835 0.947835 0.947890
0.965907 0.965907 0.965930
0.981938 0.981938 0.981945
0.995805 0.995805 0.995806
0.040677 0.040677 0.059083
0.059487 0.059487 0.077178
0.080167 0.080167 0.097089
0.102593 0.102593 0.118700
0.126642 0.126642 0.141897
0.152189 0.152189 0.166564
0.179111 0.179111 0.192588
0.207283 0.207283 0.219851
0.236583 0.236583 0.248239
0.111167 0.111167 0.126967
0.135775 0.135775 0.150713
0.161837 0.161837 0.175888
0.189229 0.189229 0.202376
0.217826 0.217826 0.230062
0.247505 0.247505 0.258830
0.278142 0.278142 0.288564
0.309614 0.309614 0.319146
0.341795 0.341795 0.350460
0.199507 0.199507 0.212323
0.228513 0.228513 0.240416
0.258555 0.258555 0.269550
0.289510 0.289510 0.299606
0.321254 0.321254 0.330468
0.353663 0.353663 0.362018
0.386614 0.386614 0.394139
0.419982 0.419982 0.426710
0.453643 0.453643 0.459613
0.300982 0.300982 0.310754
0.332982 0.332982 0.341881
0.365603 0.365603 0.373652
0.398720 0.398720 0.405951
0.432209 0.432209 0.438657
0.465947 0.465947 0.471651
0.499809 0.499809 0.504813
0.533672 0.533672 0.538021
0.567411 0.567411 0.571154
0.410876 0.410876 0.417817
0.444469 0.444469 0.450642
0.478267 0.478267 0.483711
0.512143 0.512143 0.516904
0.545976 0.545976 0.550099
0.579640 0.579640 0.583174
0.613012 0.613012 0.616007
0.645968 0.645968 0.648474
0.678384 0.678384 0.680452
0.524472 0.524472 0.528995
0.558258 0.558258 0.562160
0.591830 0.591830 0.595162
0.625064 0.625064 0.627876
0.657838 0.657838 0.660180
0.690027 0.690027 0.691949
0.721507 0.721507 0.723058
0.752154 0.752154 0.753383
0.781845 0.781845 0.782796
0.637056 0.637056 0.639691
0.669631 0.669631 0.671814
0.701576 0.701576 0.703357
0.732767 0.732767 0.734196
0.763081 0.763081 0.764203
0.792392 0.792392 0.793254
0.820578 0.820578 0.821222
0.847515 0.847515 0.847980
0.873078 0.873078 0.873400
0.743911 0.743911 0.745223
0.773874 0.773874 0.774897
0.802790 0.802790 0.803568
0.830536 0.830536 0.831110
0.856987 0.856987 0.857396
0.882020 0.882020 0.882298
0.905510 0.905510 0.905689
0.927334 0.927334 0.927440
0.947369 0.947369 0.947424
0.840322 0.840322 0.840832
0.866271 0.866271 0.866629
0.890757 0.890757 0.890995
0.913655 0.913655 0.913804
0.934842 0.934842 0.934927
0.954194 0.954194 0.954236
0.971587 0.971587 0.971603
0.986897 0.986897 0.986900
1.000000 1.000000 1.000000
