app/assets/luts/noir.cube
# Noir — generated by tools/make_luts.dart.
# Edit the formula there, not this file.
TITLE "vdodtor Noir"
LUT_3D_SIZE 17
DOMAIN_MIN 0.0 0.0 0.0
DOMAIN_MAX 1.0 1.0 1.0
0.000000 0.000000 0.020000
0.006268 0.006268 0.026018
0.013103 0.013103 0.032583
0.020490 0.020490 0.039679
0.028413 0.028413 0.047293
0.036857 0.036857 0.055410
0.045806 0.045806 0.064016
0.055245 0.055245 0.073096
0.065158 0.065158 0.082637
0.075530 0.075530 0.092623
0.086345 0.086345 0.103040
0.097588 0.097588 0.113875
0.109243 0.109243 0.125112
0.121295 0.121295 0.136738
0.133729 0.133729 0.148737
0.146528 0.146528 0.161096
0.159678 0.159678 0.173801
0.023314 0.023314 0.042392
0.031428 0.031428 0.050191
0.040058 0.040058 0.058487
0.049187 0.049187 0.067268
0.058800 0.058800 0.076517
0.068882 0.068882 0.086222
0.079417 0.079417 0.096366
0.090390 0.090390 0.106937
0.101784 0.101784 0.117920
0.113586 0.113586 0.129301
0.125779 0.125779 0.141064
0.138347 0.138347 0.153196
0.151276 0.151276 0.165682
0.164549 0.164549 0.178509
0.178152 0.178152 0.191660
0.192068 0.192068 0.205123
0.206283 0.206283 0.218883
0.052631 0.052631 0.070582
0.062417 0.062417 0.079998
0.072666 0.072666 0.089865
0.083362 0.083362 0.100166
0.094490 0.094490 0.110889
0.106035 0.106035 0.122018
0.117980 0.117980 0.133540
0.130312 0.130312 0.145439
0.143013 0.143013 0.157702
0.156069 0.156069 0.170313
0.169464 0.169464 0.183260
0.183183 0.183183 0.196527
0.197210 0.197210 0.210099
0.211529 0.211529 0.223963
0.226126 0.226126 0.238103
0.240984 0.240984 0.252506
0.256089 0.256089 0.267157
0.087364 0.087364 0.104022
0.098646 0.098646 0.114894
0.110338 0.110338 0.126168
0.122426 0.122426 0.137829
0.134894 0.134894 0.149862
0.147726 0.147726 0.162253
0.160907 0.160907 0.174989
0.174422 0.174422 0.188053
0.188255 0.188255 0.201433
0.202390 0.202390 0.215113
0.216812 0.216812 0.229080
0.231506 0.231506 0.243317
0.246455 0.246455 0.257812
0.261646 0.261646 0.272549
0.277061 0.277061 0.287514
0.292686 0.292686 0.302692
0.308505 0.308505 0.318069
0.126922 0.126922 0.142167
0.139524 0.139524 0.154332
0.152485 0.152485 0.166851
0.165790 0.165790 0.179708
0.179422 0.179422 0.192889
0.193366 0.193366 0.206380
0.207608 0.207608 0.220166
0.222131 0.222131 0.234232
0.236919 0.236919 0.248565
0.251959 0.251959 0.263150
0.267233 0.267233 0.277972
0.282726 0.282726 0.293016
0.298424 0.298424 0.308268
0.314310 0.314310 0.323713
0.330369 0.330369 0.339337
0.346585 0.346585 0.355124
0.362944 0.362944 0.371061
0.170715 0.170715 0.184470
0.184463 0.184463 0.197765
0.198518 0.198518 0.211365
0.212863 0.212863 0.225255
0.227485 0.227485 0.239420
0.242367 0.242367 0.253847
0.257493 0.257493 0.268519
0.272849 0.272849 0.283424
0.288418 0.288418 0.298545
0.304186 0.304186 0.313869
0.320137 0.320137 0.329381
0.336255 0.336255 0.345066
0.352525 0.352525 0.360910
0.368932 0.368932 0.376897
0.385459 0.385459 0.393012
0.402092 0.402092 0.409242
0.418815 0.418815 0.425570
0.218155 0.218155 0.230381
0.232873 0.232873 0.244643
0.247846 0.247846 0.259161
0.263058 0.263058 0.273919
0.278493 0.278493 0.288905
0.294137 0.294137 0.304102
0.309973 0.309973 0.319496
0.325987 0.325987 0.335072
0.342162 0.342162 0.350817
0.358483 0.358483 0.366714
0.374936 0.374936 0.382750
0.391503 0.391503 0.398908
0.408170 0.408170 0.415176
0.424922 0.424922 0.431536
0.441742 0.441742 0.447975
0.458616 0.458616 0.464478
0.475528 0.475528 0.481029
0.268652 0.268652 0.279350
0.284165 0.284165 0.294414
0.299881 0.299881 0.309684
0.315783 0.315783 0.325146
0.331858 0.331858 0.340786
0.348088 0.348088 0.356588
0.364459 0.364459 0.372537
0.380955 0.380955 0.388619
0.397560 0.397560 0.404819
0.414260 0.414260 0.421122
0.431039 0.431039 0.437513
0.447880 0.447880 0.453977
0.464770 0.464770 0.470499
0.481691 0.481691 0.487064
0.498629 0.498629 0.503657
0.515569 0.515569 0.520262
0.532494 0.532494 0.536865
0.321616 0.321616 0.330820
0.337749 0.337749 0.346521
0.354032 0.354032 0.362378
0.370451 0.370451 0.378377
0.386988 0.386988 0.394504
0.403630 0.403630 0.410743
0.420360 0.420360 0.427080
0.437163 0.437163 0.443499
0.454024 0.454024 0.459986
0.470927 0.470927 0.476525
0.487857 0.487857 0.493102
0.504797 0.504797 0.509702
0.521733 0.521733 0.526308
0.538650 0.538650 0.542906
0.555531 0.555531 0.559482
0.572361 0.572361 0.576018
0.589124 0.589124 0.592501
0.376458 0.376458 0.384234
0.393036 0.393036 0.400404
0.409711 0.409711 0.416680
0.426470 0.426470 0.433049
0.443296 0.443296 0.449494
0.460174 0.460174 0.466002
0.477088 0.477088 0.482557
0.494024 0.494024 0.499144
0.510964 0.510964 0.515747
0.527895 0.527895 0.532353
0.544800 0.544800 0.548944
0.561664 0.561664 0.565507
0.578472 0.578472 0.582026
0.595208 0.595208 0.598485
0.611856 0.611856 0.614870
0.628402 0.628402 0.631164
0.644829 0.644829 0.647352
0.432589 0.432589 0.439028
0.449435 0.449435 0.455498
0.466328 0.466328 0.472025
0.483252 0.483252 0.488593
0.500191 0.500191 0.505187
0.517130 0.517130 0.521793
0.534053 0.534053 0.538396
0.550945 0.550945 0.554978
0.567791 0.567791 0.571527
0.584574 0.584574 0.588026
0.601280 0.601280 0.604460
0.617893 0.617893 0.620813
0.634397 0.634397 0.637070
0.650777 0.650777 0.653216
0.667018 0.667018 0.669235
0.683103 0.683103 0.685112
0.699018 0.699018 0.700830
0.489418 0.489418 0.494632
0.506359 0.506359 0.511233
0.523294 0.523294 0.527839
0.540208 0.540208 0.544436
0.557085 0.557085 0.561008
0.573909 0.573909 0.577540
0.590666 0.590666 0.594017
0.607340 0.607340 0.610423
0.623915 0.623915 0.626743
0.640375 0.640375 0.642962
0.656707 0.656707 0.659064
0.672892 0.672892 0.675032
0.688918 0.688918 0.690853
0.704767 0.704767 0.706510
0.720424 0.720424 0.721988
0.735875 0.735875 0.737270
0.751103 0.751103 0.752342
0.546357 0.546357 0.550473
0.563217 0.563217 0.567032
0.580018 0.580018 0.583546
0.596747 0.596747 0.599999
0.613386 0.613386 0.616376
0.629921 0.629921 0.632661
0.646337 0.646337 0.648838
0.662617 0.662617 0.664893
0.678746 0.678746 0.680810
0.694709 0.694709 0.696573
0.710490 0.710490 0.712166
0.726074 0.726074 0.727575
0.741445 0.741445 0.742782
0.756588 0.756588 0.757773
0.771487 0.771487 0.772532
0.786128 0.786128 0.787042
0.800493 0.800493 0.801289
0.602816 0.602816 0.605971
0.619419 0.619419 0.622316
0.635912 0.635912 0.638564
0.652280 0.652280 0.654698
0.668507 0.668507 0.670705
0.684578 0.684578 0.686567
0.700476 0.700476 0.702271
0.716187 0.716187 0.717798
0.731696 0.731696 0.733135
0.746986 0.746986 0.748266
0.762042 0.762042 0.763174
0.776848 0.776848 0.777844
0.791390 0.791390 0.792260
0.805652 0.805652 0.806407
0.819617 0.819617 0.820268
0.833272 0.833272 0.833828
0.846600 0.846600 0.847070
0.658205 0.658205 0.660542
0.674377 0.674377 0.676497
0.690386 0.690386 0.692304
0.706219 0.706219 0.707945
0.721858 0.721858 0.723405
0.737288 0.737288 0.738669
0.752495 0.752495 0.753720
0.767462 0.767462 0.768543
0.782174 0.782174 0.783123
0.796615 0.796615 0.797443
0.810771 0.810771 0.811487
0.824625 0.824625 0.825240
0.838163 0.838163 0.838686
0.851368 0.851368 0.851809
0.864225 0.864225 0.864593
0.876718 0.876718 0.877022
0.888833 0.888833 0.889080
0.711935 0.711935 0.713595
0.727500 0.727500 0.728985
0.742851 0.742851 0.744174
0.757972 0.757972 0.759144
0.772848 0.772848 0.773880
0.787464 0.787464 0.788367
0.801803 0.801803 0.802589
0.815851 0.815851 0.816529
0.829591 0.829591 0.830172
0.843009 0.843009 0.843502
0.856089 0.856089 0.856504
0.868816 0.868816 0.869160
0.881174 0.881174 0.881456
0.893147 0.893147 0.893375
0.904720 0.904720 0.904901
0.915877 0.915877 0.916019
0.926604 0.926604 0.926712
0.763417 0.763417 0.764537
0.778200 0.778200 0.779184
0.792717 0.792717 0.793576
0.806952 0.806952 0.807697
0.820889 0.820889 0.821531
0.834514 0.834514 0.835062
0.847811 0.847811 0.848275
0.860764 0.860764 0.861152
0.873358 0.873358 0.873679
0.885578 0.885578 0.885840
0.897407 0.897407 0.897618
0.908831 0.908831 0.908997
0.919833 0.919833 0.919962
0.930399 0.930399 0.930496
0.940513 0.940513 0.940584
0.950159 0.950159 0.950209
0.959323 0.959323 0.959356
0.002064 0.002064 0.021982
0.008527 0.008527 0.028187
0.015551 0.015551 0.034934
0.023122 0.023122 0.042208
0.031223 0.031223 0.049994
0.039841 0.039841 0.058279
0.048958 0.048958 0.067047
0.058559 0.058559 0.076285
0.068630 0.068630 0.085979
0.079154 0.079154 0.096113
0.090116 0.090116 0.106674
0.101501 0.101501 0.117647
0.113293 0.113293 0.129018
0.125476 0.125476 0.140772
0.138035 0.138035 0.152895
0.150955 0.150955 0.165373
0.164220 0.164220 0.178191
0.026011 0.026011 0.044984
0.034302 0.034302 0.052953
0.043103 0.043103 0.061416
0.052398 0.052398 0.070357
0.062172 0.062172 0.079763
0.072410 0.072410 0.089618
0.083095 0.083095 0.099909
0.094213 0.094213 0.110622
0.105747 0.105747 0.121741
0.117684 0.117684 0.133253
0.130006 0.130006 0.145143
0.142698 0.142698 0.157397
0.155745 0.155745 0.170001
0.169132 0.169132 0.182939
0.182843 0.182843 0.196198
0.196863 0.196863 0.209763
0.211175 0.211175 0.223620
0.055902 0.055902 0.073728
0.065846 0.065846 0.083299
0.076249 0.076249 0.093315
0.087093 0.087093 0.103761
0.098365 0.098365 0.114624
0.110047 0.110047 0.125888
0.122126 0.122126 0.137539
0.134584 0.134584 0.149563
0.147408 0.147408 0.161946
0.160581 0.160581 0.174673
0.174087 0.174087 0.187730
0.187912 0.187912 0.201102
0.202040 0.202040 0.214775
0.216456 0.216456 0.228735
0.231143 0.231143 0.242966
0.246087 0.246087 0.257455
0.261271 0.261271 0.272186
0.091148 0.091148 0.107668
0.102571 0.102571 0.118679
0.114400 0.114400 0.130085
0.126618 0.126618 0.141874
0.139212 0.139212 0.154031
0.152164 0.152164 0.166541
0.165460 0.165460 0.179389
0.179085 0.179085 0.192563
0.193022 0.193022 0.206046
0.207256 0.207256 0.219825
0.221772 0.221772 0.233885
0.236555 0.236555 0.248212
0.251588 0.251588 0.262790
0.266856 0.266856 0.277606
0.282345 0.282345 0.292645
0.298038 0.298038 0.307893
0.313919 0.313919 0.323333
0.131160 0.131160 0.146258
0.143886 0.143886 0.158545
0.156966 0.156966 0.171180
0.170383 0.170383 0.184148
0.184123 0.184123 0.197436
0.198170 0.198170 0.211029
0.212509 0.212509 0.224912
0.227124 0.227124 0.239071
0.242000 0.242000 0.253491
0.257120 0.257120 0.268158
0.272471 0.272471 0.283057
0.288035 0.288035 0.298173
0.303798 0.303798 0.313492
0.319745 0.319745 0.329000
0.335859 0.335859 0.344681
0.352126 0.352126 0.360520
0.368529 0.368529 0.376504
0.175349 0.175349 0.188950
0.189203 0.189203 0.202350
0.203358 0.203358 0.216050
0.217799 0.217799 0.230036
0.232510 0.232510 0.244291
0.247477 0.247477 0.258803
0.262683 0.262683 0.273556
0.278113 0.278113 0.288536
0.293752 0.293752 0.303728
0.309584 0.309584 0.319117
0.325593 0.325593 0.334689
0.341764 0.341764 0.350430
0.358082 0.358082 0.366324
0.374532 0.374532 0.382356
0.391097 0.391097 0.398512
0.407762 0.407762 0.414777
0.424511 0.424511 0.431135
0.223124 0.223124 0.235195
0.237930 0.237930 0.249545
0.252986 0.252986 0.264147
0.268275 0.268275 0.278984
0.283783 0.283783 0.294043
0.299494 0.299494 0.309308
0.315392 0.315392 0.324766
0.331462 0.331462 0.340401
0.347689 0.347689 0.356199
0.364057 0.364057 0.372145
0.380550 0.380550 0.388224
0.397153 0.397153 0.404421
0.413851 0.413851 0.420722
0.430627 0.430627 0.437111
0.447468 0.447468 0.453573
0.464356 0.464356 0.470094
0.481277 0.481277 0.486658
0.273897 0.273897 0.284441
0.289480 0.289480 0.299577
0.305261 0.305261 0.314914
0.321224 0.321224 0.330438
0.337353 0.337353 0.346135
0.353632 0.353632 0.361988
0.370048 0.370048 0.377984
0.386582 0.386582 0.394108
0.403222 0.403222 0.410345
0.419950 0.419950 0.426679
0.436752 0.436752 0.443097
0.453611 0.453611 0.459582
0.470513 0.470513 0.476120
0.487442 0.487442 0.492697
0.504383 0.504383 0.509295
0.521319 0.521319 0.525902
0.538236 0.538236 0.542501
0.327077 0.327077 0.336134
0.343263 0.343263 0.351889
0.359594 0.359594 0.367796
0.376054 0.376054 0.383840
0.392629 0.392629 0.400007
0.409302 0.409302 0.416281
0.426059 0.426059 0.432647
0.442884 0.442884 0.449091
0.459761 0.459761 0.465598
0.476674 0.476674 0.482152
0.493609 0.493609 0.498738
0.510550 0.510550 0.515341
0.527481 0.527481 0.531947
0.544387 0.544387 0.548539
0.561253 0.561253 0.565103
0.578062 0.578062 0.581623
0.594800 0.594800 0.598083
0.382076 0.382076 0.389713
0.398689 0.398689 0.405920
0.415394 0.415394 0.422229
0.432177 0.432177 0.438626
0.449023 0.449023 0.455094
0.465915 0.465915 0.471620
0.482838 0.482838 0.488187
0.499777 0.499777 0.504781
0.516716 0.516716 0.521387
0.533640 0.533640 0.537990
0.550533 0.550533 0.554573
0.567380 0.567380 0.571123
0.584165 0.584165 0.587623
0.600873 0.600873 0.604059
0.617488 0.617488 0.620414
0.633995 0.633995 0.636674
0.650378 0.650378 0.652823
0.438304 0.438304 0.444614
0.455168 0.455168 0.461105
0.472073 0.472073 0.477647
0.489004 0.489004 0.494226
0.505945 0.505945 0.510826
0.522880 0.522880 0.527433
0.539794 0.539794 0.544030
0.556672 0.556672 0.560603
0.573498 0.573498 0.577136
0.590257 0.590257 0.593615
0.606933 0.606933 0.610023
0.623511 0.623511 0.626345
0.639974 0.639974 0.642567
0.656309 0.656309 0.658671
0.672498 0.672498 0.674644
0.688528 0.688528 0.690468
0.704381 0.704381 0.706129
0.495171 0.495171 0.500268
0.512112 0.512112 0.516872
0.529041 0.529041 0.533477
0.545944 0.545944 0.550067
0.562805 0.562805 0.566628
0.579608 0.579608 0.583143
0.596339 0.596339 0.599597
0.612981 0.612981 0.615976
0.629518 0.629518 0.632264
0.645937 0.645937 0.648444
0.662220 0.662220 0.664502
0.678353 0.678353 0.680423
0.694321 0.694321 0.696189
0.710106 0.710106 0.711787
0.725695 0.725695 0.727200
0.741072 0.741072 0.742413
0.756221 0.756221 0.757409
0.552088 0.552088 0.556101
0.568930 0.568930 0.572646
0.585708 0.585708 0.589141
0.602408 0.602408 0.605570
0.619014 0.619014 0.621917
0.635510 0.635510 0.638167
0.651882 0.651882 0.654305
0.668112 0.668112 0.670315
0.684187 0.684187 0.686181
0.700090 0.700090 0.701888
0.715805 0.715805 0.717421
0.731319 0.731319 0.732763
0.746614 0.746614 0.747898
0.761676 0.761676 0.762812
0.776489 0.776489 0.777488
0.791038 0.791038 0.791911
0.805306 0.805306 0.806064
0.608466 0.608466 0.611532
0.625033 0.625033 0.627845
0.641486 0.641486 0.644057
0.657808 0.657808 0.660150
0.673983 0.673983 0.676109
0.689997 0.689997 0.691919
0.705834 0.705834 0.707564
0.721478 0.721478 0.723029
0.736913 0.736913 0.738298
0.752126 0.752126 0.753354
0.767099 0.767099 0.768184
0.781817 0.781817 0.782769
0.796266 0.796266 0.797096
0.810428 0.810428 0.811147
0.824290 0.824290 0.824908
0.837835 0.837835 0.838361
0.851049 0.851049 0.851492
0.663714 0.663714 0.665976
0.679833 0.679833 0.681883
0.695784 0.695784 0.697635
0.711552 0.711552 0.713216
0.727122 0.727122 0.728611
0.742478 0.742478 0.743805
0.757605 0.757605 0.758780
0.772487 0.772487 0.773523
0.787109 0.787109 0.788016
0.801456 0.801456 0.802244
0.815511 0.815511 0.816191
0.829259 0.829259 0.829842
0.842685 0.842685 0.843180
0.855774 0.855774 0.856190
0.868509 0.868509 0.868855
0.880876 0.880876 0.881160
0.892858 0.892858 0.893088
0.717244 0.717244 0.718843
0.732738 0.732738 0.734167
0.748013 0.748013 0.749283
0.763052 0.763052 0.764175
0.777842 0.777842 0.778829
0.792365 0.792365 0.793227
0.806607 0.806607 0.807355
0.820552 0.820552 0.821196
0.834185 0.834185 0.834735
0.847490 0.847490 0.847955
0.860452 0.860452 0.860841
0.873055 0.873055 0.873377
0.885284 0.885284 0.885547
0.897122 0.897122 0.897334
0.908556 0.908556 0.908723
0.919569 0.919569 0.919699
0.930146 0.930146 0.930244
0.768466 0.768466 0.769539
0.783161 0.783161 0.784101
0.797583 0.797583 0.798403
0.811719 0.811719 0.812428
0.825552 0.825552 0.826161
0.839068 0.839068 0.839586
0.852250 0.852250 0.852686
0.865082 0.865082 0.865447
0.877551 0.877551 0.877851
0.889640 0.889640 0.889883
0.901333 0.901333 0.901528
0.912615 0.912615 0.912768
0.923471 0.923471 0.923588
0.933885 0.933885 0.933973
0.943842 0.943842 0.943905
0.953326 0.953326 0.953370
0.962322 0.962322 0.962351
0.004195 0.004195 0.024027
0.010850 0.010850 0.030418
0.018062 0.018062 0.037346
0.025814 0.025814 0.044795
0.034093 0.034093 0.052752
0.042881 0.042881 0.061203
0.052165 0.052165 0.070133
0.061927 0.061927 0.079527
0.072154 0.072154 0.089372
0.082828 0.082828 0.099652
0.093936 0.093936 0.110355
0.105460 0.105460 0.121464
0.117387 0.117387 0.132967
0.129700 0.129700 0.144848
0.142383 0.142383 0.157093
0.155422 0.155422 0.169688
0.168801 0.168801 0.182619
0.028768 0.028768 0.047634
0.037234 0.037234 0.055773
0.046205 0.046205 0.064399
0.055664 0.055664 0.073500
0.065598 0.065598 0.083060
0.075989 0.075989 0.093065
0.086823 0.086823 0.103501
0.098084 0.098084 0.114353
0.109757 0.109757 0.125607
0.121826 0.121826 0.137249
0.134275 0.134275 0.149265
0.147090 0.147090 0.161639
0.160254 0.160254 0.174358
0.173753 0.173753 0.187407
0.187571 0.187571 0.200772
0.201691 0.201691 0.214437
0.216100 0.216100 0.228390
0.059227 0.059227 0.076928
0.069329 0.069329 0.086652
0.079883 0.079883 0.096815
0.090874 0.090874 0.107404
0.102287 0.102287 0.118405
0.114106 0.114106 0.129802
0.126315 0.126315 0.141581
0.138899 0.138899 0.153729
0.151843 0.151843 0.166230
0.165131 0.165131 0.179071
0.178748 0.178748 0.192237
0.192677 0.192677 0.205713
0.206905 0.206905 0.219485
0.221414 0.221414 0.233538
0.236190 0.236190 0.247858
0.251217 0.251217 0.262431
0.266480 0.266480 0.277241
0.094981 0.094981 0.111362
0.106543 0.106543 0.122509
0.118506 0.118506 0.134047
0.130854 0.130854 0.145962
0.143571 0.143571 0.158240
0.156642 0.156642 0.170867
0.170051 0.170051 0.183827
0.183783 0.183783 0.197108
0.197823 0.197823 0.210693
0.212155 0.212155 0.224569
0.226763 0.226763 0.238721
0.241633 0.241633 0.253135
0.256748 0.256748 0.267796
0.272093 0.272093 0.282690
0.287652 0.287652 0.297801
0.303411 0.303411 0.313115
0.319353 0.319353 0.328618
0.135442 0.135442 0.150391
0.148289 0.148289 0.162797
0.161485 0.161485 0.175547
0.175014 0.175014 0.188626
0.188860 0.188860 0.202019
0.203008 0.203008 0.215712
0.217442 0.217442 0.229690
0.232147 0.232147 0.243939
0.247108 0.247108 0.258445
0.262308 0.262308 0.273192
0.277733 0.277733 0.288167
0.293367 0.293367 0.303354
0.309194 0.309194 0.318738
0.325199 0.325199 0.334306
0.341367 0.341367 0.350043
0.357682 0.357682 0.365933
0.374128 0.374128 0.381962
0.180019 0.180019 0.193466
0.193977 0.193977 0.206970
0.208231 0.208231 0.220769
0.222765 0.222765 0.234847
0.237565 0.237565 0.249191
0.252615 0.252615 0.263787
0.267899 0.267899 0.278618
0.283401 0.283401 0.293672
0.299107 0.299107 0.308932
0.315001 0.315001 0.324386
0.331067 0.331067 0.340017
0.347290 0.347290 0.355811
0.363655 0.363655 0.371753
0.380145 0.380145 0.387829
0.396746 0.396746 0.404024
0.413441 0.413441 0.420322
0.430216 0.430216 0.436709
0.228124 0.228124 0.240039
0.243016 0.243016 0.254477
0.258153 0.258153 0.269160
0.273518 0.273518 0.284074
0.289097 0.289097 0.299204
0.304873 0.304873 0.314537
0.320831 0.320831 0.330057
0.336956 0.336956 0.345749
0.353233 0.353233 0.361599
0.369645 0.369645 0.377591
0.386177 0.386177 0.393712
0.402814 0.402814 0.409946
0.419540 0.419540 0.426279
0.436340 0.436340 0.442694
0.453198 0.453198 0.459178
0.470100 0.470100 0.475715
0.487028 0.487028 0.492291
0.279166 0.279166 0.289558
0.294818 0.294818 0.304764
0.310662 0.310662 0.320166
0.326683 0.326683 0.335750
0.342865 0.342865 0.351502
0.359193 0.359193 0.367405
0.375650 0.375650 0.383446
0.392222 0.392222 0.399610
0.408894 0.408894 0.415882
0.425649 0.425649 0.432246
0.442472 0.442472 0.448688
0.459347 0.459347 0.465193
0.476260 0.476260 0.481746
0.493195 0.493195 0.498332
0.510136 0.510136 0.514935
0.527067 0.527067 0.531541
0.543974 0.543974 0.548133
0.332557 0.332557 0.341466
0.348793 0.348793 0.357275
0.365170 0.365170 0.373230
0.381671 0.381671 0.389318
0.398281 0.398281 0.405522
0.414985 0.414985 0.421829
0.431766 0.431766 0.438224
0.448610 0.448610 0.454691
0.465501 0.465501 0.471215
0.482424 0.482424 0.487782
0.499363 0.499363 0.504375
0.516302 0.516302 0.520981
0.533226 0.533226 0.537584
0.550120 0.550120 0.554168
0.566968 0.566968 0.570719
0.583755 0.583755 0.587220
0.600465 0.600465 0.603657
0.387706 0.387706 0.395204
0.404352 0.404352 0.411448
0.421086 0.421086 0.427789
0.437892 0.437892 0.444211
0.454755 0.454755 0.460701
0.471659 0.471659 0.477242
0.488590 0.488590 0.493820
0.505530 0.505530 0.510420
0.522466 0.522466 0.527027
0.539381 0.539381 0.543624
0.556260 0.556260 0.560198
0.573088 0.573088 0.576733
0.589848 0.589848 0.593213
0.606526 0.606526 0.609623
0.623106 0.623106 0.625947
0.639573 0.639573 0.642171
0.655911 0.655911 0.658279
0.444025 0.444025 0.450208
0.460905 0.460905 0.466718
0.477821 0.477821 0.483274
0.494757 0.494757 0.499862
0.511697 0.511697 0.516466
0.528627 0.528627 0.533071
0.545531 0.545531 0.549662
0.562393 0.562393 0.566223
0.579198 0.579198 0.582740
0.595930 0.595930 0.599196
0.612575 0.612575 0.615577
0.629115 0.629115 0.631866
0.645537 0.645537 0.648050
0.661824 0.661824 0.664111
0.677961 0.677961 0.680035
0.693932 0.693932 0.695806
0.709723 0.709723 0.711408
0.500924 0.500924 0.505906
0.517863 0.517863 0.522512
0.534785 0.534785 0.539114
0.551676 0.551676 0.555695
0.568519 0.568519 0.572242
0.585299 0.585299 0.588738
0.602001 0.602001 0.605169
0.618609 0.618609 0.621518
0.635108 0.635108 0.637771
0.651483 0.651483 0.653912
0.667717 0.667717 0.669925
0.683795 0.683795 0.685795
0.699703 0.699703 0.701506
0.715423 0.715423 0.717043
0.730942 0.730942 0.732390
0.746243 0.746243 0.747531
0.761311 0.761311 0.762450
0.557814 0.557814 0.561724
0.574636 0.574636 0.578255
0.591389 0.591389 0.594729
0.608059 0.608059 0.611131
0.624629 0.624629 0.627448
0.641085 0.641085 0.643661
0.657410 0.657410 0.659757
0.673589 0.673589 0.675720
0.689607 0.689607 0.691534
0.705448 0.705448 0.707184
0.721097 0.721097 0.722653
0.736538 0.736538 0.737927
0.751756 0.751756 0.752989
0.766735 0.766735 0.767824
0.781460 0.781460 0.782416
0.795916 0.795916 0.796749
0.810086 0.810086 0.810807
0.614104 0.614104 0.617082
0.630634 0.630634 0.633363
0.647044 0.647044 0.649536
0.663318 0.663318 0.665585
0.679440 0.679440 0.681496
0.695396 0.695396 0.697251
0.711169 0.711169 0.712837
0.726744 0.726744 0.728237
0.742105 0.742105 0.743436
0.757238 0.757238 0.758417
0.772126 0.772126 0.773165
0.786755 0.786755 0.787664
0.801108 0.801108 0.801899
0.815170 0.815170 0.815854
0.828926 0.828926 0.829512
0.842361 0.842361 0.842858
0.855458 0.855458 0.855876
0.669206 0.669206 0.671394
0.685269 0.685269 0.687250
0.701160 0.701160 0.702946
0.716863 0.716863 0.718466
0.732362 0.732362 0.733795
0.747642 0.747642 0.748916
0.762688 0.762688 0.763814
0.777483 0.777483 0.778473
0.792013 0.792013 0.792878
0.806262 0.806262 0.807013
0.820215 0.820215 0.820861
0.833855 0.833855 0.834408
0.847169 0.847169 0.847636
0.860139 0.860139 0.860530
0.872751 0.872751 0.873075
0.884989 0.884989 0.885254
0.896838 0.896838 0.897051
0.722530 0.722530 0.724070
0.737951 0.737951 0.739324
0.753147 0.753147 0.754366
0.768104 0.768104 0.769179
0.782804 0.782804 0.783748
0.797234 0.797234 0.798056
0.811377 0.811377 0.812089
0.825218 0.825218 0.825829
0.838741 0.838741 0.839261
0.851931 0.851931 0.852370
0.864773 0.864773 0.865139
0.877250 0.877250 0.877552
0.889349 0.889349 0.889593
0.901052 0.901052 0.901247
0.912344 0.912344 0.912498
0.923211 0.923211 0.923329
0.933636 0.933636 0.933724
0.773486 0.773486 0.774512
0.788090 0.788090 0.788988
0.802417 0.802417 0.803198
0.816452 0.816452 0.817126
0.830179 0.830179 0.830756
0.843583 0.843583 0.844072
0.856648 0.856648 0.857059
0.869358 0.869358 0.869700
0.881700 0.881700 0.881980
0.893656 0.893656 0.893882
0.905211 0.905211 0.905391
0.916351 0.916351 0.916490
0.927058 0.927058 0.927165
0.937319 0.937319 0.937397
0.947117 0.947117 0.947173
0.956437 0.956437 0.956475
0.965263 0.965263 0.965287
0.006392 0.006392 0.026137
0.013237 0.013237 0.032711
0.020635 0.020635 0.039818
0.028568 0.028568 0.047441
0.037021 0.037021 0.055568
0.045979 0.045979 0.064183
0.055427 0.055427 0.073272
0.065349 0.065349 0.082821
0.075729 0.075729 0.092815
0.086553 0.086553 0.103241
0.097804 0.097804 0.114083
0.109466 0.109466 0.125327
0.121526 0.121526 0.136960
0.133966 0.133966 0.148967
0.146772 0.146772 0.161332
