app/assets/luts/noir.cube
# Noir — generated by tools/make_luts.dart.
# Edit the formula there, not this file.
TITLE "vdodtor Noir"
LUT_3D_SIZE 5
DOMAIN_MIN 0.0 0.0 0.0
DOMAIN_MAX 1.0 1.0 1.0
0.000000 0.000000 0.020000
0.028413 0.028413 0.047293
0.065158 0.065158 0.082637
0.109243 0.109243 0.125112
0.159678 0.159678 0.173801
0.126922 0.126922 0.142167
0.179422 0.179422 0.192889
0.236919 0.236919 0.248565
0.298424 0.298424 0.308268
0.362944 0.362944 0.371061
0.321616 0.321616 0.330820
0.386988 0.386988 0.394504
0.454024 0.454024 0.459986
0.521733 0.521733 0.526308
0.589124 0.589124 0.592501
0.546357 0.546357 0.550473
0.613386 0.613386 0.616376
0.678746 0.678746 0.680810
0.741445 0.741445 0.742782
0.800493 0.800493 0.801289
0.763417 0.763417 0.764537
0.820889 0.820889 0.821531
0.873358 0.873358 0.873679
0.919833 0.919833 0.919962
0.959323 0.959323 0.959356
0.008654 0.008654 0.028309
0.040008 0.040008 0.058439
0.079356 0.079356 0.096308
0.125709 0.125709 0.140996
0.178074 0.178074 0.191585
0.144129 0.144129 0.158779
0.198437 0.198437 0.211288
0.257407 0.257407 0.268436
0.320047 0.320047 0.329293
0.385365 0.385365 0.392921
0.343569 0.343569 0.352187
0.409617 0.409617 0.416588
0.476993 0.476993 0.482463
0.544705 0.544705 0.548851
0.611763 0.611763 0.614777
0.569246 0.569246 0.572957
0.635820 0.635820 0.638472
0.700387 0.700387 0.702182
0.761957 0.761957 0.763091
0.819539 0.819539 0.820191
0.783435 0.783435 0.784373
0.839319 0.839319 0.839835
0.889863 0.889863 0.890106
0.934077 0.934077 0.934164
0.970969 0.970969 0.970986
0.018344 0.018344 0.037617
0.052524 0.052524 0.070478
0.094362 0.094362 0.110766
0.142868 0.142868 0.157561
0.197050 0.197050 0.209944
0.161988 0.161988 0.176034
0.217991 0.217991 0.230222
0.278318 0.278318 0.288734
0.341978 0.341978 0.350638
0.407982 0.407982 0.414991
0.365789 0.365789 0.373833
0.432399 0.432399 0.438842
0.500000 0.500000 0.505000
0.567601 0.567601 0.571340
0.634211 0.634211 0.636887
0.592018 0.592018 0.595347
0.658022 0.658022 0.660361
0.721682 0.721682 0.723231
0.782009 0.782009 0.782960
0.838012 0.838012 0.838536
0.802950 0.802950 0.803727
0.857132 0.857132 0.857541
0.905638 0.905638 0.905816
0.947476 0.947476 0.947532
0.981656 0.981656 0.981663
0.029031 0.029031 0.047887
0.065923 0.065923 0.083373
0.110137 0.110137 0.125974
0.160681 0.160681 0.174770
0.216565 0.216565 0.228841
0.180461 0.180461 0.193893
0.238043 0.238043 0.249654
0.299613 0.299613 0.309424
0.364180 0.364180 0.372266
0.430754 0.430754 0.437235
0.388237 0.388237 0.395722
0.455295 0.455295 0.461229
0.523007 0.523007 0.527558
0.590383 0.590383 0.593739
0.656431 0.656431 0.658792
0.614635 0.614635 0.617605
0.679953 0.679953 0.682002
0.742593 0.742593 0.743918
0.801562 0.801562 0.802350
0.855871 0.855871 0.856286
0.821926 0.821926 0.822560
0.874291 0.874291 0.874607
0.920644 0.920644 0.920770
0.959992 0.959992 0.960024
0.991346 0.991346 0.991348
0.040677 0.040677 0.059083
0.080167 0.080167 0.097089
0.126642 0.126642 0.141897
0.179111 0.179111 0.192588
0.236583 0.236583 0.248239
0.199507 0.199507 0.212323
0.258555 0.258555 0.269550
0.321254 0.321254 0.330468
0.386614 0.386614 0.394139
0.453643 0.453643 0.459613
0.410876 0.410876 0.417817
0.478267 0.478267 0.483711
0.545976 0.545976 0.550099
0.613012 0.613012 0.616007
0.678384 0.678384 0.680452
0.637056 0.637056 0.639691
0.701576 0.701576 0.703357
0.763081 0.763081 0.764203
0.820578 0.820578 0.821222
0.873078 0.873078 0.873400
0.840322 0.840322 0.840832
0.890757 0.890757 0.890995
0.934842 0.934842 0.934927
0.971587 0.971587 0.971603
1.000000 1.000000 1.000000
