app/assets/luts/teal_orange.cube
# Teal & Orange — generated by tools/make_luts.dart.
# Edit the formula there, not this file.
TITLE "vdodtor Teal and Orange"
LUT_3D_SIZE 17
DOMAIN_MIN 0.0 0.0 0.0
DOMAIN_MAX 1.0 1.0 1.0
0.000000 0.010815 0.081015
0.000000 0.009801 0.078592
0.044699 0.008662 0.075856
0.108550 0.007422 0.072853
0.177197 0.006100 0.069629
0.249682 0.004719 0.066231
0.325047 0.003298 0.062704
0.402332 0.001856 0.059094
0.480581 0.000413 0.055445
0.558833 0.000000 0.051802
0.636131 0.000000 0.048211
0.711514 0.000000 0.044715
0.784024 0.000000 0.041358
0.852701 0.000000 0.038183
0.916586 0.000000 0.035235
0.974719 0.000000 0.032556
1.000000 0.000000 0.030190
0.000000 0.058319 0.072875
0.000000 0.057329 0.070461
0.046391 0.056217 0.067735
0.110250 0.055007 0.064744
0.178905 0.053717 0.061533
0.251398 0.052370 0.058148
0.326771 0.050984 0.054635
0.404065 0.049579 0.051039
0.482322 0.048172 0.047404
0.560583 0.046782 0.043776
0.637890 0.045426 0.040199
0.713281 0.044119 0.036716
0.785800 0.042876 0.033373
0.854484 0.041711 0.030211
0.918376 0.040640 0.027274
0.976516 0.039675 0.024606
1.000000 0.038828 0.022249
0.000000 0.112123 0.063709
0.000000 0.111160 0.061306
0.048328 0.110079 0.058593
0.112195 0.108902 0.055615
0.180858 0.107649 0.052418
0.253361 0.106340 0.049048
0.328743 0.104994 0.045551
0.406047 0.103629 0.041970
0.484314 0.102264 0.038352
0.562585 0.100916 0.034740
0.639901 0.099600 0.031179
0.715303 0.098332 0.027712
0.787830 0.097128 0.024383
0.856524 0.096000 0.021236
0.920424 0.094962 0.018312
0.978570 0.094027 0.015656
1.000000 0.093208 0.013309
0.000000 0.171372 0.053684
0.000000 0.170439 0.051292
0.050485 0.169392 0.048592
0.114361 0.168252 0.045628
0.183034 0.167039 0.042447
0.255546 0.165771 0.039094
0.330939 0.164469 0.035613
0.408254 0.163149 0.032051
0.486532 0.161830 0.028450
0.564814 0.160526 0.024856
0.642141 0.159256 0.021312
0.717553 0.158032 0.017863
0.790090 0.156869 0.014550
0.858794 0.155781 0.011418
0.922703 0.154780 0.008510
0.980857 0.153879 0.005867
1.000000 0.153090 0.003532
0.000000 0.235208 0.042960
0.000000 0.234306 0.040581
0.052838 0.233296 0.037895
0.116723 0.232196 0.034947
0.185406 0.231025 0.031783
0.257929 0.229803 0.028447
0.333334 0.228548 0.024985
0.410660 0.227276 0.021441
0.488950 0.226005 0.017860
0.567244 0.224751 0.014285
0.644582 0.223528 0.010760
0.720005 0.222351 0.007329
0.792554 0.221234 0.004034
0.861267 0.220189 0.000919
0.925186 0.219228 0.000000
0.983349 0.218363 0.000000
1.000000 0.217606 0.000000
0.000000 0.302765 0.031698
0.000000 0.301898 0.029332
0.055359 0.300925 0.026661
0.119254 0.299867 0.023730
0.187949 0.298742 0.020584
0.260483 0.297568 0.017267
0.335900 0.296362 0.013824
0.413238 0.295141 0.010300
0.491540 0.293922 0.006739
0.569847 0.292719 0.003184
0.647197 0.291547 0.000000
0.722632 0.290420 0.000000
0.795192 0.289350 0.000000
0.863916 0.288350 0.000000
0.927845 0.287431 0.000000
0.986018 0.286605 0.000000
1.000000 0.285881 0.000000
0.000000 0.373174 0.020056
0.000000 0.372341 0.017705
0.058022 0.371409 0.015049
0.121927 0.370394 0.012135
0.190633 0.369316 0.009007
0.263179 0.368191 0.005709
0.338608 0.367037 0.002287
0.415960 0.365869 0.000000
0.494275 0.364703 0.000000
0.572594 0.363554 0.000000
0.649957 0.362435 0.000000
0.725404 0.361360 0.000000
0.797976 0.360340 0.000000
0.866712 0.359387 0.000000
0.930651 0.358511 0.000000
0.988833 0.357725 0.000000
1.000000 0.357036 0.000000
0.000000 0.445553 0.008189
0.002638 0.444757 0.005852
0.060795 0.443865 0.003212
0.124711 0.442896 0.000316
0.193429 0.441866 0.000000
0.265987 0.440792 0.000000
0.341429 0.439690 0.000000
0.418793 0.438577 0.000000
0.497122 0.437466 0.000000
0.575454 0.436372 0.000000
0.652830 0.435307 0.000000
0.728290 0.434284 0.000000
0.800874 0.433315 0.000000
0.869621 0.432410 0.000000
0.933571 0.431580 0.000000
0.991763 0.430834 0.000000
1.000000 0.430182 0.000000
0.000000 0.519017 0.000000
0.005481 0.518257 0.000000
0.063648 0.517407 0.000000
0.127575 0.516482 0.000000
0.196304 0.515501 0.000000
0.268875 0.514479 0.000000
0.344329 0.513431 0.000000
0.421707 0.512373 0.000000
0.500049 0.511317 0.000000
0.578394 0.510279 0.000000
0.655784 0.509269 0.000000
0.731257 0.508300 0.000000
0.803853 0.507382 0.000000
0.872612 0.506526 0.000000
0.936573 0.505741 0.000000
0.994775 0.505036 0.000000
1.000000 0.504421 0.000000
0.000000 0.592668 0.000000
0.008368 0.591944 0.000000
0.066545 0.591135 0.000000
0.130483 0.590256 0.000000
0.199224 0.589324 0.000000
0.271808 0.588353 0.000000
0.347275 0.587359 0.000000
0.424666 0.586355 0.000000
0.503020 0.585356 0.000000
0.581379 0.584373 0.000000
0.658782 0.583418 0.000000
0.734268 0.582502 0.000000
0.806877 0.581636 0.000000
0.875647 0.580829 0.000000
0.939619 0.580089 0.000000
0.997831 0.579426 0.000000
1.000000 0.578847 0.000000
0.000000 0.665600 0.000000
0.011265 0.664912 0.000000
0.069451 0.664144 0.000000
0.133400 0.663310 0.000000
0.202152 0.662426 0.000000
0.274748 0.661506 0.000000
0.350228 0.660564 0.000000
0.427632 0.659615 0.000000
0.506000 0.658670 0.000000
0.584372 0.657742 0.000000
0.661788 0.656842 0.000000
0.737287 0.655979 0.000000
0.809908 0.655164 0.000000
0.878690 0.654405 0.000000
0.942672 0.653710 0.000000
1.000000 0.653087 0.000000
1.000000 0.652544 0.000000
0.000000 0.736898 0.000000
0.014131 0.736246 0.000000
0.072327 0.735517 0.000000
0.136287 0.734727 0.000000
0.205050 0.733889 0.000000
0.277658 0.733019 0.000000
0.353150 0.732129 0.000000
0.430567 0.731233 0.000000
0.508948 0.730342 0.000000
0.587333 0.729467 0.000000
0.664761 0.728620 0.000000
0.740272 0.727808 0.000000
0.812905 0.727043 0.000000
0.881699 0.726331 0.000000
0.945692 0.725680 0.000000
1.000000 0.725097 0.000000
1.000000 0.724589 0.000000
0.000000 0.805639 0.000000
0.016928 0.805020 0.000000
0.075133 0.804330 0.000000
0.139103 0.803582 0.000000
0.207877 0.802790 0.000000
0.280496 0.801967 0.000000
0.356001 0.801127 0.000000
0.433429 0.800282 0.000000
0.511823 0.799442 0.000000
0.590220 0.798619 0.000000
0.667661 0.797822 0.000000
0.743184 0.797061 0.000000
0.815828 0.796343 0.000000
0.884633 0.795676 0.000000
0.948636 0.795067 0.000000
1.000000 0.794522 0.000000
1.000000 0.794048 0.000000
0.000000 0.870891 0.000000
0.019612 0.870305 0.000000
0.077826 0.869651 0.000000
0.141805 0.868942 0.000000
0.210590 0.868193 0.000000
0.283220 0.867416 0.000000
0.358736 0.866623 0.000000
0.436176 0.865825 0.000000
0.514581 0.865035 0.000000
0.592990 0.864260 0.000000
0.670442 0.863512 0.000000
0.745977 0.862797 0.000000
0.818632 0.862124 0.000000
0.887447 0.861500 0.000000
0.951459 0.860931 0.000000
1.000000 0.860423 0.000000
1.000000 0.859981 0.000000
0.000000 0.931717 0.000000
0.022140 0.931160 0.000000
0.080362 0.930540 0.000000
0.144350 0.929869 0.000000
0.213145 0.929159 0.000000
0.285785 0.928424 0.000000
0.361311 0.927675 0.000000
0.438762 0.926922 0.000000
0.517178 0.926177 0.000000
0.595598 0.925448 0.000000
0.673061 0.924744 0.000000
0.748606 0.924073 0.000000
0.821271 0.923443 0.000000
0.890095 0.922858 0.000000
0.954117 0.922326 0.000000
1.000000 0.921852 0.000000
1.000000 0.921440 0.000000
0.000000 0.987172 0.000000
0.024466 0.986643 0.000000
0.082696 0.986053 0.000000
0.146692 0.985415 0.000000
0.215495 0.984742 0.000000
0.288144 0.984045 0.000000
0.363680 0.983336 0.000000
0.441141 0.982624 0.000000
0.519567 0.981920 0.000000
0.597997 0.981232 0.000000
0.675470 0.980569 0.000000
0.751024 0.979938 0.000000
0.823698 0.979346 0.000000
0.892531 0.978798 0.000000
0.956561 0.978299 0.000000
1.000000 0.977856 0.000000
1.000000 0.977471 0.000000
0.000000 1.000000 0.000000
0.026545 1.000000 0.000000
0.084781 1.000000 0.000000
0.148784 1.000000 0.000000
0.217595 1.000000 0.000000
0.290252 1.000000 0.000000
0.365796 1.000000 0.000000
0.443266 1.000000 0.000000
0.521700 1.000000 0.000000
0.600139 1.000000 0.000000
0.677621 1.000000 0.000000
0.753183 1.000000 0.000000
0.825866 1.000000 0.000000
0.894707 1.000000 0.000000
0.958744 1.000000 0.000000
1.000000 1.000000 0.000000
1.000000 1.000000 0.000000
0.000000 0.010470 0.131081
0.000000 0.009458 0.128658
0.044869 0.008322 0.125923
0.108721 0.007084 0.122922
0.177369 0.005766 0.119699
0.249855 0.004388 0.116303
0.325220 0.002971 0.112777
0.402507 0.001533 0.109168
0.480756 0.000094 0.105520
0.559009 0.000000 0.101879
0.636307 0.000000 0.098289
0.711692 0.000000 0.094795
0.784202 0.000000 0.091439
0.852881 0.000000 0.088266
0.916766 0.000000 0.085319
0.974899 0.000000 0.082641
1.000000 0.000000 0.080275
0.000000 0.057982 0.122943
0.000000 0.056994 0.120530
0.046563 0.055885 0.117806
0.110422 0.054678 0.114816
0.179078 0.053392 0.111606
0.251572 0.052047 0.108223
0.326946 0.050665 0.104711
0.404241 0.049263 0.101116
0.482499 0.047861 0.097483
0.560761 0.046475 0.093856
0.638068 0.045122 0.090280
0.713461 0.043818 0.086799
0.785980 0.042578 0.083457
0.854666 0.041417 0.080296
0.918558 0.040349 0.077361
0.976698 0.039386 0.074694
1.000000 0.038543 0.072338
0.000000 0.111795 0.113782
0.000000 0.110834 0.111379
0.048502 0.109756 0.108667
0.112370 0.108582 0.105690
0.181034 0.107333 0.102495
0.253537 0.106027 0.099126
0.328920 0.104684 0.095630
0.406225 0.103323 0.092051
0.484493 0.101962 0.088434
0.562765 0.100617 0.084824
0.640082 0.099305 0.081264
0.715484 0.098041 0.077799
0.788013 0.096840 0.074471
0.856707 0.095715 0.071325
0.920608 0.094680 0.068403
0.978755 0.093748 0.065747
1.000000 0.092931 0.063402
0.000000 0.171055 0.103760
0.000000 0.170123 0.101369
0.050662 0.169079 0.098670
0.114538 0.167942 0.095708
0.183212 0.166732 0.092528
0.255725 0.165468 0.089176
0.331119 0.164169 0.085697
0.408435 0.162853 0.082136
0.486714 0.161537 0.078536
0.564997 0.160238 0.074944
0.642324 0.158971 0.071402
0.717737 0.157750 0.067953
0.790275 0.156591 0.064642
0.858979 0.155506 0.061512
0.922889 0.154509 0.058604
0.981044 0.153610 0.055962
1.000000 0.152824 0.053628
0.000000 0.234901 0.093040
0.000000 0.234002 0.090662
0.053017 0.232994 0.087977
0.116903 0.231897 0.085031
0.185587 0.230730 0.081868
0.258111 0.229511 0.078533
0.333516 0.228259 0.075073
0.410844 0.226991 0.071530
0.489134 0.225724 0.067950
0.567429 0.224473 0.064377
0.644768 0.223254 0.060853
0.720192 0.222081 0.057424
0.792741 0.220967 0.054130
0.861455 0.219925 0.051016
0.925375 0.218967 0.048124
0.983539 0.218105 0.045497
1.000000 0.217350 0.043175
0.000000 0.302470 0.081783
0.000000 0.301605 0.079418
0.055541 0.300635 0.076748
0.119437 0.299580 0.073818
0.188132 0.298458 0.070673
0.260668 0.297287 0.067357
0.336085 0.296085 0.063916
0.413424 0.294868 0.060394
0.491727 0.293652 0.056834
0.570034 0.292453 0.053281
0.647386 0.291285 0.049777
0.722822 0.290161 0.046367
0.795382 0.289095 0.043092
0.864107 0.288098 0.039996
0.928037 0.287182 0.037121
0.986210 0.286358 0.034508
1.000000 0.285637 0.032200
0.000000 0.372890 0.070146
0.000059 0.372060 0.067795
0.058206 0.371130 0.065141
0.122113 0.370119 0.062228
0.190819 0.369044 0.059101
0.263367 0.367922 0.055805
0.338796 0.366772 0.052384
0.416148 0.365608 0.048882
0.494464 0.364446 0.045343
0.572784 0.363300 0.041811
0.650148 0.362185 0.038329
0.725597 0.361113 0.034938
0.798169 0.360096 0.031683
0.866906 0.359146 0.028606
0.930846 0.358274 0.025747
0.989028 0.357490 0.023150
1.000000 0.356804 0.020856
0.000000 0.445282 0.058284
0.002825 0.444488 0.055947
0.060983 0.443599 0.053309
0.124900 0.442633 0.050413
0.193618 0.441606 0.047305
0.266178 0.440535 0.044029
0.341620 0.439438 0.040629
0.418985 0.438328 0.037149
0.497314 0.437221 0.033631
0.575647 0.436130 0.030121
0.653024 0.435069 0.026659
0.728486 0.434050 0.023290
0.801070 0.433084 0.020055
0.869818 0.432182 0.016996
0.933769 0.431355 0.014155
0.991962 0.430612 0.011574
1.000000 0.429962 0.009294
0.000000 0.518758 0.046347
0.005671 0.518001 0.044025
0.063838 0.517153 0.041403
0.127766 0.516232 0.038525
0.196496 0.515254 0.035436
0.269068 0.514235 0.032180
0.344523 0.513191 0.028801
0.421902 0.512136 0.025342
0.500244 0.511084 0.021847
0.578591 0.510049 0.018358
0.655981 0.509043 0.014918
0.731455 0.508077 0.011570
0.804052 0.507163 0.008355
0.872812 0.506310 0.005315
0.936773 0.505528 0.002492
0.994976 0.504827 0.000000
1.000000 0.504213 0.000000
0.000000 0.592421 0.034484
0.008561 0.591700 0.032176
0.066739 0.590894 0.029570
0.130678 0.590018 0.026710
0.199419 0.589089 0.023641
0.272004 0.588121 0.020405
0.347472 0.587131 0.017047
0.424863 0.586131 0.013609
0.503219 0.585135 0.010136
0.581579 0.584155 0.006669
0.658982 0.583204 0.003250
0.734469 0.582292 0.000000
0.807079 0.581429 0.000000
0.875850 0.580625 0.000000
0.939823 0.579889 0.000000
0.998035 0.579228 0.000000
1.000000 0.578652 0.000000
0.000000 0.665365 0.022838
0.011461 0.664680 0.020544
0.069648 0.663915 0.017954
0.133598 0.663084 0.015112
0.202351 0.662203 0.012061
0.274947 0.661286 0.008846
0.350428 0.660349 0.005508
0.427833 0.659403 0.002092
0.506202 0.658462 0.000000
0.584575 0.657537 0.000000
0.661991 0.656640 0.000000
0.737491 0.655781 0.000000
0.810113 0.654969 0.000000
0.878896 0.654214 0.000000
0.942879 0.653522 0.000000
1.000000 0.652902 0.000000
1.000000 0.652362 0.000000
0.000000 0.736675 0.011550
0.014330 0.736026 0.009270
0.072527 0.735300 0.006696
0.136487 0.734513 0.003871
0.205251 0.733679 0.000839
0.277860 0.732812 0.000000
0.353353 0.731926 0.000000
0.430771 0.731033 0.000000
0.509153 0.730145 0.000000
0.587538 0.729274 0.000000
0.664968 0.728430 0.000000
0.740480 0.727623 0.000000
0.813113 0.726861 0.000000
0.881908 0.726152 0.000000
0.945901 0.725504 0.000000
1.000000 0.724924 0.000000
1.000000 0.724418 0.000000
0.000000 0.805428 0.000757
0.017130 0.804812 0.000000
0.075336 0.804124 0.000000
0.139306 0.803379 0.000000
0.208081 0.802590 0.000000
0.280701 0.801771 0.000000
0.356206 0.800935 0.000000
0.433636 0.800093 0.000000
0.512030 0.799257 0.000000
0.590428 0.798438 0.000000
0.667870 0.797644 0.000000
0.743394 0.796886 0.000000
0.816039 0.796172 0.000000
0.884844 0.795508 0.000000
0.948848 0.794902 0.000000
1.000000 0.794361 0.000000
1.000000 0.793889 0.000000
0.000000 0.870691 0.000000
0.019816 0.870107 0.000000
0.078031 0.869456 0.000000
0.142011 0.868751 0.000000
0.210796 0.868005 0.000000
0.283427 0.867231 0.000000
0.358944 0.866441 0.000000
0.436385 0.865648 0.000000
0.514791 0.864860 0.000000
0.593201 0.864090 0.000000
0.670654 0.863345 0.000000
0.746189 0.862634 0.000000
0.818845 0.861965 0.000000
0.887661 0.861344 0.000000
0.951674 0.860778 0.000000
1.000000 0.860272 0.000000
1.000000 0.859833 0.000000
0.000000 0.931527 0.000000
0.022347 0.930973 0.000000
0.080570 0.930355 0.000000
0.144558 0.929687 0.000000
0.213353 0.928981 0.000000
0.285994 0.928249 0.000000
0.361521 0.927503 0.000000
0.438973 0.926754 0.000000
0.517390 0.926013 0.000000
0.595811 0.925287 0.000000
0.673275 0.924587 0.000000
0.748821 0.923920 0.000000
0.821487 0.923293 0.000000
0.890312 0.922712 0.000000
0.954334 0.922183 0.000000
1.000000 0.921711 0.000000
1.000000 0.921301 0.000000
0.000000 0.986991 0.000000
0.024675 0.986465 0.000000
0.082905 0.985878 0.000000
0.146902 0.985243 0.000000
0.215706 0.984573 0.000000
0.288356 0.983879 0.000000
0.363893 0.983173 0.000000
0.441355 0.982465 0.000000
0.519781 0.981765 0.000000
0.598212 0.981081 0.000000
0.675686 0.980422 0.000000
0.751241 0.979794 0.000000
0.823916 0.979205 0.000000
0.892750 0.978660 0.000000
0.956781 0.978165 0.000000
1.000000 0.977724 0.000000
1.000000 0.977341 0.000000
0.000000 1.000000 0.000000
0.026755 1.000000 0.000000
0.084992 1.000000 0.000000
0.148996 1.000000 0.000000
0.217808 1.000000 0.000000
0.290466 1.000000 0.000000
0.366011 1.000000 0.000000
0.443481 1.000000 0.000000
0.521917 1.000000 0.000000
0.600357 1.000000 0.000000
0.677839 1.000000 0.000000
0.753403 1.000000 0.000000
0.826086 1.000000 0.000000
0.894928 1.000000 0.000000
0.958965 1.000000 0.000000
1.000000 1.000000 0.000000
1.000000 1.000000 0.000000
0.000000 0.010080 0.187683
0.000000 0.009071 0.185262
0.045061 0.007938 0.182528
0.108914 0.006704 0.179528
0.177563 0.005390 0.176307
0.250050 0.004016 0.172912
0.325416 0.002602 0.169388
0.402703 0.001168 0.165780
0.480954 0.000000 0.162135
0.559208 0.000000 0.158495
0.636507 0.000000 0.154907
0.711893 0.000000 0.151414
0.784404 0.000000 0.148059
0.853083 0.000000 0.144888
0.916970 0.000000 0.141942
0.975104 0.000000 0.139265
1.000000 0.000000 0.136901
0.000000 0.057602 0.179550
0.000000 0.056616 0.177138
0.046758 0.055511 0.174415
0.110618 0.054307 0.171426
0.179274 0.053024 0.168218
0.251769 0.051684 0.164836
0.327144 0.050306 0.161326
0.404440 0.048908 0.157732
0.482699 0.047510 0.154101
0.560962 0.046128 0.150476
0.638270 0.044779 0.146902
0.713664 0.043479 0.143422
0.786184 0.042243 0.140081
0.854871 0.041086 0.136922
0.918764 0.040021 0.133988
0.976905 0.039062 0.131322
1.000000 0.038220 0.128967
0.000000 0.111425 0.170392
0.000000 0.110467 0.167991
0.048699 0.109392 0.165280
0.112568 0.108222 0.162304
0.181233 0.106976 0.159110
0.253737 0.105674 0.155743
0.329121 0.104335 0.152249
0.406427 0.102978 0.148671
0.484696 0.101621 0.145056
0.562969 0.100280 0.141447
0.640287 0.098972 0.137889
0.715690 0.097712 0.134425
0.788219 0.096515 0.131099
0.856915 0.095394 0.127955
0.920816 0.094363 0.125034
0.978964 0.093434 0.122380
1.000000 0.092620 0.120035
0.000000 0.170696 0.160375
0.000000 0.169768 0.157985
0.050862 0.168727 0.155287
0.114739 0.167593 0.152327
0.183414 0.166387 0.149148
0.255928 0.165127 0.145798
0.331323 0.163832 0.142320
0.408639 0.162520 0.138760
0.486919 0.161208 0.135163
0.565203 0.159913 0.131572
0.642532 0.158650 0.128031
0.717945 0.157433 0.124585
0.790485 0.156278 0.121275
0.859190 0.155197 0.118146
0.923100 0.154203 0.115240
0.981256 0.153307 0.112599
1.000000 0.152523 0.110266
0.000000 0.234555 0.149660
0.000000 0.233658 0.147283
0.053220 0.232654 0.144599
0.117106 0.231560 0.141654
0.185791 0.230396 0.138493
0.258316 0.229182 0.135160
0.333723 0.227934 0.131701
0.411051 0.226670 0.128160
0.489343 0.225407 0.124581
0.567638 0.224160 0.121010
0.644978 0.222946 0.117488
0.720403 0.221776 0.114060
0.792953 0.220666 0.110768
0.861669 0.219628 0.107655
0.925589 0.218673 0.104765
0.983754 0.217814 0.102138
1.000000 0.217062 0.099818
0.000000 0.302137 0.138408
0.000000 0.301274 0.136044
0.055747 0.300308 0.133376
0.119644 0.299256 0.130447
0.188340 0.298138 0.127303
0.260876 0.296971 0.123989
0.336294 0.295772 0.120549
0.413635 0.294560 0.117028
0.491939 0.293348 0.113470
0.570247 0.292153 0.109919
0.647599 0.290989 0.106417
0.723036 0.289869 0.103008
0.795598 0.288807 0.099735
0.864324 0.287814 0.096640
0.928254 0.286901 0.093766
0.986428 0.286081 0.091155
1.000000 0.285362 0.088848
0.000000 0.372571 0.126776
0.000267 0.371743 0.124427
0.058416 0.370816 0.121773
0.122323 0.369808 0.118862
0.191030 0.368737 0.115736
0.263578 0.367620 0.112442
0.339009 0.366473 0.109022
0.416362 0.365313 0.105522
0.494679 0.364155 0.101985
0.573000 0.363014 0.098455
0.650365 0.361903 0.094974
0.725814 0.360835 0.091585
0.798388 0.359822 0.088331
0.867125 0.358876 0.085255
0.931066 0.358007 0.082398
0.989249 0.357226 0.079802
1.000000 0.356543 0.077509
0.000000 0.444976 0.114919
0.003037 0.444185 0.112584
0.061195 0.443299 0.109947
0.125113 0.442336 0.107053
0.193832 0.441313 0.103946
0.266393 0.440246 0.100672
0.341836 0.439153 0.097273
0.419202 0.438047 0.093794
0.497532 0.436944 0.090278
0.575866 0.435857 0.086769
0.653245 0.434801 0.083310
0.728707 0.433785 0.079942
0.801292 0.432823 0.076708
0.870041 0.431925 0.073651
0.933993 0.431102 0.070811
0.992186 0.430362 0.068231
1.000000 0.429715 0.065953
0.000000 0.518466 0.102988
0.005886 0.517712 0.100667
0.064054 0.516867 0.098046
0.127983 0.515949 0.095170
0.196714 0.514975 0.092083
0.269287 0.513960 0.088828
0.344743 0.512920 0.085451
0.422122 0.511869 0.081993
0.500466 0.510822 0.078499
0.578813 0.509791 0.075012
0.656204 0.508789 0.071574
0.731679 0.507827 0.068227
0.804277 0.506917 0.065014
0.873038 0.506068 0.061976
0.937000 0.505289 0.059154
0.995204 0.504590 0.056590
1.000000 0.503980 0.054326
0.000000 0.592144 0.091131
0.008780 0.591425 0.088824
0.066958 0.590622 0.086219
0.130898 0.589750 0.083361
0.199640 0.588824 0.080292
0.272225 0.587861 0.077058
0.347694 0.586874 0.073702
0.425087 0.585878 0.070266
0.503444 0.584886 0.066794
0.581805 0.583911 0.063328
0.659209 0.582964 0.059912
0.734697 0.582056 0.056586
0.807308 0.581197 0.053393
0.876080 0.580397 0.050374
0.940053 0.579664 0.047570
0.998266 0.579006 0.045022
1.000000 0.578432 0.042772
0.000000 0.665102 0.079490
0.011682 0.664419 0.077198
0.069870 0.663657 0.074609
0.133821 0.662829 0.071768
0.202575 0.661952 0.068719
0.275172 0.661039 0.065504
0.350654 0.660106 0.062169
0.428060 0.659164 0.058754
0.506430 0.658227 0.055304
0.584804 0.657307 0.051860
0.662221 0.656414 0.048464
0.737722 0.655559 0.045159
0.810345 0.654751 0.041986
0.879129 0.653999 0.038986
0.943113 0.653310 0.036200
1.000000 0.652694 0.033668
1.000000 0.652156 0.031432
0.000000 0.736425 0.068208
0.014555 0.735778 0.065929
0.072753 0.735055 0.063356
0.136714 0.734272 0.060532
0.205479 0.733441 0.057501
0.278089 0.732578 0.054306
0.353583 0.731696 0.050991
0.431001 0.730807 0.047597
0.509384 0.729924 0.044168
0.587771 0.729057 0.040745
0.665201 0.728217 0.037370
0.740714 0.727414 0.034085
0.813349 0.726656 0.030931
0.882144 0.725950 0.027950
0.946138 0.725306 0.025181
1.000000 0.724729 0.022665
1.000000 0.724226 0.020442
0.000000 0.805191 0.057420
0.017358 0.804578 0.055154
0.075564 0.803893 0.052596
0.139536 0.803151 0.049789
0.208312 0.802366 0.046776
0.280933 0.801551 0.043600
0.356439 0.800718 0.040304
0.433869 0.799880 0.036930
0.512265 0.799049 0.033521
0.590664 0.798233 0.030118
0.668106 0.797444 0.026763
0.743631 0.796691 0.023498
0.816277 0.795980 0.020363
0.885083 0.795320 0.017399
0.949088 0.794717 0.014646
1.000000 0.794179 0.012145
1.000000 0.793710 0.009936
0.000000 0.870466 0.047261
0.020048 0.869885 0.045008
0.078263 0.869237 0.042464
0.142244 0.868535 0.039672
0.211030 0.867793 0.036676
0.283662 0.867023 0.033518
0.359179 0.866237 0.030240
0.436622 0.865447 0.026885
0.515029 0.864664 0.023495
0.593439 0.863898 0.020111
0.670894 0.863157 0.016776
0.746430 0.862450 0.013529
0.819087 0.861785 0.010412
0.887903 0.861168 0.007464
0.951917 0.860605 0.004727
1.000000 0.860103 0.002241
1.000000 0.859666 0.000044
0.000000 0.931314 0.037862
0.022581 0.930762 0.035621
0.080804 0.930148 0.033090
0.144794 0.929483 0.030313
0.213590 0.928780 0.027332
0.286232 0.928052 0.024190
0.361759 0.927311 0.020930
0.439213 0.926566 0.017592
0.517630 0.925828 0.014220
0.596052 0.925107 0.010854
0.673517 0.924411 0.007536
0.749064 0.923748 0.004306
0.821731 0.923125 0.001206
0.890557 0.922547 0.000000
0.954580 0.922022 0.000000
1.000000 0.921553 0.000000
1.000000 0.921146 0.000000
0.000000 0.986788 0.029352
0.024912 0.986264 0.027121
0.083143 0.985680 0.024603
0.147140 0.985049 0.021839
0.215945 0.984383 0.018872
0.288596 0.983693 0.015745
0.364133 0.982991 0.012500
0.441596 0.982287 0.009179
0.520024 0.981591 0.005823
0.598456 0.980911 0.002474
0.675931 0.980256 0.000000
0.751487 0.979632 0.000000
0.824163 0.979047 0.000000
0.892998 0.978506 0.000000
0.957029 0.978014 0.000000
1.000000 0.977576 0.000000
1.000000 0.977196 0.000000
0.000000 1.000000 0.021859
0.026994 1.000000 0.019637
0.085231 1.000000 0.017129
0.149236 1.000000 0.014377
0.218049 1.000000 0.011423
0.290708 1.000000 0.008310
0.366254 1.000000 0.005079
0.443725 1.000000 0.001771
0.522162 1.000000 0.000000
0.600603 1.000000 0.000000
0.678086 1.000000 0.000000
0.753650 1.000000 0.000000
0.826335 1.000000 0.000000
0.895177 1.000000 0.000000
0.959216 1.000000 0.000000
1.000000 1.000000 0.000000
1.000000 1.000000 0.000000
0.000000 0.009654 0.249890
0.000000 0.008647 0.247470
0.045273 0.007518 0.244738
0.109127 0.006288 0.241739
0.177777 0.004977 0.238519
0.250264 0.003607 0.235126
0.325632 0.002198 0.231603
0.402920 0.000769 0.227998
0.481172 0.000000 0.224354
0.559427 0.000000 0.220716
0.636727 0.000000 0.217130
0.712114 0.000000 0.213638
0.784627 0.000000 0.210286
0.853306 0.000000 0.207115
