app/assets/luts/teal_orange.cube
# Teal & Orange — generated by tools/make_luts.dart.
# Edit the formula there, not this file.
TITLE "vdodtor Teal and Orange"
LUT_3D_SIZE 5
DOMAIN_MIN 0.0 0.0 0.0
DOMAIN_MAX 1.0 1.0 1.0
0.000000 0.010815 0.081015
0.177197 0.006100 0.069629
0.480581 0.000413 0.055445
0.784024 0.000000 0.041358
1.000000 0.000000 0.030190
0.000000 0.235208 0.042960
0.185406 0.231025 0.031783
0.488950 0.226005 0.017860
0.792554 0.221234 0.004034
1.000000 0.217606 0.000000
0.000000 0.519017 0.000000
0.196304 0.515501 0.000000
0.500049 0.511317 0.000000
0.803853 0.507382 0.000000
1.000000 0.504421 0.000000
0.000000 0.805639 0.000000
0.207877 0.802790 0.000000
0.511823 0.799442 0.000000
0.815828 0.796343 0.000000
1.000000 0.794048 0.000000
0.000000 1.000000 0.000000
0.217595 1.000000 0.000000
0.521700 1.000000 0.000000
0.825866 1.000000 0.000000
1.000000 1.000000 0.000000
0.000000 0.009196 0.316767
0.178007 0.004535 0.305402
0.481406 0.000000 0.291244
0.784866 0.000000 0.277183
1.000000 0.000000 0.266036
0.000000 0.233770 0.278782
0.186259 0.229641 0.267626
0.489819 0.224688 0.253729
0.793439 0.219984 0.239930
1.000000 0.216410 0.228992
0.000000 0.517805 0.232159
0.197211 0.514343 0.221265
0.500972 0.510227 0.207696
0.804792 0.506359 0.194225
1.000000 0.503451 0.183548
0.000000 0.804653 0.186639
0.208839 0.801858 0.176006
0.512800 0.798578 0.162766
0.816822 0.795546 0.149623
1.000000 0.793305 0.139207
0.000000 1.000000 0.151117
0.218599 1.000000 0.140693
0.522722 1.000000 0.127714
0.826903 1.000000 0.114832
1.000000 1.000000 0.104626
0.000000 0.007193 0.612296
0.179027 0.002599 0.600958
0.482447 0.000000 0.586833
0.785927 0.000000 0.572805
1.000000 0.000000 0.561684
0.000000 0.231993 0.574400
0.187334 0.227931 0.563271
0.490914 0.223063 0.549407
0.794554 0.218443 0.535641
1.000000 0.214936 0.524729
0.000000 0.516312 0.527889
0.198354 0.512917 0.517021
0.502135 0.508885 0.503485
0.805976 0.505102 0.490047
1.000000 0.502261 0.479397
0.000000 0.803444 0.482480
0.210050 0.800716 0.471874
0.514032 0.797520 0.458666
0.818074 0.794573 0.445556
1.000000 0.792400 0.435168
0.000000 1.000000 0.447047
0.219865 1.000000 0.436649
0.524008 1.000000 0.423703
0.828210 1.000000 0.410855
1.000000 1.000000 0.400675
0.000000 0.005218 0.907837
0.180054 0.000691 0.896525
0.483495 0.000000 0.882433
0.786995 0.000000 0.868438
1.000000 0.000000 0.857344
0.000000 0.230244 0.870030
0.188416 0.226250 0.858927
0.492016 0.221466 0.845096
0.795676 0.216931 0.831363
1.000000 0.213491 0.820478
0.000000 0.514848 0.823630
0.199504 0.511520 0.812788
0.503306 0.507572 0.799286
0.807167 0.503873 0.785881
1.000000 0.501100 0.775257
0.000000 0.802264 0.778333
0.211268 0.799603 0.767753
0.515271 0.796491 0.754578
0.819333 0.793628 0.741501
1.000000 0.791522 0.731139
0.000000 1.000000 0.742988
0.221138 1.000000 0.732617
0.525301 1.000000 0.719704
0.829523 1.000000 0.706888
1.000000 1.000000 0.696735
0.000000 0.003663 1.000000
0.180879 0.000000 1.000000
0.484335 0.000000 1.000000
0.787852 0.000000 1.000000
1.000000 0.000000 1.000000
0.000000 0.228870 1.000000
0.189284 0.224929 1.000000
0.492900 0.220213 1.000000
0.796577 0.215745 1.000000
1.000000 0.212359 1.000000
0.000000 0.513700 1.000000
0.200426 0.510426 1.000000
0.504244 0.506546 1.000000
0.808121 0.502914 1.000000
1.000000 0.500195 1.000000
0.000000 0.801342 1.000000
0.212245 0.798735 1.000000
0.516264 0.795691 0.990651
0.820342 0.792895 0.977600
1.000000 0.790843 0.967259
0.000000 1.000000 0.979084
0.222158 1.000000 0.968734
0.526337 1.000000 0.955847
0.830576 1.000000 0.943058
1.000000 1.000000 0.932926
