app/assets/luts/teal_orange.cube
# Teal & Orange — generated by tools/make_luts.dart.
# Edit the formula there, not this file.
TITLE "vdodtor Teal and Orange"
LUT_3D_SIZE 9
DOMAIN_MIN 0.0 0.0 0.0
DOMAIN_MAX 1.0 1.0 1.0
0.000000 0.010815 0.081015
0.044699 0.008662 0.075856
0.177197 0.006100 0.069629
0.325047 0.003298 0.062704
0.480581 0.000413 0.055445
0.636131 0.000000 0.048211
0.784024 0.000000 0.041358
0.916586 0.000000 0.035235
1.000000 0.000000 0.030190
0.000000 0.112123 0.063709
0.048328 0.110079 0.058593
0.180858 0.107649 0.052418
0.328743 0.104994 0.045551
0.484314 0.102264 0.038352
0.639901 0.099600 0.031179
0.787830 0.097128 0.024383
0.920424 0.094962 0.018312
1.000000 0.093208 0.013309
0.000000 0.235208 0.042960
0.052838 0.233296 0.037895
0.185406 0.231025 0.031783
0.333334 0.228548 0.024985
0.488950 0.226005 0.017860
0.644582 0.223528 0.010760
0.792554 0.221234 0.004034
0.925186 0.219228 0.000000
1.000000 0.217606 0.000000
0.000000 0.373174 0.020056
0.058022 0.371409 0.015049
0.190633 0.369316 0.009007
0.338608 0.367037 0.002287
0.494275 0.364703 0.000000
0.649957 0.362435 0.000000
0.797976 0.360340 0.000000
0.930651 0.358511 0.000000
1.000000 0.357036 0.000000
0.000000 0.519017 0.000000
0.063648 0.517407 0.000000
0.196304 0.515501 0.000000
0.344329 0.513431 0.000000
0.500049 0.511317 0.000000
0.655784 0.509269 0.000000
0.803853 0.507382 0.000000
0.936573 0.505741 0.000000
1.000000 0.504421 0.000000
0.000000 0.665600 0.000000
0.069451 0.664144 0.000000
0.202152 0.662426 0.000000
0.350228 0.660564 0.000000
0.506000 0.658670 0.000000
0.661788 0.656842 0.000000
0.809908 0.655164 0.000000
0.942672 0.653710 0.000000
1.000000 0.652544 0.000000
0.000000 0.805639 0.000000
0.075133 0.804330 0.000000
0.207877 0.802790 0.000000
0.356001 0.801127 0.000000
0.511823 0.799442 0.000000
0.667661 0.797822 0.000000
0.815828 0.796343 0.000000
0.948636 0.795067 0.000000
1.000000 0.794048 0.000000
0.000000 0.931717 0.000000
0.080362 0.930540 0.000000
0.213145 0.929159 0.000000
0.361311 0.927675 0.000000
0.517178 0.926177 0.000000
0.673061 0.924744 0.000000
0.821271 0.923443 0.000000
0.954117 0.922326 0.000000
1.000000 0.921440 0.000000
0.000000 1.000000 0.000000
0.084781 1.000000 0.000000
0.217595 1.000000 0.000000
0.365796 1.000000 0.000000
0.521700 1.000000 0.000000
0.677621 1.000000 0.000000
0.825866 1.000000 0.000000
0.958744 1.000000 0.000000
1.000000 1.000000 0.000000
0.000000 0.010080 0.187683
0.045061 0.007938 0.182528
0.177563 0.005390 0.176307
0.325416 0.002602 0.169388
0.480954 0.000000 0.162135
0.636507 0.000000 0.154907
0.784404 0.000000 0.148059
0.916970 0.000000 0.141942
1.000000 0.000000 0.136901
0.000000 0.111425 0.170392
0.048699 0.109392 0.165280
0.181233 0.106976 0.159110
0.329121 0.104335 0.152249
0.484696 0.101621 0.145056
0.640287 0.098972 0.137889
0.788219 0.096515 0.131099
0.920816 0.094363 0.125034
1.000000 0.092620 0.120035
0.000000 0.234555 0.149660
0.053220 0.232654 0.144599
0.185791 0.230396 0.138493
0.333723 0.227934 0.131701
0.489343 0.225407 0.124581
0.644978 0.222946 0.117488
0.792953 0.220666 0.110768
0.925589 0.218673 0.104765
1.000000 0.217062 0.099818
0.000000 0.372571 0.126776
0.058416 0.370816 0.121773
0.191030 0.368737 0.115736
0.339009 0.366473 0.109022
0.494679 0.364155 0.101985
0.650365 0.361903 0.094974
0.798388 0.359822 0.088331
0.931066 0.358007 0.082398
1.000000 0.356543 0.077509
0.000000 0.518466 0.102988
0.064054 0.516867 0.098046
0.196714 0.514975 0.092083
0.344743 0.512920 0.085451
0.500466 0.510822 0.078499
0.656204 0.508789 0.071574
0.804277 0.506917 0.065014
0.937000 0.505289 0.059154
1.000000 0.503980 0.054326
0.000000 0.665102 0.079490
0.069870 0.663657 0.074609
0.202575 0.661952 0.068719
0.350654 0.660106 0.062169
0.506430 0.658227 0.055304
0.662221 0.656414 0.048464
0.810345 0.654751 0.041986
0.943113 0.653310 0.036200
1.000000 0.652156 0.031432
0.000000 0.805191 0.057420
0.075564 0.803893 0.052596
0.208312 0.802366 0.046776
0.356439 0.800718 0.040304
0.512265 0.799049 0.033521
0.668106 0.797444 0.026763
0.816277 0.795980 0.020363
0.949088 0.794717 0.014646
1.000000 0.793710 0.009936
0.000000 0.931314 0.037862
0.080804 0.930148 0.033090
0.213590 0.928780 0.027332
0.361759 0.927311 0.020930
0.517630 0.925828 0.014220
0.673517 0.924411 0.007536
0.821731 0.923125 0.001206
0.954580 0.922022 0.000000
1.000000 0.921146 0.000000
0.000000 1.000000 0.021859
0.085231 1.000000 0.017129
0.218049 1.000000 0.011423
0.366254 1.000000 0.005079
0.522162 1.000000 0.000000
0.678086 1.000000 0.000000
0.826335 1.000000 0.000000
0.959216 1.000000 0.000000
1.000000 1.000000 0.000000
0.000000 0.009196 0.316767
0.045501 0.007068 0.311617
0.178007 0.004535 0.305402
0.325864 0.001765 0.298490
0.481406 0.000000 0.291244
0.636964 0.000000 0.284023
0.784866 0.000000 0.277183
0.917435 0.000000 0.271072
1.000000 0.000000 0.266036
0.000000 0.110586 0.299493
0.049150 0.108566 0.294386
0.181687 0.106166 0.288223
0.329580 0.103543 0.281368
0.485159 0.100848 0.274183
0.640755 0.098218 0.267023
0.788691 0.095779 0.260240
0.921292 0.093642 0.254181
1.000000 0.091913 0.249188
0.000000 0.233770 0.278782
0.053683 0.231882 0.273727
0.186259 0.229641 0.267626
0.334194 0.227196 0.260841
0.489819 0.224688 0.253729
0.645459 0.222245 0.246643
0.793439 0.219984 0.239930
0.926078 0.218007 0.233933
1.000000 0.216410 0.228992
0.000000 0.371846 0.255922
0.058894 0.370105 0.250924
0.191512 0.368042 0.244893
0.339495 0.365796 0.238187
0.495170 0.363497 0.231157
0.650860 0.361263 0.224153
0.798888 0.359200 0.217517
0.931569 0.357401 0.211590
1.000000 0.355951 0.206707
0.000000 0.517805 0.232159
0.064547 0.516219 0.227222
0.197211 0.514343 0.221265
0.345244 0.512306 0.214640
0.500972 0.510227 0.207696
0.656715 0.508213 0.200778
0.804792 0.506359 0.194225
0.937519 0.504747 0.188371
1.000000 0.503451 0.183548
0.000000 0.664504 0.208686
0.070379 0.663072 0.203810
0.203087 0.661384 0.197926
0.351171 0.659555 0.191383
0.506951 0.657696 0.184525
0.662747 0.655902 0.177693
0.810875 0.654256 0.171222
0.943647 0.652832 0.165442
1.000000 0.651691 0.160679
0.000000 0.804653 0.186639
0.076088 0.803369 0.181821
0.208839 0.801858 0.176006
0.356970 0.800228 0.169541
0.512800 0.798578 0.162766
0.668647 0.796992 0.156016
0.816822 0.795546 0.149623
0.949637 0.794299 0.143912
1.000000 0.793305 0.139207
0.000000 0.930831 0.167102
0.081340 0.929678 0.162336
0.214130 0.928327 0.156584
0.362304 0.926875 0.150189
0.518179 0.925411 0.143487
0.674071 0.924013 0.136810
0.822289 0.922745 0.130487
0.955142 0.921658 0.124839
1.000000 0.920795 0.120186
0.000000 1.000000 0.151117
0.085778 1.000000 0.146393
0.218599 1.000000 0.140693
0.366809 1.000000 0.134355
0.522722 1.000000 0.127714
0.678650 1.000000 0.121098
0.826903 1.000000 0.114832
0.959788 1.000000 0.109236
1.000000 1.000000 0.104626
0.000000 0.008216 0.460794
0.045993 0.006102 0.455650
0.178503 0.003588 0.449442
0.326365 0.000838 0.442538
0.481913 0.000000 0.435300
0.637476 0.000000 0.428088
0.785382 0.000000 0.421256
0.917955 0.000000 0.415152
1.000000 0.000000 0.410122
0.000000 0.109656 0.443540
0.049654 0.107651 0.438439
0.182196 0.105268 0.432283
0.330093 0.102666 0.425436
0.485678 0.099992 0.418259
0.641278 0.097383 0.411108
0.789220 0.094964 0.404333
0.921825 0.092845 0.398281
1.000000 0.091131 0.393293
0.000000 0.232900 0.422853
0.054202 0.231027 0.417803
0.186782 0.228804 0.411710
0.334722 0.226379 0.404933
0.490352 0.223892 0.397829
0.645997 0.221471 0.390752
0.793981 0.219229 0.384046
0.926625 0.217271 0.378057
1.000000 0.215688 0.373121
0.000000 0.371044 0.400019
0.059429 0.369318 0.395028
0.192051 0.367272 0.389004
0.340039 0.365046 0.382305
0.495719 0.362768 0.375283
0.651415 0.360556 0.368287
0.799446 0.358513 0.361660
0.932133 0.356732 0.355740
1.000000 0.355296 0.350862
0.000000 0.517074 0.376284
0.065099 0.515503 0.371353
0.197767 0.513645 0.365403
0.345805 0.511627 0.358786
0.501538 0.509569 0.351850
0.657286 0.507576 0.344941
0.805368 0.505742 0.338395
0.938100 0.504149 0.332549
1.000000 0.502868 0.327731
0.000000 0.663844 0.352839
0.070948 0.662427 0.347968
0.203661 0.660756 0.342092
0.351749 0.658948 0.335556
0.507534 0.657109 0.328707
0.663336 0.655336 0.321884
0.811468 0.653711 0.315420
0.944244 0.652305 0.309647
1.000000 0.651178 0.304891
0.000000 0.804060 0.330819
0.076673 0.802791 0.326006
0.209428 0.801298 0.320199
0.357564 0.799688 0.313742
0.513400 0.798059 0.306974
0.669251 0.796495 0.300233
0.817431 0.795068 0.293847
0.950250 0.793840 0.288144
1.000000 0.792860 0.283445
0.000000 0.930298 0.311306
0.081940 0.929160 0.306545
0.214734 0.927827 0.300800
0.362913 0.926395 0.294413
0.518793 0.924953 0.287719
0.674690 0.923576 0.281051
0.822912 0.922327 0.274735
0.955770 0.921258 0.269094
1.000000 0.920411 0.264447
0.000000 1.000000 0.295340
0.086390 1.000000 0.290621
0.219216 1.000000 0.284928
0.367430 1.000000 0.278599
0.523347 1.000000 0.271966
0.679281 1.000000 0.265358
0.827539 1.000000 0.259100
0.960428 1.000000 0.253511
1.000000 1.000000 0.248906
0.000000 0.007193 0.612296
0.046513 0.005094 0.607158
0.179027 0.002599 0.600958
0.326894 0.000000 0.594062
0.482447 0.000000 0.586833
0.638016 0.000000 0.579629
0.785927 0.000000 0.572805
0.918505 0.000000 0.566708
1.000000 0.000000 0.561684
0.000000 0.108685 0.595063
0.050186 0.106696 0.589967
0.182732 0.104332 0.583819
0.330635 0.101750 0.576980
0.486225 0.099099 0.569812
0.641830 0.096512 0.562669
0.789777 0.094114 0.555903
0.922387 0.092014 0.549858
1.000000 0.090315 0.544877
0.000000 0.231993 0.574400
0.054749 0.230135 0.569357
0.187334 0.227931 0.563271
0.335279 0.225527 0.556502
0.490914 0.223063 0.549407
0.646565 0.220663 0.542338
0.794554 0.218443 0.535641
0.927202 0.216503 0.529659
1.000000 0.214936 0.524729
0.000000 0.370207 0.551595
0.059993 0.368497 0.546609
0.192620 0.366470 0.540592
0.340613 0.364265 0.533902
0.496298 0.362010 0.526889
0.651999 0.359819 0.519902
0.800036 0.357797 0.513283
0.932727 0.356036 0.507370
1.000000 0.354615 0.502498
0.000000 0.516312 0.527889
0.065682 0.514756 0.522964
0.198354 0.512917 0.517021
0.346397 0.510921 0.510412
0.502135 0.508885 0.503485
0.657889 0.506915 0.496584
0.805976 0.505102 0.490047
0.938712 0.503527 0.484208
1.000000 0.502261 0.479397
0.000000 0.663156 0.504473
0.071548 0.661755 0.499608
0.204265 0.660103 0.493739
0.352359 0.658316 0.487212
0.508150 0.656500 0.480371
0.663956 0.654749 0.473557
0.812094 0.653145 0.467101
0.944874 0.651757 0.461336
1.000000 0.650647 0.456585
0.000000 0.803444 0.482480
0.077290 0.802190 0.477674
0.210050 0.800716 0.471874
0.358191 0.799128 0.465425
0.514032 0.797520 0.458666
0.669889 0.795978 0.451933
0.818074 0.794573 0.445556
0.950897 0.793363 0.439860
1.000000 0.792400 0.435168
0.000000 0.929745 0.462992
0.082573 0.928623 0.458237
0.215371 0.927309 0.452500
0.363555 0.925898 0.446121
0.519441 0.924478 0.439436
0.675342 0.923123 0.432776
0.823570 0.921896 0.426469
0.956432 0.920846 0.420836
1.000000 0.920014 0.416194
0.000000 1.000000 0.447047
0.087035 1.000000 0.442334
0.219865 1.000000 0.436649
0.368085 1.000000 0.430328
0.524008 1.000000 0.423703
0.679946 1.000000 0.417104
0.828210 1.000000 0.410855
0.961103 1.000000 0.405273
1.000000 1.000000 0.400675
0.000000 0.006177 0.763801
0.047034 0.004094 0.758669
0.179553 0.001617 0.752476
0.327425 0.000000 0.745588
0.482983 0.000000 0.738368
0.638557 0.000000 0.731173
0.786473 0.000000 0.724357
0.919056 0.000000 0.718268
1.000000 0.000000 0.713250
0.000000 0.107721 0.746588
0.050720 0.105748 0.741499
0.183271 0.103403 0.735358
0.331178 0.100842 0.728527
0.486774 0.098213 0.721368
0.642385 0.095649 0.714234
0.790336 0.093271 0.707476
0.922950 0.091191 0.701438
1.000000 0.089507 0.696463
0.000000 0.231093 0.725950
0.055299 0.229251 0.720913
0.187888 0.227065 0.714834
0.335838 0.224683 0.708074
0.491478 0.222241 0.700988
0.647134 0.219863 0.693927
0.795129 0.217664 0.687239
0.927781 0.215743 0.681264
1.000000 0.214192 0.676341
0.000000 0.369378 0.703173
0.060559 0.367683 0.698193
0.193191 0.365676 0.692184
0.341189 0.363492 0.685502
0.496880 0.361258 0.678497
0.652586 0.359090 0.671519
0.800628 0.357090 0.664908
0.933323 0.355347 0.659003
1.000000 0.353942 0.654137
0.000000 0.515558 0.679496
0.066266 0.514018 0.674577
0.198943 0.512197 0.668642
0.346991 0.510222 0.662041
0.502734 0.508209 0.655123
0.658493 0.506260 0.648231
0.806586 0.504468 0.641702
0.939326 0.502913 0.635870
1.000000 0.501663 0.631065
0.000000 0.662477 0.656109
0.072150 0.661091 0.651251
0.204872 0.659458 0.645389
0.352971 0.657692 0.638870
0.508767 0.655898 0.632039
0.664578 0.654169 0.625232
0.812721 0.652586 0.618786
0.945506 0.651218 0.613027
1.000000 0.650122 0.608283
0.000000 0.802835 0.634145
0.077909 0.801597 0.629344
0.210674 0.800142 0.623552
0.358820 0.798574 0.617111
0.514666 0.796989 0.610361
0.670528 0.795469 0.603637
0.818718 0.794085 0.597268
0.951546 0.792894 0.591580
1.000000 0.791946 0.586893
0.000000 0.929200 0.614682
0.083207 0.928094 0.609933
0.216010 0.926798 0.604203
0.364199 0.925408 0.597832
0.520090 0.924010 0.591156
0.675997 0.922678 0.584505
0.824230 0.921471 0.578206
0.957097 0.920440 0.572580
1.000000 0.919624 0.567945
0.000000 1.000000 0.598757
0.087682 1.000000 0.594051
0.220517 1.000000 0.588373
0.368741 1.000000 0.582059
0.524670 1.000000 0.575444
0.680614 1.000000 0.568853
0.828882 1.000000 0.562612
0.961780 1.000000 0.557038
1.000000 1.000000 0.552446
0.000000 0.005218 0.907837
0.047531 0.003150 0.902711
0.180054 0.000691 0.896525
0.327932 0.000000 0.889645
0.483495 0.000000 0.882433
0.639074 0.000000 0.875247
0.786995 0.000000 0.868438
0.919582 0.000000 0.862356
1.000000 0.000000 0.857344
0.000000 0.106812 0.890643
0.051229 0.104854 0.885560
0.183784 0.102527 0.879426
0.331697 0.099986 0.872604
0.487297 0.097378 0.865452
0.642913 0.094835 0.858327
0.790870 0.092477 0.851576
0.923488 0.090415 0.845546
1.000000 0.088746 0.840577
0.000000 0.230244 0.870030
0.055822 0.228417 0.864998
0.188416 0.226250 0.858927
0.336371 0.223887 0.852174
0.492016 0.221466 0.845096
0.647677 0.219110 0.838044
0.795676 0.216931 0.831363
0.928333 0.215028 0.825395
1.000000 0.213491 0.820478
0.000000 0.368597 0.847278
0.061099 0.366917 0.842305
0.193735 0.364928 0.836303
0.341738 0.362764 0.829628
0.497434 0.360551 0.822632
0.653145 0.358404 0.815662
0.801192 0.356424 0.809059
0.933892 0.354699 0.803161
1.000000 0.353309 0.798301
0.000000 0.514848 0.823630
0.066823 0.513322 0.818716
0.199504 0.511520 0.812788
0.347557 0.509565 0.806195
0.503306 0.507572 0.799286
0.659070 0.505645 0.792402
0.807167 0.503873 0.785881
0.939911 0.502335 0.780056
1.000000 0.501100 0.775257
0.000000 0.661837 0.800271
0.072724 0.660467 0.795418
0.205450 0.658852 0.789563
0.353554 0.657106 0.783052
0.509355 0.655333 0.776229
0.665172 0.653625 0.769431
0.813319 0.652062 0.762992
0.946109 0.650711 0.757241
1.000000 0.649631 0.752502
0.000000 0.802264 0.778333
0.078500 0.801040 0.773538
0.211268 0.799603 0.767753
0.359419 0.798055 0.761320
0.515271 0.796491 0.754578
0.671138 0.794993 0.747862
0.819333 0.793628 0.741501
0.952165 0.792456 0.735820
1.000000 0.791522 0.731139
0.000000 0.928689 0.758893
0.083812 0.927597 0.754150
0.216619 0.926320 0.748427
0.364813 0.924950 0.742064
0.520709 0.923573 0.735396
0.676621 0.922261 0.728754
0.824859 0.921075 0.722462
0.957730 0.920062 0.716844
1.000000 0.919261 0.712214
0.000000 1.000000 0.742988
0.088299 1.000000 0.738288
0.221138 1.000000 0.732617
0.369367 1.000000 0.726311
0.525301 1.000000 0.719704
0.681250 1.000000 0.713122
0.829523 1.000000 0.706888
0.962425 1.000000 0.701321
1.000000 1.000000 0.696735
0.000000 0.004364 1.000000
0.047978 0.002310 1.000000
0.180505 0.000000 1.000000
0.328387 0.000000 1.000000
0.483955 0.000000 1.000000
0.639538 0.000000 1.000000
0.787463 0.000000 0.997574
0.920054 0.000000 0.991498
1.000000 0.000000 0.986491
0.000000 0.106004 1.000000
0.051687 0.104058 1.000000
0.184246 0.101747 1.000000
0.332163 0.099225 1.000000
0.487768 0.096635 0.994591
0.643388 0.094111 0.987473
0.791349 0.091772 0.980729
0.923971 0.089725 0.974705
1.000000 0.088070 0.969741
0.000000 0.229489 0.999164
0.056293 0.227676 0.994137
0.188890 0.225524 0.988072
0.336850 0.223180 0.981327
0.492500 0.220777 0.974256
0.648165 0.218440 0.967211
0.796169 0.216279 0.960538
0.928830 0.214392 0.954576
1.000000 0.212869 0.949664
0.000000 0.367903 0.976436
0.061585 0.366236 0.971467
0.194224 0.364263 0.965472
0.342232 0.362117 0.958804
0.497932 0.359923 0.951816
0.653648 0.357795 0.944853
0.801699 0.355832 0.938257
0.934402 0.354123 0.932365
1.000000 0.352747 0.927511
0.000000 0.514217 0.952812
0.067324 0.512705 0.947904
0.200009 0.510919 0.941982
0.348066 0.508982 0.935396
0.503819 0.507008 0.928494
0.659587 0.505099 0.921617
0.807689 0.503346 0.915104
0.940437 0.501824 0.909285
1.000000 0.500602 0.904491
0.000000 0.661270 0.929478
0.073240 0.659913 0.924631
0.205970 0.658314 0.918782
0.354078 0.656586 0.912279
0.509884 0.654832 0.905462
0.665705 0.653143 0.898672
0.813857 0.651598 0.892240
0.946650 0.650264 0.886495
1.000000 0.649197 0.881762
0.000000 0.801757 0.907564
0.079030 0.800547 0.902774
0.211803 0.799126 0.896995
0.359958 0.797596 0.890569
0.515814 0.796051 0.883835
0.671685 0.794571 0.877127
0.819885 0.793225 0.870773
0.952721 0.792068 0.865098
1.000000 0.791148 0.860422
0.000000 0.928236 0.888145
0.084355 0.927158 0.883408
0.217166 0.925896 0.877691
0.365364 0.924545 0.871335
0.521265 0.923187 0.864675
0.677182 0.921894 0.858039
0.825424 0.920726 0.851755
0.958299 0.919729 0.846143
1.000000 0.918941 0.841519
0.000000 1.000000 0.872258
0.088853 1.000000 0.867563
0.221696 1.000000 0.861898
0.369930 1.000000 0.855600
0.525868 1.000000 0.849000
0.681821 1.000000 0.842425
0.830099 1.000000 0.836199
0.963005 1.000000 0.830638
1.000000 1.000000 0.826057
0.000000 0.003663 1.000000
0.048349 0.001619 1.000000
0.180879 0.000000 1.000000
0.328764 0.000000 1.000000
0.484335 0.000000 1.000000
0.639923 0.000000 1.000000
0.787852 0.000000 1.000000
0.920446 0.000000 1.000000
1.000000 0.000000 1.000000
0.000000 0.105339 1.000000
0.052066 0.103405 1.000000
0.184628 0.101107 1.000000
0.332549 0.098600 1.000000
0.488157 0.096026 1.000000
0.643782 0.093517 1.000000
0.791746 0.091193 1.000000
0.924372 0.089159 1.000000
1.000000 0.087515 1.000000
0.000000 0.228870 1.000000
0.056683 0.227067 1.000000
0.189284 0.224929 1.000000
0.337247 0.222599 1.000000
0.492900 0.220213 1.000000
0.648570 0.217891 1.000000
0.796577 0.215745 1.000000
0.929241 0.213871 1.000000
1.000000 0.212359 1.000000
0.000000 0.367333 1.000000
0.061987 0.365678 1.000000
0.194630 0.363717 1.000000
0.342641 0.361586 1.000000
0.498344 0.359408 1.000000
0.654064 0.357296 1.000000
0.802119 0.355348 1.000000
0.934825 0.353652 1.000000
1.000000 0.352287 1.000000
0.000000 0.513700 1.000000
0.067738 0.512199 1.000000
0.200426 0.510426 1.000000
0.348487 0.508504 1.000000
0.504244 0.506546 1.000000
0.660016 0.504653 1.000000
0.808121 0.502914 1.000000
0.940873 0.501405 1.000000
1.000000 0.500195 1.000000
0.000000 0.660806 1.000000
0.073668 0.659459 1.000000
0.206401 0.657874 1.000000
0.354512 0.656160 1.000000
0.510321 0.654422 1.000000
0.666147 0.652749 1.000000
0.814302 0.651219 0.999048
0.947098 0.649898 0.993308
1.000000 0.648842 0.988579
0.000000 0.801342 1.000000
0.079469 0.800143 1.000000
0.212245 0.798735 1.000000
0.360404 0.797221 0.997379
0.516264 0.795691 0.990651
0.672139 0.794227 0.983948
0.820342 0.792895 0.977600
0.953181 0.791752 0.971930
1.000000 0.790843 0.967259
0.000000 0.927866 0.994957
0.084805 0.926799 0.990223
0.217620 0.925551 0.984512
0.365821 0.924214 0.978162
0.521726 0.922872 0.971508
0.677646 0.921595 0.964879
0.825892 0.920441 0.958600
0.958770 0.919457 0.952993
1.000000 0.918680 0.948373
0.000000 1.000000 0.979084
0.089312 1.000000 0.974393
0.222158 1.000000 0.968734
0.370395 1.000000 0.962441
0.526337 1.000000 0.955847
0.682295 1.000000 0.949279
0.830576 1.000000 0.943058
0.963485 1.000000 0.937503
1.000000 1.000000 0.932926
