app/assets/luts/warm_film.cube
# Warm Film — generated by tools/make_luts.dart.
# Edit the formula there, not this file.
TITLE "vdodtor Warm Film"
LUT_3D_SIZE 9
DOMAIN_MIN 0.0 0.0 0.0
DOMAIN_MAX 1.0 1.0 1.0
0.000000 0.000000 0.032582
0.083664 0.000000 0.032467
0.201343 0.000000 0.032344
0.328973 0.000463 0.032218
0.461601 0.002597 0.032097
0.594272 0.004757 0.031986
0.722021 0.006861 0.031888
0.839880 0.008823 0.031806
0.942874 0.010553 0.031741
0.000000 0.100963 0.032220
0.091407 0.102616 0.032125
0.209183 0.104527 0.032024
0.336919 0.106622 0.031923
0.469657 0.108824 0.031828
0.602437 0.111052 0.031742
0.730292 0.113221 0.031669
0.848249 0.115242 0.031610
0.951328 0.117025 0.031564
0.000000 0.222490 0.031888
0.100621 0.224203 0.031816
0.218509 0.226182 0.031740
0.346365 0.228352 0.031668
0.479229 0.230631 0.031601
0.612136 0.232936 0.031545
0.740112 0.235180 0.031500
0.858180 0.237270 0.031466
0.961356 0.239113 0.031443
0.007965 0.354514 0.031626
0.111036 0.356292 0.031578
0.229045 0.358347 0.031531
0.357032 0.360597 0.031489
0.490033 0.362960 0.031454
0.623075 0.365349 0.031429
0.751182 0.367674 0.031415
0.869371 0.369839 0.031409
0.972653 0.371747 0.031411
0.019142 0.491956 0.031462
0.122323 0.493801 0.031440
0.240457 0.495933 0.031422
0.368581 0.498267 0.031411
0.501723 0.500718 0.031410
0.634907 0.503194 0.031418
0.763150 0.505603 0.031435
0.881465 0.507845 0.031459
0.984857 0.509821 0.031486
0.030795 0.629691 0.031409
0.134086 0.631604 0.031413
0.252346 0.633813 0.031424
0.380606 0.636231 0.031445
0.513889 0.638769 0.031476
0.647215 0.641332 0.031517
0.775595 0.643825 0.031565
0.894035 0.646145 0.031618
0.997536 0.648188 0.031671
0.042462 0.762552 0.031463
0.145858 0.764530 0.031491
0.264240 0.766814 0.031530
0.392631 0.769313 0.031581
0.526050 0.771935 0.031644
0.659512 0.774582 0.031717
0.788023 0.777155 0.031796
0.906585 0.779550 0.031877
1.000000 0.781658 0.031954
0.053614 0.885332 0.031603
0.157108 0.887371 0.031653
0.275601 0.889723 0.031718
0.404113 0.892297 0.031798
0.537658 0.894996 0.031890
0.671246 0.897721 0.031992
0.799878 0.900368 0.032099
0.918550 0.902831 0.032206
1.000000 0.905000 0.032305
0.063664 0.992788 0.031796
0.167243 0.994878 0.031867
0.285833 0.997291 0.031954
0.414451 0.999930 0.032058
0.548106 1.000000 0.032176
0.681804 1.000000 0.032303
0.810541 1.000000 0.032435
0.929312 1.000000 0.032564
1.000000 1.000000 0.032684
0.000000 0.000000 0.133078
0.084433 0.000000 0.132966
0.202122 0.000000 0.132844
0.329762 0.001023 0.132721
0.462401 0.003164 0.132603
0.595083 0.005331 0.132494
0.722843 0.007441 0.132399
0.840712 0.009409 0.132319
0.943714 0.011145 0.132256
0.000000 0.101523 0.132723
0.092205 0.103181 0.132631
0.209991 0.105098 0.132532
0.337737 0.107200 0.132433
0.470486 0.109408 0.132340
0.603278 0.111643 0.132257
0.731143 0.113818 0.132187
0.849109 0.115846 0.132130
0.952197 0.117635 0.132086
0.000000 0.223070 0.132399
0.101452 0.224788 0.132329
0.219350 0.226774 0.132256
0.347217 0.228950 0.132185
0.480092 0.231236 0.132121
0.613009 0.233548 0.132068
0.740996 0.235798 0.132025
0.859073 0.237894 0.131994
0.962258 0.239743 0.131973
0.008823 0.355117 0.132145
0.111903 0.356900 0.132099
0.229921 0.358960 0.132055
0.357919 0.361217 0.132015
0.490931 0.363587 0.131983
0.623984 0.365983 0.131960
0.752102 0.368314 0.131948
0.870301 0.370485 0.131945
0.973592 0.372399 0.131949
0.020037 0.492581 0.131990
0.123227 0.494432 0.131970
0.241371 0.496569 0.131954
0.369505 0.498910 0.131946
0.502658 0.501368 0.131947
0.635853 0.503851 0.131957
0.764108 0.506266 0.131977
0.882432 0.508514 0.132003
0.985832 0.510495 0.132032
0.031728 0.630339 0.131946
0.135027 0.632257 0.131951
0.253297 0.634472 0.131965
0.381567 0.636897 0.131988
0.514862 0.639442 0.132022
0.648199 0.642012 0.132065
0.776589 0.644511 0.132116
0.895039 0.646837 0.132171
0.998549 0.648886 0.132226
0.043431 0.763222 0.132007
0.146835 0.765206 0.132037
0.265227 0.767496 0.132079
0.393628 0.770001 0.132133
0.527059 0.772630 0.132198
0.660532 0.775284 0.132273
0.789054 0.777864 0.132355
0.907625 0.780264 0.132438
1.000000 0.782378 0.132517
0.054616 0.886023 0.132155
0.158118 0.888066 0.132208
0.276621 0.890425 0.132275
0.405143 0.893005 0.132357
0.538700 0.895711 0.132452
0.672299 0.898443 0.132556
0.800941 0.901097 0.132666
0.919624 0.903566 0.132775
1.000000 0.905740 0.132877
0.064695 0.993496 0.132355
0.168282 0.995592 0.132428
0.286882 0.998011 0.132518
0.415511 1.000000 0.132624
0.549177 1.000000 0.132744
0.682886 1.000000 0.132874
0.811634 1.000000 0.133009
0.930414 1.000000 0.133140
1.000000 1.000000 0.133262
0.000000 0.000000 0.248110
0.085316 0.000000 0.248000
0.203016 0.000000 0.247881
0.330669 0.001665 0.247761
0.463321 0.003814 0.247646
0.596015 0.005989 0.247540
0.723788 0.008107 0.247448
0.841667 0.010082 0.247371
0.944680 0.011824 0.247310
0.000000 0.102166 0.247763
0.093121 0.103830 0.247673
0.210919 0.105754 0.247576
0.338677 0.107863 0.247481
0.471439 0.110079 0.247391
0.604243 0.112322 0.247311
0.732121 0.114505 0.247243
0.850098 0.116540 0.247188
0.953196 0.118334 0.247147
0.000000 0.223736 0.247447
0.102406 0.225460 0.247379
0.220316 0.227453 0.247309
0.348194 0.229636 0.247241
0.481082 0.231930 0.247181
0.614012 0.234250 0.247130
0.742011 0.236508 0.247090
0.860100 0.238611 0.247062
0.963295 0.240466 0.247043
0.009809 0.355808 0.247203
0.112898 0.357597 0.247160
0.230928 0.359664 0.247118
0.358938 0.361929 0.247080
0.491962 0.364307 0.247051
0.625029 0.366711 0.247032
0.753159 0.369049 0.247023
0.871369 0.371227 0.247022
0.974669 0.373147 0.247028
0.021066 0.493298 0.247058
0.124265 0.495155 0.247040
0.242420 0.497300 0.247027
0.370567 0.499649 0.247022
0.503733 0.502114 0.247026
0.636940 0.504605 0.247039
0.765207 0.507027 0.247062
0.883542 0.509283 0.247090
0.986953 0.511270 0.247121
0.032799 0.631082 0.247024
0.136108 0.633007 0.247031
0.254389 0.635229 0.247047
0.382672 0.637662 0.247074
0.515979 0.640214 0.247110
0.649328 0.642792 0.247157
0.777731 0.645299 0.247211
0.896192 0.647631 0.247269
0.999712 0.649686 0.247325
0.044543 0.763991 0.247095
0.147957 0.765981 0.247127
0.266360 0.768278 0.247171
0.394774 0.770791 0.247228
0.528217 0.773427 0.247296
0.661703 0.776089 0.247374
0.790237 0.778677 0.247459
0.908819 0.781084 0.247545
1.000000 0.783204 0.247626
0.055766 0.886815 0.247251
0.159278 0.888865 0.247306
0.277792 0.891230 0.247376
0.406327 0.893818 0.247461
0.539896 0.896532 0.247559
0.673507 0.899272 0.247666
0.802162 0.901933 0.247778
0.920856 0.904409 0.247890
1.000000 0.906589 0.247994
0.065878 0.994309 0.247459
0.169475 0.996411 0.247534
0.288087 0.998837 0.247627
0.416727 1.000000 0.247736
0.550406 1.000000 0.247859
0.684127 1.000000 0.247992
0.812888 1.000000 0.248129
0.931679 1.000000 0.248263
1.000000 1.000000 0.248387
0.000000 0.000000 0.372834
0.086278 0.000000 0.372726
0.203991 0.000313 0.372610
0.331656 0.002365 0.372493
0.464322 0.004522 0.372381
0.597030 0.006706 0.372278
0.724816 0.008832 0.372189
0.842708 0.010814 0.372115
0.945731 0.012562 0.372056
0.000000 0.102865 0.372495
0.094119 0.104536 0.372407
0.211929 0.106467 0.372313
0.339700 0.108585 0.372221
0.472476 0.110810 0.372134
0.605294 0.113060 0.372057
0.733185 0.115252 0.371992
0.851175 0.117294 0.371941
0.954283 0.119095 0.371902
0.000451 0.224460 0.372188
0.103446 0.226191 0.372123
0.221367 0.228191 0.372055
0.349259 0.230383 0.371991
0.482161 0.232686 0.371933
0.615104 0.235014 0.371886
0.743117 0.237280 0.371849
0.861218 0.239391 0.371823
0.964423 0.241252 0.371807
0.010882 0.356560 0.371955
0.113982 0.358356 0.371914
0.232024 0.360431 0.371874
0.360047 0.362703 0.371840
0.493085 0.365090 0.371814
0.626165 0.367502 0.371798
0.754309 0.369849 0.371792
0.872531 0.372034 0.371794
0.975842 0.373960 0.371803
0.022185 0.494079 0.371820
0.125395 0.495943 0.371805
0.243563 0.498095 0.371795
0.371722 0.500452 0.371792
0.504902 0.502925 0.371799
0.638123 0.505425 0.371816
0.766403 0.507855 0.371841
0.884751 0.510118 0.371873
0.988172 0.512112 0.371907
0.033964 0.631892 0.371796
0.137284 0.633823 0.371807
0.255577 0.636053 0.371826
0.383873 0.638493 0.371855
0.517194 0.641054 0.371895
0.650557 0.643641 0.371944
0.778973 0.646155 0.372001
0.897447 0.648496 0.372062
1.000000 0.650557 0.372121
0.045753 0.764828 0.371878
0.149178 0.766824 0.371913
0.267593 0.769129 0.371960
0.396020 0.771650 0.372019
0.529477 0.774295 0.372091
0.662977 0.776965 0.372172
0.791524 0.779561 0.372260
0.910118 0.781976 0.372349
1.000000 0.784102 0.372432
0.057017 0.887677 0.372044
0.160540 0.889734 0.372102
0.279066 0.892107 0.372174
0.407614 0.894702 0.372262
0.541197 0.897425 0.372363
0.674822 0.900173 0.372473
0.803490 0.902843 0.372589
0.922196 0.905326 0.372704
1.000000 0.907513 0.372810
0.067165 0.995193 0.372261
0.170773 0.997302 0.372338
0.289397 0.999735 0.372433
0.418050 1.000000 0.372546
0.551743 1.000000 0.372672
0.685478 1.000000 0.372808
0.814252 1.000000 0.372948
0.933055 1.000000 0.373085
1.000000 1.000000 0.373211
0.000000 0.000000 0.502403
0.087283 0.000000 0.502298
0.205008 0.001034 0.502185
0.332687 0.003095 0.502071
0.465367 0.005261 0.501962
0.598090 0.007453 0.501863
0.725889 0.009588 0.501777
0.843794 0.011578 0.501705
0.946828 0.013333 0.501649
0.000000 0.103595 0.502073
0.095161 0.105272 0.501987
0.212983 0.107212 0.501897
0.340768 0.109337 0.501807
0.473558 0.111571 0.501724
0.606391 0.113831 0.501650
0.734296 0.116030 0.501589
0.852298 0.118081 0.501540
0.955417 0.119888 0.501504
0.001525 0.225216 0.501776
0.104530 0.226954 0.501713
0.222464 0.228962 0.501649
0.350370 0.231162 0.501587
0.483286 0.233474 0.501533
0.616244 0.235811 0.501489
0.744270 0.238085 0.501455
0.862383 0.240204 0.501433
0.965600 0.242072 0.501419
0.012001 0.357344 0.501553
0.115112 0.359147 0.501515
0.233167 0.361230 0.501478
0.361204 0.363511 0.501448
0.494257 0.365906 0.501425
0.627351 0.368327 0.501412
0.755508 0.370682 0.501409
0.873743 0.372876 0.501415
0.977065 0.374809 0.501425
0.023353 0.494893 0.501430
0.126573 0.496764 0.501417
0.244754 0.498924 0.501410
0.372927 0.501289 0.501411
0.506121 0.503771 0.501421
0.639357 0.506279 0.501441
0.767650 0.508718 0.501470
0.886011 0.510989 0.501504
0.989443 0.512990 0.501541
0.035180 0.632735 0.501417
0.138510 0.634673 0.501430
0.256817 0.636911 0.501452
0.385126 0.639360 0.501484
0.518462 0.641929 0.501528
0.651839 0.644525 0.501581
0.780269 0.647048 0.501641
0.898755 0.649396 0.501705
1.000000 0.651464 0.501766
0.047015 0.765700 0.501510
0.150451 0.767703 0.501547
0.268878 0.770015 0.501597
0.397319 0.772545 0.501660
0.530791 0.775199 0.501735
0.664305 0.777878 0.501819
0.792865 0.780482 0.501910
0.911473 0.782905 0.502002
1.000000 0.785038 0.502088
0.058322 0.888576 0.501686
0.161855 0.890639 0.501746
0.280394 0.893020 0.501822
0.408956 0.895624 0.501912
0.542553 0.898355 0.502017
0.676193 0.901112 0.502130
0.804875 0.903790 0.502249
0.923593 0.906282 0.502367
1.000000 0.908475 0.502476
0.068507 0.996114 0.501911
0.172126 0.998230 0.501991
0.290762 1.000000 0.502089
0.419430 1.000000 0.502204
0.553137 1.000000 0.502334
0.686886 1.000000 0.502473
0.815674 1.000000 0.502617
0.934490 1.000000 0.502757
1.000000 1.000000 0.502886
0.000000 0.000000 0.631973
0.088292 0.000000 0.631871
0.206029 0.001758 0.631761
0.333722 0.003828 0.631650
0.466417 0.006002 0.631544
0.599154 0.008203 0.631449
0.726967 0.010346 0.631366
0.844884 0.012344 0.631297
0.947929 0.014106 0.631244
0.000000 0.104327 0.631652
0.096207 0.106012 0.631569
0.214042 0.107959 0.631481
0.341841 0.110093 0.631395
0.474645 0.112336 0.631315
0.607492 0.114604 0.631245
0.735411 0.116812 0.631186
0.853426 0.118870 0.631141
0.956556 0.120685 0.631107
0.002603 0.225975 0.631365
0.105619 0.227720 0.631305
0.223566 0.229736 0.631243
0.351485 0.231944 0.631185
0.484415 0.234264 0.631134
0.617388 0.236610 0.631093
0.745427 0.238893 0.631063
0.863554 0.241020 0.631043
0.966782 0.242894 0.631032
0.013126 0.358132 0.631153
0.116248 0.359941 0.631117
0.234315 0.362032 0.631084
0.362366 0.364321 0.631056
0.495433 0.366725 0.631037
0.628541 0.369155 0.631027
0.756712 0.371519 0.631028
0.874960 0.373720 0.631036
0.978293 0.375660 0.631049
0.024525 0.495710 0.631041
0.127757 0.497587 0.631031
0.245950 0.499755 0.631026
0.374137 0.502129 0.631030
0.507345 0.504620 0.631044
0.640595 0.507137 0.631067
0.768903 0.509585 0.631099
0.887276 0.511863 0.631137
0.990719 0.513871 0.631176
0.036400 0.633582 0.631039
0.139742 0.635527 0.631055
0.258061 0.637772 0.631080
0.386384 0.640230 0.631115
0.519734 0.642808 0.631162
0.653126 0.645412 0.631218
0.781569 0.647944 0.631282
0.900068 0.650300 0.631348
1.000000 0.652375 0.631413
0.048282 0.766575 0.631143
0.151729 0.768585 0.631182
0.270169 0.770905 0.631235
0.398624 0.773443 0.631301
0.532109 0.776106 0.631380
0.665637 0.778794 0.631468
0.794212 0.781406 0.631561
0.912832 0.783837 0.631656
1.000000 0.785977 0.631745
0.059631 0.889477 0.631328
0.163176 0.891547 0.631391
0.281727 0.893936 0.631470
0.410303 0.896549 0.631564
0.543915 0.899288 0.631671
0.677568 0.902054 0.631788
0.806264 0.904741 0.631910
0.924995 0.907240 0.632031
1.000000 0.909441 0.632143
0.069854 0.997039 0.631562
0.173484 0.999161 0.631644
0.292133 1.000000 0.631746
0.420814 1.000000 0.631865
0.554535 1.000000 0.631997
0.688299 1.000000 0.632140
0.817100 1.000000 0.632287
0.935929 1.000000 0.632430
1.000000 1.000000 0.632561
0.000000 0.000000 0.756700
0.089268 0.000564 0.756600
0.207018 0.002458 0.756492
0.334724 0.004536 0.756385
0.467432 0.006719 0.756282
0.600183 0.008928 0.756190
0.728009 0.011080 0.756110
0.845939 0.013085 0.756044
0.948994 0.014854 0.755993
0.000000 0.105035 0.756386
0.097219 0.106726 0.756306
0.215066 0.108681 0.756221
0.342878 0.110823 0.756138
0.475696 0.113074 0.756061
0.608557 0.115351 0.755994
0.736489 0.117568 0.755939
0.854516 0.119633 0.755896
0.957657 0.121454 0.755865
0.003645 0.226709 0.756109
0.106672 0.228460 0.756052
0.224631 0.230483 0.755993
0.352564 0.232700 0.755938
0.485508 0.235028 0.755890
0.618494 0.237383 0.755852
0.746547 0.239674 0.755825
0.864685 0.241808 0.755808
0.967924 0.243689 0.755799
0.014213 0.358893 0.755907
0.117345 0.360709 0.755874
0.235425 0.362807 0.755844
0.363489 0.365104 0.755819
0.496569 0.367517 0.755803
0.629692 0.369955 0.755797
0.757876 0.372327 0.755800
0.876136 0.374536 0.755811
0.979480 0.376482 0.755827
0.025658 0.496499 0.755806
0.128900 0.498383 0.755799
0.247106 0.500559 0.755797
0.375306 0.502940 0.755804
0.508528 0.505440 0.755821
0.641792 0.507966 0.755848
0.770113 0.510421 0.755882
0.888498 0.512707 0.755923
0.991952 0.514721 0.755964
0.037580 0.634400 0.755816
0.140932 0.636351 0.755833
0.259263 0.638604 0.755861
0.387600 0.641070 0.755900
0.520963 0.643657 0.755949
0.654369 0.646269 0.756009
0.782825 0.648809 0.756075
0.901337 0.651173 0.756145
1.000000 0.653254 0.756212
0.049506 0.767421 0.755929
0.152964 0.769437 0.755971
0.271416 0.771764 0.756027
0.399884 0.774311 0.756096
0.533383 0.776982 0.756178
0.666925 0.779679 0.756269
0.795513 0.782299 0.756366
0.914145 0.784737 0.756463
1.000000 0.786884 0.756555
0.060896 0.890348 0.756124
0.164452 0.892424 0.756189
0.283015 0.894820 0.756271
0.411604 0.897441 0.756368
0.545230 0.900190 0.756479
0.678897 0.902964 0.756599
0.807606 0.905659 0.756724
0.926350 0.908166 0.756848
1.000000 0.910373 0.756962
0.071155 0.997931 0.756366
0.174795 1.000000 0.756451
0.293456 1.000000 0.756555
0.422151 1.000000 0.756677
0.555886 1.000000 0.756813
0.689663 1.000000 0.756959
0.818478 1.000000 0.757109
0.937319 1.000000 0.757255
1.000000 1.000000 0.757389
0.000000 0.000000 0.871737
0.090172 0.001205 0.871639
0.207933 0.003106 0.871534
0.335651 0.005191 0.871429
0.468373 0.007383 0.871330
0.601136 0.009600 0.871240
0.728974 0.011758 0.871163
0.846915 0.013771 0.871100
0.949981 0.015545 0.871052
0.000000 0.105691 0.871431
0.098156 0.107388 0.871353
0.216015 0.109349 0.871271
0.343839 0.111499 0.871191
0.476670 0.113758 0.871117
0.609543 0.116043 0.871053
0.737487 0.118267 0.871000
0.855526 0.120339 0.870960
0.958676 0.122166 0.870931
0.004610 0.227387 0.871163
0.107647 0.229144 0.871107
0.225617 0.231175 0.871051
0.353562 0.233399 0.870999
0.486519 0.235736 0.870954
0.619518 0.238098 0.870919
0.747583 0.240396 0.870895
0.865733 0.242537 0.870881
0.968981 0.244425 0.870874
0.015219 0.359597 0.870970
0.118361 0.361419 0.870940
0.236453 0.363524 0.870911
0.364529 0.365829 0.870890
0.497622 0.368249 0.870877
0.630757 0.370696 0.870873
0.758953 0.373075 0.870879
0.877224 0.375290 0.870893
0.980578 0.377243 0.870911
0.026707 0.497230 0.870879
0.129959 0.499120 0.870874
0.248176 0.501302 0.870875
0.376389 0.503691 0.870885
0.509623 0.506199 0.870904
0.642900 0.508732 0.870934
0.771233 0.511195 0.870972
0.889629 0.513488 0.871015
0.993093 0.515508 0.871058
0.038672 0.635156 0.870898
0.142034 0.637114 0.870918
0.260376 0.639374 0.870949
0.388725 0.641847 0.870990
0.522101 0.644442 0.871043
0.655519 0.647062 0.871105
0.783988 0.649609 0.871175
0.902511 0.651980 0.871247
1.000000 0.654068 0.871316
0.050638 0.768203 0.871021
0.154106 0.770225 0.871066
0.272570 0.772560 0.871124
0.401050 0.775114 0.871196
0.534562 0.777792 0.871281
0.668117 0.780497 0.871375
0.796717 0.783125 0.871474
0.915360 0.785570 0.871575
1.000000 0.787723 0.871668
0.062067 0.891153 0.871226
0.165632 0.893236 0.871293
0.284207 0.895639 0.871377
0.412808 0.898267 0.871477
0.546446 0.901023 0.871591
0.680126 0.903805 0.871714
0.808848 0.906508 0.871842
0.927602 0.909022 0.871968
1.000000 0.911235 0.872084
0.072358 0.998757 0.871475
0.176009 1.000000 0.871562
0.294681 1.000000 0.871669
0.423388 1.000000 0.871794
0.557136 1.000000 0.871933
0.690926 1.000000 0.872082
0.819753 1.000000 0.872234
0.938605 1.000000 0.872383
1.000000 1.000000 0.872519
0.000000 0.000117 0.972239
0.090965 0.001767 0.972143
0.208736 0.003675 0.972040
0.336465 0.005766 0.971938
0.469197 0.007964 0.971841
0.601972 0.010188 0.971754
0.729821 0.012353 0.971680
0.847771 0.014372 0.971619
0.950846 0.016152 0.971572
0.000000 0.106265 0.971940
0.098978 0.107968 0.971864
0.216847 0.109935 0.971784
0.344681 0.112092 0.971706
0.477523 0.114357 0.971635
0.610408 0.116649 0.971573
0.738362 0.118879 0.971523
0.856411 0.120958 0.971485
0.959570 0.122790 0.971458
0.005457 0.227982 0.971679
0.108502 0.229745 0.971626
0.226482 0.231781 0.971572
0.354438 0.234012 0.971522
0.487406 0.236355 0.971480
0.620415 0.238724 0.971448
0.748491 0.241029 0.971426
0.866651 0.243176 0.971414
0.969908 0.245069 0.971409
0.016101 0.360214 0.971495
0.119252 0.362041 0.971466
0.237353 0.364152 0.971441
0.365440 0.366464 0.971421
0.498544 0.368891 0.971411
0.631690 0.371344 0.971410
0.759897 0.373730 0.971419
0.878178 0.375952 0.971435
0.981541 0.377909 0.971455
0.027627 0.497870 0.971413
0.130888 0.499765 0.971409
0.249114 0.501953 0.971413
0.377338 0.504349 0.971425
0.510583 0.506864 0.971447
0.643871 0.509404 0.971479
0.772214 0.511874 0.971520
0.890621 0.514173 0.971565
0.994093 0.516198 0.971610
0.039628 0.635819 0.971440
0.142999 0.637782 0.971463
0.261352 0.640048 0.971495
0.389711 0.642528 0.971539
0.523098 0.645129 0.971594
0.656527 0.647757 0.971659
0.785007 0.650311 0.971731
0.903539 0.652687 0.971805
1.000000 0.654780 0.971877
0.051631 0.768888 0.971572
0.155108 0.770916 0.971618
0.273581 0.773256 0.971679
0.402072 0.775817 0.971753
0.535595 0.778502 0.971840
0.669161 0.781213 0.971937
0.797771 0.783848 0.972039
0.916425 0.786299 0.972142
1.000000 0.788457 0.972237
0.063093 0.891859 0.971784
0.166667 0.893947 0.971853
0.285252 0.896356 0.971939
0.413863 0.898991 0.972042
0.547512 0.901754 0.972158
0.681204 0.904543 0.972284
0.809935 0.907252 0.972414
0.928700 0.909771 0.972543
1.000000 0.911990 0.972661
0.073413 0.999481 0.972040
0.177072 1.000000 0.972129
0.295755 1.000000 0.972238
0.424472 1.000000 0.972365
0.558231 1.000000 0.972507
0.692032 1.000000 0.972658
0.820870 1.000000 0.972813
0.939732 1.000000 0.972964
1.000000 1.000000 0.973102
