app/assets/luts/warm_film.cube
# Warm Film — generated by tools/make_luts.dart.
# Edit the formula there, not this file.
TITLE "vdodtor Warm Film"
LUT_3D_SIZE 5
DOMAIN_MIN 0.0 0.0 0.0
DOMAIN_MAX 1.0 1.0 1.0
0.000000 0.000000 0.032582
0.201343 0.000000 0.032344
0.461601 0.002597 0.032097
0.722021 0.006861 0.031888
0.942874 0.010553 0.031741
0.000000 0.222490 0.031888
0.218509 0.226182 0.031740
0.479229 0.230631 0.031601
0.740112 0.235180 0.031500
0.961356 0.239113 0.031443
0.019142 0.491956 0.031462
0.240457 0.495933 0.031422
0.501723 0.500718 0.031410
0.763150 0.505603 0.031435
0.984857 0.509821 0.031486
0.042462 0.762552 0.031463
0.264240 0.766814 0.031530
0.526050 0.771935 0.031644
0.788023 0.777155 0.031796
1.000000 0.781658 0.031954
0.063664 0.992788 0.031796
0.285833 0.997291 0.031954
0.548106 1.000000 0.032176
0.810541 1.000000 0.032435
1.000000 1.000000 0.032684
0.000000 0.000000 0.248110
0.203016 0.000000 0.247881
0.463321 0.003814 0.247646
0.723788 0.008107 0.247448
0.944680 0.011824 0.247310
0.000000 0.223736 0.247447
0.220316 0.227453 0.247309
0.481082 0.231930 0.247181
0.742011 0.236508 0.247090
0.963295 0.240466 0.247043
0.021066 0.493298 0.247058
0.242420 0.497300 0.247027
0.503733 0.502114 0.247026
0.765207 0.507027 0.247062
0.986953 0.511270 0.247121
0.044543 0.763991 0.247095
0.266360 0.768278 0.247171
0.528217 0.773427 0.247296
0.790237 0.778677 0.247459
1.000000 0.783204 0.247626
0.065878 0.994309 0.247459
0.288087 0.998837 0.247627
0.550406 1.000000 0.247859
0.812888 1.000000 0.248129
1.000000 1.000000 0.248387
0.000000 0.000000 0.502403
0.205008 0.001034 0.502185
0.465367 0.005261 0.501962
0.725889 0.009588 0.501777
0.946828 0.013333 0.501649
0.001525 0.225216 0.501776
0.222464 0.228962 0.501649
0.483286 0.233474 0.501533
0.744270 0.238085 0.501455
0.965600 0.242072 0.501419
0.023353 0.494893 0.501430
0.244754 0.498924 0.501410
0.506121 0.503771 0.501421
0.767650 0.508718 0.501470
0.989443 0.512990 0.501541
0.047015 0.765700 0.501510
0.268878 0.770015 0.501597
0.530791 0.775199 0.501735
0.792865 0.780482 0.501910
1.000000 0.785038 0.502088
0.068507 0.996114 0.501911
0.290762 1.000000 0.502089
0.553137 1.000000 0.502334
0.815674 1.000000 0.502617
1.000000 1.000000 0.502886
0.000000 0.000000 0.756700
0.207018 0.002458 0.756492
0.467432 0.006719 0.756282
0.728009 0.011080 0.756110
0.948994 0.014854 0.755993
0.003645 0.226709 0.756109
0.224631 0.230483 0.755993
0.485508 0.235028 0.755890
0.746547 0.239674 0.755825
0.967924 0.243689 0.755799
0.025658 0.496499 0.755806
0.247106 0.500559 0.755797
0.508528 0.505440 0.755821
0.770113 0.510421 0.755882
0.991952 0.514721 0.755964
0.049506 0.767421 0.755929
0.271416 0.771764 0.756027
0.533383 0.776982 0.756178
0.795513 0.782299 0.756366
1.000000 0.786884 0.756555
0.071155 0.997931 0.756366
0.293456 1.000000 0.756555
0.555886 1.000000 0.756813
0.818478 1.000000 0.757109
1.000000 1.000000 0.757389
0.000000 0.000117 0.972239
0.208736 0.003675 0.972040
0.469197 0.007964 0.971841
0.729821 0.012353 0.971680
0.950846 0.016152 0.971572
0.005457 0.227982 0.971679
0.226482 0.231781 0.971572
0.487406 0.236355 0.971480
0.748491 0.241029 0.971426
0.969908 0.245069 0.971409
0.027627 0.497870 0.971413
0.249114 0.501953 0.971413
0.510583 0.506864 0.971447
0.772214 0.511874 0.971520
0.994093 0.516198 0.971610
0.051631 0.768888 0.971572
0.273581 0.773256 0.971679
0.535595 0.778502 0.971840
0.797771 0.783848 0.972039
1.000000 0.788457 0.972237
0.073413 0.999481 0.972040
0.295755 1.000000 0.972238
0.558231 1.000000 0.972507
0.820870 1.000000 0.972813
1.000000 1.000000 0.973102
