app/assets/luts/warm_film.cube
# Warm Film — generated by tools/make_luts.dart.
# Edit the formula there, not this file.
TITLE "vdodtor Warm Film"
LUT_3D_SIZE 17
DOMAIN_MIN 0.0 0.0 0.0
DOMAIN_MAX 1.0 1.0 1.0
0.000000 0.000000 0.032582
0.030102 0.000000 0.032526
0.083664 0.000000 0.032467
0.140951 0.000000 0.032406
0.201343 0.000000 0.032344
0.264223 0.000000 0.032281
0.328973 0.000463 0.032218
0.394972 0.001522 0.032157
0.461601 0.002597 0.032097
0.528241 0.003679 0.032040
0.594272 0.004757 0.031986
0.659072 0.005822 0.031935
0.722021 0.006861 0.031888
0.782498 0.007865 0.031845
0.839880 0.008823 0.031806
0.893546 0.009723 0.031772
0.942874 0.010553 0.031741
0.000000 0.045715 0.032400
0.033753 0.046492 0.032349
0.087337 0.047341 0.032295
0.144646 0.048253 0.032239
0.205062 0.049220 0.032182
0.267967 0.050233 0.032125
0.332742 0.051281 0.032069
0.398767 0.052356 0.032013
0.465423 0.053448 0.031960
0.532090 0.054546 0.031909
0.598147 0.055641 0.031861
0.662973 0.056721 0.031816
0.725947 0.057776 0.031775
0.786447 0.058794 0.031738
0.843852 0.059766 0.031704
0.897539 0.060679 0.031674
0.946887 0.061522 0.031648
0.000000 0.100963 0.032220
0.037800 0.101753 0.032174
0.091407 0.102616 0.032125
0.148741 0.103544 0.032075
0.209183 0.104527 0.032024
0.272116 0.105556 0.031973
0.336919 0.106622 0.031923
0.402972 0.107715 0.031875
0.469657 0.108824 0.031828
0.536352 0.109940 0.031784
0.602437 0.111052 0.031742
0.667291 0.112149 0.031704
0.730292 0.113221 0.031669
0.790819 0.114256 0.031638
0.848249 0.115242 0.031610
0.901959 0.116170 0.031585
0.951328 0.117025 0.031564
0.000000 0.160098 0.032047
0.042215 0.160902 0.032007
0.095846 0.161780 0.031964
0.153206 0.162724 0.031920
0.213677 0.163725 0.031875
0.276638 0.164772 0.031831
0.341471 0.165856 0.031788
0.407555 0.166967 0.031746
0.474270 0.168095 0.031707
0.540996 0.169230 0.031670
0.607112 0.170361 0.031635
0.671996 0.171477 0.031604
0.735026 0.172566 0.031576
0.795580 0.173618 0.031551
0.853037 0.174621 0.031529
0.906772 0.175564 0.031510
0.956163 0.176434 0.031494
0.000000 0.222490 0.031888
0.046964 0.223308 0.031853
0.100621 0.224203 0.031816
0.158010 0.225164 0.031778
0.218509 0.226182 0.031740
0.281501 0.227248 0.031703
0.346365 0.228352 0.031668
0.412482 0.229483 0.031633
0.479229 0.230631 0.031601
0.545988 0.231786 0.031572
0.612136 0.232936 0.031545
0.677051 0.234071 0.031521
0.740112 0.235180 0.031500
0.800696 0.236250 0.031482
0.858180 0.237270 0.031466
0.911941 0.238229 0.031454
0.961356 0.239113 0.031443
0.002681 0.287506 0.031746
0.052013 0.288340 0.031716
0.105698 0.289251 0.031686
0.163115 0.290231 0.031655
0.223645 0.291268 0.031624
0.286669 0.292353 0.031595
0.351566 0.293477 0.031567
0.417716 0.294629 0.031540
0.484497 0.295798 0.031516
0.551289 0.296973 0.031494
0.617471 0.298144 0.031475
0.682419 0.299300 0.031459
0.745511 0.300428 0.031445
0.806126 0.301517 0.031434
0.863639 0.302555 0.031425
0.917427 0.303530 0.031419
0.966867 0.304430 0.031415
0.007965 0.354514 0.031626
0.057324 0.355364 0.031602
0.111036 0.356292 0.031578
0.168483 0.357290 0.031554
0.229045 0.358347 0.031531
0.292102 0.359452 0.031509
0.357032 0.360597 0.031489
0.423216 0.361770 0.031470
0.490033 0.362960 0.031454
0.556860 0.364157 0.031440
0.623075 0.365349 0.031429
0.688057 0.366526 0.031421
0.751182 0.367674 0.031415
0.811828 0.368782 0.031411
0.869371 0.369839 0.031409
0.923187 0.370831 0.031409
0.972653 0.371747 0.031411
0.013468 0.422877 0.031531
0.062852 0.423743 0.031513
0.116593 0.424689 0.031496
0.174071 0.425705 0.031479
0.234665 0.426782 0.031463
0.297755 0.427908 0.031449
0.362720 0.429074 0.031436
0.428939 0.430268 0.031426
0.495791 0.431480 0.031418
0.562653 0.432699 0.031413
0.628904 0.433913 0.031410
0.693920 0.435110 0.031409
0.757079 0.436279 0.031411
0.817757 0.437407 0.031415
0.875330 0.438483 0.031420
0.929175 0.439493 0.031427
0.978667 0.440425 0.031434
0.019142 0.491956 0.031462
0.068553 0.492838 0.031451
0.122323 0.493801 0.031440
0.179831 0.494837 0.031430
0.240457 0.495933 0.031422
0.303581 0.497080 0.031416
0.368581 0.498267 0.031411
0.434835 0.499484 0.031409
0.501723 0.500718 0.031410
0.568621 0.501959 0.031413
0.634907 0.503194 0.031418
0.699958 0.504413 0.031425
0.763150 0.505603 0.031435
0.823861 0.506751 0.031446
0.881465 0.507845 0.031459
0.935338 0.508873 0.031472
0.984857 0.509821 0.031486
0.024936 0.561108 0.031422
0.074374 0.562007 0.031417
0.128172 0.562988 0.031413
0.185711 0.564042 0.031410
0.246370 0.565159 0.031409
0.309527 0.566326 0.031411
0.374562 0.567535 0.031414
0.440852 0.568773 0.031420
0.507775 0.570029 0.031429
0.574709 0.571292 0.031440
0.641030 0.572550 0.031454
0.706116 0.573790 0.031469
0.769342 0.575000 0.031487
0.830085 0.576168 0.031505
0.887720 0.577281 0.031525
0.941622 0.578327 0.031545
0.991167 0.579291 0.031565
0.030795 0.629691 0.031409
0.080259 0.630605 0.031410
0.134086 0.631604 0.031413
0.191655 0.632677 0.031417
0.252346 0.633813 0.031424
0.315537 0.635001 0.031433
0.380606 0.636231 0.031445
0.446931 0.637491 0.031459
0.513889 0.638769 0.031476
0.580858 0.640053 0.031495
0.647215 0.641332 0.031517
0.712335 0.642594 0.031540
0.775595 0.643825 0.031565
0.836369 0.645013 0.031592
0.894035 0.646145 0.031618
0.947965 0.647208 0.031645
0.997536 0.648188 0.031671
0.036659 0.697055 0.031423
0.086148 0.697985 0.031430
0.140003 0.699001 0.031439
0.197602 0.700093 0.031451
0.258324 0.701248 0.031465
0.321548 0.702457 0.031481
0.386651 0.703708 0.031501
0.453010 0.704988 0.031523
0.520003 0.706288 0.031548
0.587007 0.707594 0.031576
0.653398 0.708894 0.031605
0.718552 0.710176 0.031637
0.781844 0.711427 0.031669
0.842651 0.712635 0.031703
0.900346 0.713785 0.031737
0.954305 0.714865 0.031770
1.000000 0.715861 0.031802
0.042462 0.762552 0.031463
0.091976 0.763498 0.031475
0.145858 0.764530 0.031491
0.203487 0.765640 0.031509
0.264240 0.766814 0.031530
0.327495 0.768042 0.031554
0.392631 0.769313 0.031581
0.459024 0.770615 0.031611
0.526050 0.771935 0.031644
0.593088 0.773262 0.031679
0.659512 0.774582 0.031717
0.724699 0.775885 0.031756
0.788023 0.777155 0.031796
0.848860 0.778382 0.031836
0.906585 0.779550 0.031877
0.960570 0.780647 0.031916
1.000000 0.781658 0.031954
0.048138 0.825529 0.031524
0.097676 0.826490 0.031542
0.151584 0.827538 0.031563
0.209241 0.828665 0.031588
0.270023 0.829857 0.031616
0.333309 0.831105 0.031647
0.398476 0.832395 0.031681
0.464901 0.833716 0.031719
0.531960 0.835056 0.031759
0.599030 0.836403 0.031802
0.665487 0.837743 0.031847
0.730705 0.839065 0.031893
0.794060 0.840355 0.031940
0.854926 0.841599 0.031988
0.912678 0.842784 0.032035
0.966690 0.843897 0.032080
1.000000 0.844924 0.032123
0.053614 0.885332 0.031603
0.103175 0.886306 0.031626
0.157108 0.887371 0.031653
0.214791 0.888513 0.031684
0.275601 0.889723 0.031718
0.338916 0.890988 0.031756
0.404113 0.892297 0.031798
0.470568 0.893637 0.031842
0.537658 0.894996 0.031890
0.604759 0.896361 0.031940
0.671246 0.897721 0.031992
0.736494 0.899061 0.032045
0.799878 0.900368 0.032099
0.860772 0.901630 0.032153
0.918550 0.902831 0.032206
0.972587 0.903960 0.032257
1.000000 0.905000 0.032305
0.058816 0.941304 0.031695
0.108398 0.942292 0.031724
0.162353 0.943370 0.031756
0.220061 0.944528 0.031793
0.280897 0.945754 0.031833
0.344239 0.947036 0.031877
0.409464 0.948361 0.031925
0.475948 0.949719 0.031976
0.543067 0.951096 0.032031
0.610196 0.952479 0.032087
0.676712 0.953856 0.032146
0.741988 0.955213 0.032205
0.805399 0.956537 0.032266
0.866319 0.957815 0.032326
0.924122 0.959032 0.032384
0.978182 0.960174 0.032441
1.000000 0.961228 0.032494
0.063664 0.992788 0.031796
0.113266 0.993787 0.031829
0.167243 0.994878 0.031867
0.224973 0.996050 0.031908
0.285833 0.997291 0.031954
0.349201 0.998588 0.032005
0.414451 0.999930 0.032058
0.480961 1.000000 0.032116
0.548106 1.000000 0.032176
0.615262 1.000000 0.032239
0.681804 1.000000 0.032303
0.747105 1.000000 0.032369
0.810541 1.000000 0.032435
0.871486 1.000000 0.032500
0.929312 1.000000 0.032564
0.983393 1.000000 0.032626
1.000000 1.000000 0.032684
0.000000 0.000000 0.080710
0.030468 0.000000 0.080655
0.084032 0.000000 0.080597
0.141321 0.000000 0.080536
0.201716 0.000000 0.080474
0.264598 0.000000 0.080412
0.329350 0.000731 0.080350
0.395352 0.001791 0.080289
0.461984 0.002868 0.080230
0.528627 0.003952 0.080174
0.594660 0.005032 0.080120
0.659463 0.006098 0.080070
0.722414 0.007139 0.080024
0.782893 0.008144 0.079981
0.840278 0.009103 0.079943
0.893946 0.010004 0.079909
0.943276 0.010836 0.079878
0.000000 0.045979 0.080530
0.034125 0.046756 0.080480
0.087711 0.047607 0.080426
0.145022 0.048520 0.080371
0.205441 0.049489 0.080314
0.268349 0.050503 0.080258
0.333126 0.051553 0.080202
0.399154 0.052630 0.080147
0.465813 0.053723 0.080094
0.532482 0.054823 0.080044
0.598541 0.055919 0.079997
0.663370 0.057001 0.079953
0.726347 0.058057 0.079912
0.786849 0.059078 0.079875
0.844257 0.060051 0.079842
0.897946 0.060965 0.079813
0.947295 0.061809 0.079787
0.000000 0.101231 0.080352
0.038180 0.102022 0.080306
0.091789 0.102886 0.080258
0.149125 0.103816 0.080208
0.209570 0.104800 0.080158
0.272505 0.105831 0.080108
0.337310 0.106898 0.080058
0.403366 0.107993 0.080010
0.470054 0.109104 0.079964
0.536752 0.110221 0.079920
0.602839 0.111335 0.079880
0.667696 0.112434 0.079842
0.730700 0.113507 0.079808
0.791229 0.114543 0.079777
0.848661 0.115531 0.079749
0.902373 0.116460 0.079725
0.951744 0.117317 0.079705
0.000000 0.160371 0.080181
0.042602 0.161175 0.080141
0.096235 0.162055 0.080098
0.153598 0.163001 0.080055
0.214071 0.164003 0.080011
0.277035 0.165051 0.079967
0.341870 0.166137 0.079925
0.407957 0.167250 0.079884
0.474675 0.168380 0.079845
0.541403 0.169516 0.079808
0.607522 0.170649 0.079775
0.672408 0.171766 0.079744
0.735441 0.172857 0.079716
0.795998 0.173911 0.079692
0.853456 0.174915 0.079671
0.907193 0.175859 0.079652
0.956587 0.176730 0.079637
0.000000 0.222767 0.080023
0.047359 0.223587 0.079988
0.101019 0.224483 0.079952
0.158409 0.225445 0.079915
0.218912 0.226465 0.079878
0.281906 0.227533 0.079841
0.346773 0.228638 0.079806
0.412892 0.229771 0.079773
0.479642 0.230920 0.079741
0.546403 0.232077 0.079712
0.612554 0.233229 0.079686
0.677471 0.234366 0.079663
0.740535 0.235476 0.079642
0.801121 0.236547 0.079625
0.858607 0.237569 0.079610
0.912371 0.238529 0.079597
0.961788 0.239415 0.079588
0.003082 0.287789 0.079883
0.052417 0.288624 0.079854
0.106104 0.289537 0.079824
0.163523 0.290517 0.079794
0.224056 0.291556 0.079764
0.287082 0.292643 0.079735
0.351982 0.293769 0.079707
0.418134 0.294922 0.079681
0.484918 0.296092 0.079658
0.551713 0.297270 0.079637
0.617897 0.298442 0.079618
0.682848 0.299599 0.079602
0.745943 0.300729 0.079589
0.806560 0.301819 0.079579
0.864075 0.302859 0.079571
0.917865 0.303835 0.079565
0.967307 0.304737 0.079561
0.008376 0.354803 0.079765
0.057736 0.355653 0.079742
0.111451 0.356583 0.079719
0.168900 0.357582 0.079695
0.229464 0.358640 0.079672
0.292523 0.359748 0.079651
0.357457 0.360894 0.079631
0.423643 0.362068 0.079613
0.490462 0.363260 0.079598
0.557292 0.364459 0.079585
0.623510 0.365653 0.079574
0.688495 0.366830 0.079566
0.751623 0.367980 0.079561
0.812271 0.369090 0.079558
0.869816 0.370148 0.079557
0.923634 0.371142 0.079557
0.973102 0.372059 0.079559
0.013888 0.423171 0.079672
0.063274 0.424038 0.079655
0.117017 0.424985 0.079638
0.174497 0.426003 0.079622
0.235093 0.427081 0.079607
0.298186 0.428209 0.079593
0.363153 0.429376 0.079581
0.429375 0.430572 0.079571
0.496230 0.431786 0.079564
0.563094 0.433006 0.079559
0.629348 0.434222 0.079557
0.694367 0.435421 0.079557
0.757528 0.436591 0.079559
0.818208 0.437721 0.079563
0.875784 0.438797 0.079569
0.929631 0.439809 0.079577
0.979125 0.440742 0.079585
0.019571 0.492255 0.079606
0.068983 0.493138 0.079595
0.122755 0.494103 0.079585
0.180266 0.495140 0.079575
0.240895 0.496238 0.079568
0.304021 0.497386 0.079562
0.369023 0.498575 0.079558
0.435280 0.499793 0.079557
0.502170 0.501029 0.079558
0.569071 0.502271 0.079561
0.635360 0.503508 0.079567
0.700413 0.504729 0.079575
0.763608 0.505920 0.079585
0.824321 0.507070 0.079597
0.881928 0.508165 0.079610
0.935803 0.509194 0.079624
0.985324 0.510144 0.079638
0.025374 0.561413 0.079567
0.074813 0.562312 0.079563
0.128614 0.563295 0.079559
0.186155 0.564351 0.079557
0.246816 0.565469 0.079557
0.309976 0.566638 0.079559
0.375013 0.567848 0.079563
0.441306 0.569088 0.079570
0.508231 0.570346 0.079579
0.575168 0.571610 0.079591
0.641492 0.572869 0.079605
0.706580 0.574111 0.079621
0.769809 0.575323 0.079639
0.830554 0.576493 0.079658
0.888191 0.577607 0.079679
0.942096 0.578654 0.079699
0.991643 0.579620 0.079719
0.031241 0.630001 0.079557
0.080707 0.630916 0.079558
0.134536 0.631916 0.079561
0.192108 0.632991 0.079566
0.252801 0.634128 0.079573
0.315994 0.635319 0.079583
0.381066 0.636550 0.079595
0.447393 0.637811 0.079610
0.514355 0.639091 0.079628
0.581326 0.640377 0.079648
0.647686 0.641658 0.079670
0.712808 0.642921 0.079694
0.776070 0.644153 0.079720
0.836848 0.645343 0.079747
0.894515 0.646476 0.079774
0.948448 0.647540 0.079801
0.998021 0.648522 0.079827
0.037114 0.697371 0.079573
0.086605 0.698302 0.079580
0.140462 0.699319 0.079590
0.198063 0.700412 0.079602
0.258788 0.701569 0.079616
0.322014 0.702779 0.079634
0.387120 0.704032 0.079654
0.453482 0.705314 0.079677
0.520477 0.706615 0.079702
0.587484 0.707923 0.079730
0.653877 0.709225 0.079761
0.719034 0.710508 0.079793
0.782329 0.711761 0.079826
0.843138 0.712970 0.079860
0.900835 0.714122 0.079894
0.954796 0.715203 0.079928
1.000000 0.716201 0.079960
0.042926 0.762873 0.079614
0.092442 0.763819 0.079627
0.146326 0.764854 0.079643
0.203957 0.765964 0.079662
0.264712 0.767140 0.079683
0.327970 0.768370 0.079708
0.393108 0.769642 0.079736
0.459504 0.770946 0.079767
0.526533 0.772267 0.079800
0.593573 0.773596 0.079836
0.660000 0.774918 0.079874
0.725190 0.776222 0.079913
0.788516 0.777494 0.079954
0.849356 0.778722 0.079995
0.907082 0.779892 0.080036
0.961070 0.780990 0.080076
1.000000 0.782003 0.080114
0.048610 0.825855 0.079677
0.098150 0.826816 0.079696
0.152060 0.827867 0.079718
0.209719 0.828994 0.079743
0.270503 0.830189 0.079771
0.333792 0.831437 0.079803
0.398961 0.832729 0.079838
0.465389 0.834052 0.079876
0.532451 0.835394 0.079917
0.599524 0.836742 0.079961
0.665983 0.838084 0.080006
0.731203 0.839408 0.080053
0.794561 0.840699 0.080101
0.855430 0.841944 0.080149
0.913184 0.843131 0.080196
0.967198 0.844246 0.080242
1.000000 0.845273 0.080286
0.054094 0.885663 0.079758
0.103656 0.886638 0.079782
0.157591 0.887704 0.079809
0.215276 0.888848 0.079841
0.276089 0.890059 0.079876
0.339406 0.891326 0.079914
0.404606 0.892636 0.079956
0.471064 0.893977 0.080001
0.538157 0.895338 0.080050
0.605260 0.896705 0.080100
0.671750 0.898066 0.080153
0.737000 0.899408 0.080206
0.800387 0.900717 0.080261
0.861283 0.901980 0.080315
0.919064 0.903183 0.080369
0.973103 0.904313 0.080421
1.000000 0.905354 0.080470
0.059302 0.941639 0.079852
0.108886 0.942628 0.079881
0.162844 0.943707 0.079914
0.220554 0.944867 0.079951
0.281393 0.946094 0.079992
0.344737 0.947377 0.080037
0.409965 0.948705 0.080085
0.476451 0.950064 0.080137
0.543573 0.951442 0.080192
0.610705 0.952827 0.080249
0.677223 0.954206 0.080308
0.742501 0.955565 0.080369
0.805915 0.956891 0.080430
0.866838 0.958170 0.080490
0.924643 0.959388 0.080549
0.978705 0.960532 0.080606
1.000000 0.961587 0.080660
0.064158 0.993127 0.079955
0.113761 0.994127 0.079988
0.167740 0.995220 0.080026
0.225473 0.996393 0.080068
0.286335 0.997635 0.080115
0.349705 0.998934 0.080166
0.414958 1.000000 0.080220
0.481471 1.000000 0.080278
0.548619 1.000000 0.080339
0.615777 1.000000 0.080402
0.682321 1.000000 0.080467
0.747626 1.000000 0.080534
0.811064 1.000000 0.080600
0.872011 1.000000 0.080666
0.929839 1.000000 0.080731
0.983922 1.000000 0.080793
1.000000 1.000000 0.080851
0.000000 0.000000 0.133078
0.030866 0.000000 0.133024
0.084433 0.000000 0.132966
0.141724 0.000000 0.132906
0.202122 0.000000 0.132844
0.265007 0.000000 0.132783
0.329762 0.001023 0.132721
0.395766 0.002085 0.132661
0.462401 0.003164 0.132603
0.529047 0.004249 0.132547
0.595083 0.005331 0.132494
0.659889 0.006398 0.132445
0.722843 0.007441 0.132399
0.783325 0.008448 0.132357
0.840712 0.009409 0.132319
0.894382 0.010311 0.132286
0.943714 0.011145 0.132256
0.000000 0.046266 0.132900
0.034531 0.047045 0.132850
0.088119 0.047896 0.132797
0.145433 0.048812 0.132742
0.205855 0.049782 0.132686
0.268765 0.050798 0.132630
0.333545 0.051850 0.132575
0.399576 0.052928 0.132521
0.466237 0.054023 0.132469
0.532910 0.055125 0.132419
0.598972 0.056222 0.132373
0.663803 0.057306 0.132329
0.726782 0.058364 0.132289
0.787288 0.059386 0.132253
0.844698 0.060361 0.132220
0.898389 0.061276 0.132191
0.947741 0.062121 0.132166
0.000000 0.101523 0.132723
0.038594 0.102315 0.132678
0.092205 0.103181 0.132631
0.149543 0.104112 0.132581
0.209991 0.105098 0.132532
0.272928 0.106131 0.132482
0.337737 0.107200 0.132433
0.403796 0.108296 0.132386
0.470486 0.109408 0.132340
0.537187 0.110528 0.132297
0.603278 0.111643 0.132257
0.668137 0.112744 0.132220
0.731143 0.113818 0.132187
0.791675 0.114856 0.132156
0.849109 0.115846 0.132130
0.902824 0.116776 0.132106
0.952197 0.117635 0.132086
0.000000 0.160668 0.132554
0.043024 0.161474 0.132514
0.096660 0.162355 0.132473
0.154025 0.163302 0.132430
0.214500 0.164305 0.132386
0.277467 0.165356 0.132343
0.342305 0.166443 0.132301
0.408395 0.167558 0.132261
0.475116 0.168690 0.132223
0.541847 0.169828 0.132187
0.607968 0.170962 0.132154
0.672858 0.172081 0.132124
0.735893 0.173174 0.132097
0.796452 0.174229 0.132073
0.853913 0.175235 0.132053
0.907653 0.176180 0.132035
0.957048 0.177053 0.132020
0.000000 0.223070 0.132399
0.047790 0.223891 0.132364
0.101452 0.224788 0.132329
0.158845 0.225752 0.132292
0.219350 0.226774 0.132256
0.282347 0.227843 0.132220
0.347217 0.228950 0.132185
0.413338 0.230084 0.132152
0.480092 0.231236 0.132121
0.546856 0.232394 0.132093
0.613009 0.233548 0.132068
0.677930 0.234686 0.132045
0.740996 0.235798 0.132025
0.801585 0.236871 0.132008
0.859073 0.237894 0.131994
0.912839 0.238856 0.131982
0.962258 0.239743 0.131973
0.003520 0.288097 0.132261
0.052857 0.288934 0.132232
0.106546 0.289848 0.132203
0.163968 0.290830 0.132173
0.224504 0.291870 0.132144
0.287532 0.292959 0.132115
0.352435 0.294086 0.132088
0.418590 0.295241 0.132063
0.485377 0.296413 0.132040
0.552175 0.297592 0.132020
0.618362 0.298767 0.132002
0.683315 0.299926 0.131987
0.746413 0.301057 0.131974
0.807032 0.302149 0.131965
0.864550 0.303190 0.131957
0.918343 0.304168 0.131952
0.967787 0.305071 0.131948
0.008823 0.355117 0.132145
0.058186 0.355969 0.132122
0.111903 0.356900 0.132099
0.169355 0.357900 0.132077
0.229921 0.358960 0.132055
0.292983 0.360069 0.132034
0.357919 0.361217 0.132015
0.424109 0.362393 0.131997
0.490931 0.363587 0.131983
0.557763 0.364787 0.131970
0.623984 0.365983 0.131960
0.688972 0.367163 0.131953
0.752102 0.368314 0.131948
0.812753 0.369426 0.131946
0.870301 0.370485 0.131945
0.924122 0.371480 0.131946
0.973592 0.372399 0.131949
0.014345 0.423491 0.132054
0.063733 0.424359 0.132038
0.117479 0.425308 0.132021
0.174961 0.426327 0.132005
0.235560 0.427406 0.131991
0.298655 0.428536 0.131978
0.363626 0.429705 0.131967
0.429850 0.430903 0.131958
0.496708 0.432119 0.131951
0.563575 0.433341 0.131947
0.629832 0.434558 0.131945
0.694853 0.435759 0.131946
0.758017 0.436931 0.131949
0.818700 0.438062 0.131954
0.876278 0.439140 0.131960
0.930128 0.440153 0.131968
0.979624 0.441088 0.131976
0.020037 0.492581 0.131990
0.069452 0.493465 0.131980
0.123227 0.494432 0.131970
0.180740 0.495470 0.131961
0.241371 0.496569 0.131954
0.304500 0.497720 0.131949
0.369505 0.498910 0.131946
0.435765 0.500130 0.131945
0.502658 0.501368 0.131947
0.569562 0.502612 0.131951
0.635853 0.503851 0.131957
0.700910 0.505073 0.131966
0.764108 0.506266 0.131977
0.824823 0.507417 0.131989
0.882432 0.508514 0.132003
0.936310 0.509545 0.132017
0.985832 0.510495 0.132032
0.025850 0.561745 0.131954
0.075292 0.562646 0.131950
0.129095 0.563630 0.131947
0.186638 0.564687 0.131945
0.247302 0.565806 0.131946
0.310465 0.566978 0.131948
0.375505 0.568190 0.131953
0.441800 0.569431 0.131961
0.508729 0.570691 0.131971
0.575668 0.571957 0.131983
0.641995 0.573218 0.131998
0.707086 0.574461 0.132015
0.770318 0.575675 0.132033
0.831066 0.576846 0.132053
0.888705 0.577962 0.132074
0.942612 0.579010 0.132095
0.992161 0.579977 0.132116
0.031728 0.630339 0.131946
0.081195 0.631255 0.131948
0.135027 0.632257 0.131951
0.192601 0.633333 0.131957
0.253297 0.634472 0.131965
0.316493 0.635664 0.131975
0.381567 0.636897 0.131988
0.447898 0.638160 0.132003
0.514862 0.639442 0.132022
0.581837 0.640730 0.132042
0.648199 0.642012 0.132065
0.713324 0.643277 0.132090
0.776589 0.644511 0.132116
0.837369 0.645702 0.132144
0.895039 0.646837 0.132171
0.948974 0.647903 0.132199
0.998549 0.648886 0.132226
0.037609 0.697714 0.131964
0.087103 0.698647 0.131972
0.140962 0.699666 0.131982
0.198566 0.700760 0.131995
0.259293 0.701919 0.132010
0.322522 0.703131 0.132028
0.387630 0.704385 0.132048
0.453995 0.705669 0.132072
0.520994 0.706972 0.132098
0.588004 0.708281 0.132127
0.654400 0.709585 0.132158
0.719559 0.710870 0.132191
0.782857 0.712125 0.132224
0.843668 0.713335 0.132259
0.901368 0.714488 0.132294
0.955332 0.715571 0.132328
1.000000 0.716570 0.132361
0.043431 0.763222 0.132007
0.092949 0.764170 0.132021
0.146835 0.765206 0.132037
0.204469 0.766318 0.132057
0.265227 0.767496 0.132079
0.328487 0.768727 0.132104
0.393628 0.770001 0.132133
0.460027 0.771306 0.132164
0.527059 0.772630 0.132198
0.594102 0.773960 0.132235
0.660532 0.775284 0.132273
0.725724 0.776590 0.132313
0.789054 0.777864 0.132355
0.849896 0.779093 0.132397
0.907625 0.780264 0.132438
0.961615 0.781364 0.132479
1.000000 0.782378 0.132517
0.049124 0.826210 0.132072
0.098666 0.827173 0.132091
0.152578 0.828224 0.132114
0.210239 0.829354 0.132140
0.271027 0.830549 0.132169
0.334318 0.831800 0.132201
0.399490 0.833093 0.132237
0.465921 0.834418 0.132276
0.532986 0.835761 0.132317
0.600061 0.837112 0.132361
0.666523 0.838456 0.132407
0.731747 0.839781 0.132455
0.795107 0.841073 0.132503
0.855978 0.842321 0.132552
0.913735 0.843509 0.132600
0.967752 0.844625 0.132647
1.000000 0.845654 0.132691
0.054616 0.886023 0.132155
0.104181 0.886999 0.132180
0.158118 0.888066 0.132208
0.215805 0.889212 0.132240
0.276621 0.890425 0.132275
0.339941 0.891693 0.132314
0.405143 0.893005 0.132357
0.471604 0.894348 0.132403
0.538700 0.895711 0.132452
0.605806 0.897080 0.132503
0.672299 0.898443 0.132556
0.737552 0.899786 0.132610
0.800941 0.901097 0.132666
0.861840 0.902362 0.132721
0.919624 0.903566 0.132775
0.973665 0.904697 0.132827
1.000000 0.905740 0.132877
0.059832 0.942004 0.132251
0.109418 0.942994 0.132281
0.163379 0.944075 0.132314
0.221091 0.945236 0.132352
0.281932 0.946465 0.132393
0.345280 0.947750 0.132439
0.410510 0.949079 0.132488
0.476999 0.950440 0.132540
0.544124 0.951820 0.132596
0.611259 0.953207 0.132654
0.677780 0.954587 0.132714
0.743061 0.955948 0.132775
0.806477 0.957275 0.132836
0.867403 0.958556 0.132897
0.925211 0.959776 0.132957
0.979275 0.960921 0.133015
1.000000 0.961977 0.133069
0.064695 0.993496 0.132355
0.114300 0.994498 0.132389
0.168282 0.995592 0.132428
0.226017 0.996767 0.132471
0.286882 0.998011 0.132518
0.350255 0.999311 0.132569
0.415511 1.000000 0.132624
0.482026 1.000000 0.132683
0.549177 1.000000 0.132744
0.616339 1.000000 0.132808
0.682886 1.000000 0.132874
0.748193 1.000000 0.132941
0.811634 1.000000 0.133009
0.872583 1.000000 0.133075
0.930414 1.000000 0.133140
0.984499 1.000000 0.133203
1.000000 1.000000 0.133262
0.000000 0.000000 0.189080
0.031293 0.000000 0.189026
0.084862 0.000000 0.188969
0.142156 0.000000 0.188909
0.202557 0.000000 0.188849
0.265445 0.000297 0.188788
0.330203 0.001335 0.188727
0.396210 0.002399 0.188668
0.462849 0.003480 0.188610
0.529497 0.004567 0.188555
0.595536 0.005651 0.188503
0.660345 0.006720 0.188454
0.723302 0.007765 0.188409
0.783787 0.008774 0.188368
0.841177 0.009736 0.188331
